ncols 326
nrows 161
xllcorner -500.0
yllcorner -1600.0
cellsize 20.0
NODATA_value -9999
0 0 0 0 0 0 0 0 0 0 0 0 0 0 0 0 0 0 0 0 0 0 0 0 0 0 0 0 0 0 0 0 0 0 0 0 0 0 0 0 0 0 0 0 0 0 0 0 0 0 0 0 6.08013e-312 1.8568e-290 3.86383e-271 1.05072e-253 6.45997e-238 1.42826e-223 1.68573e-210 1.48922e-198 1.31673e-187 1.49749e-177 2.72294e-168 9.56688e-160 7.66375e-152 1.61842e-144 1.02374e-137 2.17123e-131 1.70612e-125 5.42763e-120 7.56493e-115 4.95699e-110 1.62653e-105 2.82841e-101 2.74272e-97 1.55284e-93 5.3505e-90 1.16492e-86 1.65815e-83 1.59155e-80 1.05956e-77 5.01987e-75 1.73269e-72 4.45179e-70 8.68326e-68 1.30921e-65 1.55141e-63 1.46713e-61 1.12294e-59 7.04742e-58 3.67037e-56 1.60407e-54 5.94346e-53 1.88498e-51 5.1627e-50 1.23119e-48 2.57625e-47 4.76389e-46 7.83685e-45 1.15405e-43 1.53016e-42 1.83668e-41 2.00596e-40 2.00295e-39 1.8366e-38 1.55302e-37 1.2158e-36 8.84453e-36 5.99967e-35 3.8075e-34 2.26751e-33 1.27092e-32 6.72263e-32 3.36459e-31 1.5972e-30 7.20814e-30 3.09937e-29 1.27235e-28 4.99657e-28 1.88051e-27 6.7949e-27 2.36111e-26 7.90247e-26 2.55139e-25 7.95752e-25 2.4008e-24 7.01569e-24 1.98819e-23 5.47046e-23 1.46303e-22 3.80724e-22 9.65008e-22 2.38471e-21 5.75078e-21 1.35452e-20 3.11871e-20 7.02502e-20 1.5493e-19 3.34778e-19 7.09281e-19 1.47439e-18 3.00895e-18 6.03252e-18 1.18883e-17 2.3042e-17 4.3948e-17 8.25284e-17 1.52661e-16 2.78308e-16 5.00255e-16 8.86995e-16 1.55202e-15 2.68102e-15 4.57402e-15 7.71003e-15 1.28449e-14 2.11582e-14 3.44701e-14 5.55602e-14 8.86297e-14 1.39965e-13 2.18881e-13 3.39055e-13 5.20381e-13 7.91544e-13 1.19355e-12 1.78452e-12 2.6462e-12 3.8926e-12 5.68156e-12 8.22997e-12 1.18337e-11 1.68935e-11 2.39485e-11 3.37191e-11 4.71618e-11 6.55384e-11 9.05035e-11 1.24214e-10 1.69463e-10 2.29851e-10 3.09991e-10 4.15761e-10 5.54615e-10 7.3595e-10 9.71564e-10 1.27619e-09 1.66813e-09 2.17005e-09 2.80985e-09 3.62174e-09 4.6475e-09 5.93793e-09 7.55455e-09 9.57153e-09 1.2078e-08 1.51807e-08 1.90068e-08 2.37074e-08 2.94614e-08 3.64801e-08 4.50115e-08 5.53467e-08 6.78256e-08 8.28437e-08 1.00861e-07 1.22408e-07 1.481e-07 1.78643e-07 2.14847e-07 2.57639e-07 3.08078e-07 3.67368e-07 4.36877e-07 5.18155e-07 6.1295e-07 7.23235e-07 8.51226e-07 9.99411e-07 1.17057e-06 1.36782e-06 1.59461e-06 1.85479e-06 2.15265e-06 2.4929e-06 2.88078e-06 3.32205e-06 3.82305e-06 4.39077e-06 5.03283e-06 5.75763e-06 6.5743e-06 7.49283e-06 8.52407e-06 9.67986e-06 1.0973e-05 1.24174e-05 1.40281e-05 1.58214e-05 1.78147e-05 2.00269e-05 2.24784e-05 2.51909e-05 2.81879e-05 3.14942e-05 3.51369e-05 3.91443e-05 4.35471e-05 4.83777e-05 5.36707e-05 5.94629e-05 6.57932e-05 7.2703e-05 8.02362e-05 8.84389e-05 9.73601e-05 0.000107051 0.000117567 0.000128965 0.000141305 0.00015465 0.000169067 0.000184626 0.000201399 0.000219464 0.000238899 0.000259789 0.00028222 0.000306284 0.000332075 0.000359692 0.000389236 0.000420815 0.000454539 0.000490523 0.000528884 0.000569748 0.00061324 0.000659492 0.000708641 0.000760827 0.000816195 0.000874894 0.000937078 0.00100291 0.00107254 0.00114615 0.0012239 0.00130598 0.00139256 0.00148383 0.00157999 0.00168121 0.00178772 0.0018997 0.00201737 0.00214095 0.00227064 0.00240667 0.00254927 0.00269866 0.00285509 0.0030188 0.00319001 0.00336899 0.00355598 0.00375125 0.00395504 0.00416762 0.00438926 0.00462023 0.0048608 0.00511125 0.00537187 0.00564292 0.00592472 0.00621753 0.00652166 0.0068374 0.00716505 0.00750491 0.00785729 0.0082225 0.00860083 0.00899261 0.00939814
0 0 0 0 0 0 0 0 0 0 0 0 0 0 0 0 0 0 0 0 0 0 0 0 0 0 0 0 0 0 0 0 0 0 0 0 0 0 0 0 0 0 0 0 0 0 0 0 0 0 0 0 3.83471e-304 3.42899e-283 2.3646e-264 2.37303e-247 5.91513e-232 5.75828e-218 3.21812e-205 1.43561e-193 6.78654e-183 4.342e-173 4.64833e-164 1.00157e-155 5.10435e-148 7.08839e-141 3.03807e-134 4.48589e-128 2.51529e-122 5.83945e-117 6.06243e-112 3.01493e-107 7.63829e-103 1.04183e-98 8.03993e-95 3.67127e-91 1.0329e-87 1.85732e-84 2.2066e-81 1.78517e-78 1.01085e-75 4.10797e-73 1.22587e-70 2.74304e-68 4.69166e-66 6.24277e-64 6.56775e-62 5.54517e-60 3.80925e-58 2.15622e-56 1.01758e-54 4.04729e-53 1.3704e-51 3.98714e-50 1.00545e-48 2.2153e-47 4.29663e-46 7.38704e-45 1.13314e-43 1.56025e-42 1.93939e-41 2.18774e-40 2.25081e-39 2.12182e-38 1.84075e-37 1.47562e-36 1.09726e-35 7.59568e-35 4.91154e-34 2.97611e-33 1.69498e-32 9.099e-32 4.61636e-31 2.2191e-30 1.01312e-29 4.40276e-29 1.82516e-28 7.23201e-28 2.74429e-27 9.9908e-27 3.49553e-26 1.17727e-25 3.82257e-25 1.19838e-24 3.63238e-24 1.06592e-23 3.0321e-23 8.37074e-23 2.24535e-22 5.85835e-22 1.48829e-21 3.6851e-21 8.90167e-21 2.09963e-20 4.8399e-20 1.09121e-19 2.40825e-19 5.20639e-19 1.10339e-18 2.29388e-18 4.68116e-18 9.3831e-18 1.84846e-17 3.58094e-17 6.82568e-17 1.28082e-16 2.36724e-16 4.31143e-16 7.74156e-16 1.37107e-15 2.39608e-15 4.13365e-15 7.04258e-15 1.18539e-14 1.97188e-14 3.24298e-14 5.27476e-14 8.48785e-14 1.35166e-13 2.13079e-13 3.32621e-13 5.14297e-13 7.8787e-13 1.19615e-12 1.80017e-12 2.68628e-12 3.97554e-12 5.83645e-12 8.50169e-12 1.22902e-11 1.76358e-11 2.5125e-11 3.55443e-11 4.99425e-11 6.97083e-11 9.66689e-11 1.33214e-10 1.82452e-10 2.48396e-10 3.36208e-10 4.52484e-10 6.05606e-10 8.06176e-10 1.06753e-09 1.40637e-09 1.84348e-09 2.40465e-09 3.12172e-09 4.03376e-09 5.1886e-09 6.6445e-09 8.47209e-09 1.07567e-08 1.3601e-08 1.71281e-08 2.14849e-08 2.68461e-08 3.34188e-08 4.14478e-08 5.1221e-08 6.30762e-08 7.74082e-08 9.46774e-08 1.15419e-07 1.40251e-07 1.6989e-07 2.0516e-07 2.47004e-07 2.96507e-07 3.54905e-07 4.23603e-07 5.04201e-07 5.9851e-07 7.08576e-07 8.36703e-07 9.85487e-07 1.15784e-06 1.35701e-06 1.58664e-06 1.85078e-06 2.15393e-06 2.5011e-06 2.89783e-06 3.35021e-06 3.86502e-06 4.44965e-06 5.11229e-06 5.86185e-06 6.70815e-06 7.66186e-06 8.73465e-06 9.93923e-06 1.12894e-05 1.28001e-05 1.44876e-05 1.63695e-05 1.84646e-05 2.07934e-05 2.3378e-05 2.62419e-05 2.94106e-05 3.29113e-05 3.67731e-05 4.10272e-05 4.57068e-05 5.08473e-05 5.64866e-05 6.26647e-05 6.94243e-05 7.68106e-05 8.48716e-05 9.36579e-05 0.000103223 0.000113624 0.00012492 0.000137174 0.000150453 0.000164825 0.000180364 0.000197147 0.000215253 0.000234768 0.000255778 0.000278376 0.000302657 0.000328723 0.000356676 0.000386625 0.000418684 0.00045297 0.000489603 0.000528712 0.000570426 0.000614881 0.000662218 0.000712582 0.000766123 0.000822995 0.000883359 0.000947378 0.00101522 0.00108707 0.0011631 0.00124349 0.00132843 0.00141813 0.00151277 0.00161257 0.00171773 0.00182847 0.00194501 0.00206757 0.00219638 0.00233168 0.00247371 0.0026227 0.00277892 0.00294261 0.00311403 0.00329344 0.00348112 0.00367733 0.00388234 0.00409645 0.00431993 0.00455307 0.00479616 0.00504951 0.0053134 0.00558815 0.00587406 0.00617145 0.00648062 0.00680189 0.00713559 0.00748203 0.00784155 0.00821447 0.00860112 0.00900184 0.00941697 0.00984684 0.0102918 0.0107522 0.0112283 0.0117206
0 0 0 0 0 0 0 0 0 0 0 0 0 0 0 0 0 0 0 0 0 0 0 0 0 0 0 0 0 0 0 0 0 0 0 0 0 0 0 0 0 0 0 0 0 0 0 0 0 0 0 0 1.92948e-296 5.13057e-276 1.18885e-257 4.45862e-241 4.5573e-226 1.97364e-212 5.27217e-200 1.1979e-188 3.05159e-178 1.10633e-168 7.01974e-160 9.33317e-152 3.04331e-144 2.79383e-137 8.15323e-131 8.41959e-125 3.38306e-119 5.75437e-114 4.46645e-109 1.69167e-104 3.31988e-100 3.56262e-96 2.19427e-92 8.10307e-89 1.86627e-85 2.77826e-82 2.76125e-79 1.88692e-76 9.10642e-74 3.18054e-71 8.22056e-69 1.60479e-66 2.41088e-64 2.83552e-62 2.65243e-60 2.00225e-58 1.23615e-56 6.31932e-55 2.70567e-53 9.80555e-52 3.03749e-50 8.11604e-49 1.88635e-47 3.84371e-46 6.91663e-45 1.10663e-43 1.58427e-42 2.04143e-41 2.38078e-40 2.52594e-39 2.44989e-38 2.18199e-37 1.7922e-36 1.36293e-35 9.63254e-35 6.3491e-34 3.91582e-33 2.26686e-32 1.23535e-31 6.35499e-31 3.0941e-30 1.42928e-29 6.27866e-29 2.62871e-28 1.05109e-27 4.02179e-27 1.47531e-26 5.19758e-26 1.76155e-25 5.7525e-25 1.81275e-24 5.52025e-24 1.62671e-23 4.64465e-23 1.28653e-22 3.46112e-22 9.05377e-22 2.30524e-21 5.71896e-21 1.38372e-20 3.26822e-20 7.54196e-20 1.70189e-19 3.75838e-19 8.12874e-19 1.72312e-18 3.58247e-18 7.30993e-18 1.46482e-17 2.88446e-17 5.58477e-17 1.06378e-16 1.99453e-16 3.68292e-16 6.70075e-16 1.20182e-15 2.1259e-15 3.71038e-15 6.39223e-15 1.08747e-14 1.82763e-14 3.03543e-14 4.98395e-14 8.09278e-14 1.29998e-13 2.06647e-13 3.25171e-13 5.06652e-13 7.81899e-13 1.19551e-12 1.81148e-12 2.72083e-12 4.05196e-12 5.98452e-12 8.76786e-12 1.27454e-11 1.83867e-11 2.6329e-11 3.74309e-11 5.28419e-11 7.40897e-11 1.03193e-10 1.42799e-10 1.96364e-10 2.68368e-10 3.64586e-10 4.92419e-10 6.61303e-10 8.83202e-10 1.1732e-09 1.55024e-09 2.03795e-09 2.6657e-09 3.46981e-09 4.49501e-09 5.79606e-09 7.43984e-09 9.50753e-09 1.20974e-08 1.53279e-08 1.9341e-08 2.43066e-08 3.0427e-08 3.79423e-08 4.71363e-08 5.83434e-08 7.19563e-08 8.84344e-08 1.08314e-07 1.32217e-07 1.60867e-07 1.95099e-07 2.35872e-07 2.84293e-07 3.41626e-07 4.09316e-07 4.89009e-07 5.82576e-07 6.92135e-07 8.20081e-07 9.69116e-07 1.14228e-06 1.34297e-06 1.57501e-06 1.84266e-06 2.15066e-06 2.5043e-06 2.90943e-06 3.37253e-06 3.90078e-06 4.50206e-06 5.18509e-06 5.95939e-06 6.83546e-06 7.82473e-06 8.93974e-06 1.01941e-05 1.16027e-05 1.31817e-05 1.49485e-05 1.69222e-05 1.91231e-05 2.15736e-05 2.42973e-05 2.732e-05 3.06692e-05 3.43746e-05 3.84678e-05 4.29828e-05 4.79559e-05 5.34257e-05 5.94334e-05 6.6023e-05 7.3241e-05 8.11369e-05 8.97632e-05 9.91756e-05 0.000109433 0.000120597 0.000132733 0.000145911 0.000160202 0.000175685 0.000192438 0.000210546 0.000230098 0.000251186 0.000273907 0.000298362 0.000324656 0.000352901 0.00038321 0.000415704 0.000450507 0.000487748 0.000527561 0.000570087 0.000615468 0.000663856 0.000715404 0.000770274 0.00082863 0.000890643 0.00095649 0.00102635 0.00110042 0.00117888 0.00126193 0.00134978 0.00144263 0.00154071 0.00164423 0.00175341 0.00186849 0.00198971 0.0021173 0.00225152 0.00239262 0.00254085 0.00269648 0.00285978 0.00303101 0.00321047 0.00339844 0.00359519 0.00380103 0.00401626 0.00424117 0.00447608 0.0047213 0.00497714 0.00524393 0.00552198 0.00581164 0.00611322 0.00642707 0.00675353 0.00709294 0.00744565 0.007812 0.00819235 0.00858706 0.00899649 0.00942099 0.00986094 0.0103167 0.0107886 0.0112771 0.0117825 0.0123052 0.0128455 0.0134039 0.0139807 0.0145763
0 0 0 0 0 0 0 0 0 0 0 0 0 0 0 0 0 0 0 0 0 0 0 0 0 0 0 0 0 0 0 0 0 0 0 0 0 0 0 0 0 0 0 0 0 0 0 0 0 0 0 4.61037e-311 7.7453e-289 6.21961e-269 4.91057e-251 6.96907e-235 2.95435e-220 5.75087e-207 7.41228e-195 8.65198e-184 1.19711e-173 2.47715e-164 9.37796e-156 7.74125e-148 1.62426e-140 9.90943e-134 1.97872e-127 1.4356e-121 4.15121e-116 5.19384e-111 3.02518e-106 8.75661e-102 1.3355e-97 1.131e-93 5.57567e-90 1.66965e-86 3.15602e-83 3.89899e-80 3.24914e-77 1.8795e-74 7.74657e-72 2.32976e-69 5.22506e-67 8.91439e-65 1.17823e-62 1.22681e-60 1.02191e-58 6.90685e-57 3.83754e-55 1.77402e-53 6.89974e-52 2.2811e-50 6.472e-49 1.58985e-47 3.4093e-46 6.43103e-45 1.0747e-43 1.60163e-42 2.14182e-41 2.58493e-40 2.83073e-39 2.82694e-38 2.5867e-37 2.17823e-36 1.69506e-35 1.2237e-34 8.22533e-34 5.16547e-33 3.04048e-32 1.68255e-31 8.77859e-31 4.32995e-30 2.02416e-29 8.98981e-29 3.80175e-28 1.53417e-27 5.91967e-27 2.18821e-26 7.76306e-26 2.64776e-25 8.69622e-25 2.75462e-24 8.42767e-24 2.49387e-23 7.14718e-23 1.98626e-22 5.35919e-22 1.40546e-21 3.58642e-21 8.91413e-21 2.16022e-20 5.10891e-20 1.1802e-19 2.66533e-19 5.88939e-19 1.27424e-18 2.70157e-18 5.61661e-18 1.14584e-17 2.29532e-17 4.51757e-17 8.74116e-17 1.66373e-16 3.11663e-16 5.74913e-16 1.04485e-15 1.87175e-15 3.30666e-15 5.76326e-15 9.9145e-15 1.68413e-14 2.82587e-14 4.68563e-14 7.68031e-14 1.24491e-13 1.99614e-13 3.16723e-13 4.97438e-13 7.7357e-13 1.19148e-12 1.81813e-12 2.74932e-12 4.12102e-12 6.1245e-12 9.02667e-12 1.3197e-11 1.91432e-11 2.75574e-11 3.93763e-11 5.58592e-11 7.86867e-11 1.10087e-10 1.52997e-10 2.11257e-10 2.89867e-10 3.95292e-10 5.35842e-10 7.22141e-10 9.67696e-10 1.28959e-09 1.7093e-09 2.25371e-09 2.95631e-09 3.85858e-09 5.01171e-09 6.47851e-09 8.33579e-09 1.0677e-08 1.36154e-08 1.72876e-08 2.18579e-08 2.75228e-08 3.45168e-08 4.31185e-08 5.36574e-08 6.65225e-08 8.21706e-08 1.01137e-07 1.24046e-07 1.51626e-07 1.84718e-07 2.24299e-07 2.71492e-07 3.27588e-07 3.94069e-07 4.72624e-07 5.65183e-07 6.73936e-07 8.01365e-07 9.50279e-07 1.12384e-06 1.32562e-06 1.5596e-06 1.83026e-06 2.14261e-06 2.50219e-06 2.91522e-06 3.38855e-06 3.9298e-06 4.54735e-06 5.25049e-06 6.04939e-06 6.95526e-06 7.98037e-06 9.13813e-06 1.04432e-05 1.19116e-05 1.35606e-05 1.54092e-05 1.74779e-05 1.97888e-05 2.23658e-05 2.52349e-05 2.84239e-05 3.19627e-05 3.58836e-05 4.02211e-05 4.50121e-05 5.02962e-05 5.61156e-05 6.25154e-05 6.95435e-05 7.72509e-05 8.56918e-05 9.49238e-05 0.000105008 0.000116008 0.000127993 0.000141034 0.000155208 0.000170594 0.000187277 0.000205344 0.000224888 0.000246008 0.000268804 0.000293384 0.000319858 0.000348344 0.000378963 0.000411841 0.000447111 0.00048491 0.000525381 0.000568671 0.000614935 0.000664332 0.000717027 0.000773192 0.000833002 0.000896641 0.000964298 0.00103617 0.00111245 0.00119335 0.00127908 0.00136986 0.00146592 0.00156748 0.00167479 0.00178808 0.00190761 0.00203362 0.00216639 0.00230618 0.00245325 0.0026079 0.0027704 0.00294104 0.00312012 0.00330794 0.00350481 0.00371104 0.00392695 0.00415286 0.0043891 0.004636 0.00489389 0.00516313 0.00544406 0.00573703 0.00604239 0.00636051 0.00669175 0.00703648 0.00739508 0.00776791 0.00815535 0.0085578 0.00897563 0.00940924 0.00985901 0.0103253 0.0108086 0.0113093 0.0118277 0.0123642 0.0129193 0.0134934 0.0140869 0.0147002 0.0153336 0.0159877 0.0166628 0.0173593 0.0180777
0 0 0 0 0 0 0 0 0 0 0 0 0 0 0 0 0 0 0 0 0 0 0 0 0 0 0 0 0 0 0 0 0 0 0 0 0 0 0 0 0 0 0 0 0 0 0 0 0 0 0 5.52474e-303 2.48042e-281 6.10885e-262 1.66635e-244 9.06206e-229 1.61148e-214 1.42459e-201 8.94312e-190 5.40898e-179 4.097e-169 4.87402e-160 1.10831e-151 5.71516e-144 7.76019e-137 3.16295e-130 4.3427e-124 2.2237e-118 4.64711e-113 4.29382e-108 1.88371e-103 4.18154e-99 4.97228e-95 3.33332e-91 1.31908e-87 3.21176e-84 4.99521e-81 5.13365e-78 3.59512e-75 1.76419e-72 6.22258e-70 1.61458e-67 3.14785e-65 4.70169e-63 5.47636e-61 5.05603e-59 3.75591e-57 2.27614e-55 1.13968e-53 4.77046e-52 1.68749e-50 5.09546e-49 1.32563e-47 2.99707e-46 5.93592e-45 1.03759e-43 1.6118e-42 2.23948e-41 2.79991e-40 3.16766e-39 3.25991e-38 3.06673e-37 2.64935e-36 2.11087e-35 1.55737e-34 1.06801e-33 6.832e-33 4.09035e-32 2.2992e-31 1.21696e-30 6.08236e-30 2.87804e-29 1.29249e-28 5.52179e-28 2.2491e-27 8.75222e-27 3.26037e-26 1.16483e-25 3.99831e-25 1.32078e-24 4.2055e-24 1.29268e-23 3.8412e-23 1.10494e-22 3.08081e-22 8.33639e-22 2.19171e-21 5.60486e-21 1.39566e-20 3.38737e-20 8.02109e-20 1.85476e-19 4.19183e-19 9.2671e-19 2.00564e-18 4.25264e-18 8.84052e-18 1.80307e-17 3.61033e-17 7.10166e-17 1.37314e-16 2.61133e-16 4.88701e-16 9.00519e-16 1.63467e-15 2.92463e-15 5.15962e-15 8.97979e-15 1.54243e-14 2.61586e-14 4.38197e-14 7.25329e-14 1.18679e-13 1.92015e-13 3.07307e-13 4.8666e-13 7.62839e-13 1.18393e-12 1.81983e-12 2.77124e-12 4.18185e-12 6.25506e-12 9.27622e-12 1.36425e-11 1.99022e-11 2.88066e-11 4.13772e-11 5.8993e-11 8.35023e-11 1.17365e-10 1.63836e-10 2.27187e-10 3.12998e-10 4.28508e-10 5.8305e-10 7.88593e-10 1.06039e-09 1.4178e-09 1.8852e-09 2.4932e-09 3.28e-09 4.29303e-09 5.59092e-09 7.24578e-09 9.34593e-09 1.1999e-08 1.53357e-08 1.95138e-08 2.47235e-08 3.11926e-08 3.9193e-08 4.90482e-08 6.11417e-08 7.59261e-08 9.39337e-08 1.15789e-07 1.42221e-07 1.74078e-07 2.12348e-07 2.58169e-07 3.12857e-07 3.77925e-07 4.55107e-07 5.46385e-07 6.54019e-07 7.8058e-07 9.2898e-07 1.10251e-06 1.3049e-06 1.54031e-06 1.81344e-06 2.12955e-06 2.49451e-06 2.91484e-06 3.39782e-06 3.95153e-06 4.58487e-06 5.30773e-06 6.13096e-06 7.06654e-06 8.1276e-06 9.32854e-06 1.06851e-05 1.22144e-05 1.39353e-05 1.58681e-05 1.80349e-05 2.04597e-05 2.31685e-05 2.61892e-05 2.95522e-05 3.329e-05 3.74376e-05 4.20327e-05 4.71154e-05 5.2729e-05 5.89196e-05 6.57364e-05 7.32318e-05 8.14617e-05 9.04855e-05 0.000100366 0.000111171 0.00012297 0.000135838 0.000149854 0.000165103 0.000181671 0.000199651 0.000219141 0.000240242 0.000263063 0.000287714 0.000314315 0.000342987 0.000373859 0.000407066 0.000442748 0.000481049 0.000522121 0.000566123 0.000613217 0.000663574 0.00071737 0.000774787 0.000836014 0.000901247 0.000970687 0.00104454 0.00112303 0.00120637 0.00129479 0.00138852 0.00148781 0.00159291 0.00170406 0.00182154 0.00194561 0.00207654 0.00221462 0.00236013 0.00251337 0.00267463 0.00284424 0.00302249 0.00320972 0.00340624 0.00361238 0.00382849 0.00405491 0.00429199 0.00454008 0.00479955 0.00507075 0.00535406 0.00564986 0.00595853 0.00628045 0.00661602 0.00696563 0.00732967 0.00770856 0.00810269 0.00851249 0.00893836 0.00938073 0.00984001 0.0103166 0.010811 0.0113236 0.0118548 0.0124051 0.0129749 0.0135646 0.0141747 0.0148056 0.0154578 0.0161317 0.0168278 0.0175464 0.0182881 0.0190533 0.0198424 0.0206559 0.0214943 0.0223579
0 0 0 0 0 0 0 0 0 0 0 0 0 0 0 0 0 0 0 0 0 0 0 0 0 0 0 0 0 0 0 0 0 0 0 0 0 0 0 0 0 0 0 0 0 0 0 0 0 0 0 5.19141e-295 6.33725e-274 4.86133e-255 4.64553e-238 9.80295e-223 7.396e-209 3.00011e-196 9.25978e-185 2.927e-174 1.22328e-164 8.4274e-156 1.15871e-147 3.75561e-140 3.3189e-133 9.08515e-127 8.61901e-121 3.12909e-115 4.74609e-110 3.25135e-105 1.07833e-100 1.84211e-96 1.71341e-92 9.12032e-89 2.90545e-85 5.7677e-82 7.39976e-79 6.34155e-76 3.74059e-73 1.56051e-70 4.71989e-68 1.05864e-65 1.79751e-63 2.35453e-61 2.4208e-59 1.98486e-57 1.31692e-55 7.166e-54 3.23788e-52 1.22878e-50 3.95824e-49 1.09292e-47 2.61012e-46 5.4371e-45 9.95615e-44 1.61428e-42 2.33323e-41 3.02521e-40 3.53925e-39 3.75665e-38 3.63613e-37 3.22479e-36 2.63223e-35 1.98575e-34 1.38999e-33 9.061e-33 5.51981e-32 3.15257e-31 1.69327e-30 8.57739e-30 4.10894e-29 1.8662e-28 8.05542e-28 3.31211e-27 1.29999e-26 4.88066e-26 1.75611e-25 6.06663e-25 2.01565e-24 6.45151e-24 1.99232e-23 5.94485e-23 1.71638e-22 4.80123e-22 1.30287e-21 3.43381e-21 8.7998e-21 2.19512e-20 5.33559e-20 1.26493e-19 2.92766e-19 6.62106e-19 1.46439e-18 3.17002e-18 6.72167e-18 1.39709e-17 2.84846e-17 5.70069e-17 1.12061e-16 2.16504e-16 4.1135e-16 7.69024e-16 1.41543e-15 2.56612e-15 4.58488e-15 8.07692e-15 1.40356e-14 2.40697e-14 4.07524e-14 6.81477e-14 1.12599e-13 1.83893e-13 2.96962e-13 4.7434e-13 7.49681e-13 1.17274e-12 1.81633e-12 2.78606e-12 4.23357e-12 6.37481e-12 9.51447e-12 1.40789e-11 2.066e-11 3.00725e-11 4.34297e-11 6.2241e-11 8.85384e-11 1.25038e-10 1.75345e-10 2.44214e-10 3.37872e-10 4.64426e-10 6.34365e-10 8.61175e-10 1.1621e-09 1.55907e-09 2.07981e-09 2.75916e-09 3.64074e-09 4.77883e-09 6.24066e-09 8.10908e-09 1.04857e-08 1.34948e-08 1.72871e-08 2.20453e-08 2.79897e-08 3.53844e-08 4.45455e-08 5.58492e-08 6.97418e-08 8.67509e-08 1.07498e-07 1.32711e-07 1.63243e-07 2.00087e-07 2.44396e-07 2.97507e-07 3.6096e-07 4.36529e-07 5.26247e-07 6.32443e-07 7.57768e-07 9.05241e-07 1.07828e-06 1.28077e-06 1.51706e-06 1.79207e-06 2.11132e-06 2.48098e-06 2.90795e-06 3.39992e-06 3.96543e-06 4.61396e-06 5.35602e-06 6.20318e-06 7.16824e-06 8.26524e-06 9.50961e-06 1.09182e-05 1.25096e-05 1.4304e-05 1.63232e-05 1.85912e-05 2.1134e-05 2.39795e-05 2.71584e-05 3.07033e-05 3.46497e-05 3.90356e-05 4.39021e-05 4.9293e-05 5.52556e-05 6.184e-05 6.91002e-05 7.70936e-05 8.58813e-05 9.55283e-05 0.000106104 0.000117681 0.000130338 0.000144157 0.000159225 0.000175633 0.000193478 0.000212862 0.000233893 0.000256682 0.000281349 0.000308017 0.000336815 0.00036788 0.000401353 0.000437383 0.000476123 0.000517736 0.000562387 0.000610252 0.000661511 0.000716352 0.00077497 0.000837567 0.000904351 0.000975538 0.00105135 0.00113202 0.00121779 0.00130889 0.00140558 0.00150813 0.0016168 0.00173185 0.00185359 0.00198228 0.00211823 0.00226175 0.00241314 0.00257272 0.00274082 0.00291777 0.0031039 0.00329957 0.00350512 0.00372092 0.00394732 0.00418471 0.00443346 0.00469396 0.00496659 0.00525175 0.00554985 0.00586129 0.00618648 0.00652585 0.00687982 0.00724882 0.00763327 0.00803362 0.00845032 0.00888379 0.0093345 0.00980291 0.0102895 0.0107946 0.0113188 0.0118626 0.0124264 0.0130106 0.0136158 0.0142425 0.014891 0.0155619 0.0162557 0.0169728 0.0177138 0.018479 0.0192691 0.0200844 0.0209255 0.0217928 0.0226869 0.0236081 0.0245571 0.0255342 0.0265399 0.0275747
0 0 0 0 0 0 0 0 0 0 0 0 0 0 0 0 0 0 0 0 0 0 0 0 0 0 0 0 0 0 0 0 0 0 0 0 0 0 0 0 0 0 0 0 0 0 0 0 0 0 3.65144e-310 3.82522e-287 1.29171e-266 3.13436e-248 1.06398e-231 8.82194e-217 2.85614e-203 5.37125e-191 8.22786e-180 1.371e-169 3.18652e-160 1.28047e-151 1.07166e-143 2.19669e-136 1.27064e-129 2.34837e-123 1.54695e-117 4.00001e-112 4.42214e-107 2.25501e-102 5.67493e-98 7.48648e-94 5.46464e-90 2.31667e-86 5.9583e-83 9.66951e-80 1.02596e-76 7.34951e-74 3.65972e-71 1.30077e-68 3.38059e-66 6.56706e-64 9.72882e-62 1.11955e-59 1.01773e-57 7.42233e-56 4.40495e-54 2.15532e-52 8.80011e-51 3.0318e-49 8.90457e-48 2.2509e-46 4.94035e-45 9.49217e-44 1.6087e-42 2.42185e-41 3.26012e-40 3.94811e-39 4.326e-38 4.3116e-37 3.92826e-36 3.28694e-35 2.53689e-34 1.81341e-33 1.20514e-32 7.47271e-32 4.33792e-31 2.36495e-30 1.21448e-29 5.89115e-29 2.70645e-28 1.1805e-27 4.90029e-27 1.9401e-26 7.34144e-26 2.66043e-25 9.25015e-25 3.09128e-24 9.946e-24 3.0858e-23 9.24593e-23 2.67926e-22 7.51885e-22 2.04605e-21 5.40557e-21 1.38813e-20 3.46869e-20 8.44308e-20 2.00388e-19 4.64188e-19 1.05041e-18 2.32406e-18 5.0317e-18 1.06686e-17 2.2169e-17 4.51802e-17 9.03674e-17 1.77509e-16 3.42649e-16 6.50367e-16 1.2145e-15 2.23258e-15 4.04216e-15 7.21171e-15 1.26851e-14 2.20078e-14 3.76779e-14 6.36803e-14 1.06295e-13 1.75299e-13 2.8574e-13 4.60517e-13 7.34097e-13 1.15782e-12 1.80739e-12 2.79329e-12 4.27532e-12 6.48233e-12 9.73926e-12 1.45034e-11 2.14127e-11 3.13503e-11 4.55287e-11 6.55994e-11 9.37957e-11 1.33116e-10 1.87554e-10 2.624e-10 3.64605e-10 5.03254e-10 6.90133e-10 9.40453e-10 1.27372e-09 1.71478e-09 2.29518e-09 3.05464e-09 4.043e-09 5.32242e-09 6.97006e-09 9.08121e-09 1.1773e-08 1.51887e-08 1.95028e-08 2.49269e-08 3.17163e-08 4.0178e-08 5.06794e-08 6.36587e-08 7.96362e-08 9.92275e-08 1.23158e-07 1.5228e-07 1.87592e-07 2.30255e-07 2.81623e-07 3.4326e-07 4.16977e-07 5.04854e-07 6.09282e-07 7.32994e-07 8.79109e-07 1.05118e-06 1.25322e-06 1.48979e-06 1.76604e-06 2.08773e-06 2.46137e-06 2.89422e-06 3.3944e-06 3.97096e-06 4.63397e-06 5.39456e-06 6.26511e-06 7.25924e-06 8.39199e-06 9.67989e-06 1.11411e-05 1.27954e-05 1.46646e-05 1.67724e-05 1.91446e-05 2.18092e-05 2.47967e-05 2.81401e-05 3.18749e-05 3.60398e-05 4.06761e-05 4.58284e-05 5.15448e-05 5.78766e-05 6.48789e-05 7.26105e-05 8.11342e-05 9.05172e-05 0.000100831 0.000112151 0.000124557 0.000138137 0.000152979 0.000169179 0.000186838 0.000206064 0.000226968 0.000249668 0.000274289 0.00030096 0.000329819 0.00036101 0.000394681 0.00043099 0.0004701 0.000512181 0.000557413 0.00060598 0.000658074 0.000713896 0.000773653 0.000837561 0.000905843 0.00097873 0.00105646 0.00113928 0.00122745 0.00132122 0.00142088 0.00152669 0.00163895 0.00175795 0.001884 0.0020174 0.00215847 0.00230755 0.00246497 0.00263107 0.0028062 0.00299072 0.003185 0.00338941 0.00360434 0.00383017 0.00406729 0.00431612 0.00457706 0.00485052 0.00513694 0.00543674 0.00575036 0.00607824 0.00642083 0.00677858 0.00715196 0.00754142 0.00794744 0.0083705 0.00881107 0.00926964 0.0097467 0.0102427 0.0107582 0.0112937 0.0118497 0.0124267 0.0130251 0.0136456 0.0142885 0.0149545 0.0156441 0.0163578 0.017096 0.0178594 0.0186484 0.0194635 0.0203054 0.0211744 0.0220712 0.0229962 0.0239501 0.0249332 0.0259461 0.0269893 0.0280634 0.0291689 0.0303063 0.031476 0.0326786 0.0339146
0 0 0 0 0 0 0 0 0 0 0 0 0 0 0 0 0 0 0 0 0 0 0 0 0 0 0 0 0 0 0 0 0 0 0 0 0 0 0 0 0 0 0 0 0 0 0 0 0 0 8.74245e-302 2.21017e-279 2.10048e-259 1.63735e-241 2.00201e-225 6.60464e-211 9.28049e-198 8.17531e-186 6.27405e-175 5.55852e-165 7.24157e-156 1.70968e-147 8.76798e-140 1.14364e-132 4.35467e-126 5.46258e-120 2.51084e-114 4.6452e-109 3.759e-104 1.43251e-99 2.74564e-95 2.80685e-91 1.61307e-87 5.46309e-84 1.13762e-80 1.51338e-77 1.33135e-74 7.99128e-72 3.36696e-69 1.02177e-66 2.28641e-64 3.85419e-62 4.99094e-60 5.05438e-58 4.0692e-56 2.64386e-54 1.4056e-52 6.19306e-51 2.28804e-49 7.16537e-48 1.92121e-46 4.45135e-45 8.98904e-44 1.59475e-42 2.50402e-41 3.50371e-40 4.3968e-39 4.97792e-38 5.11292e-37 4.78905e-36 4.11043e-35 3.2475e-34 2.37176e-33 1.60758e-32 1.01501e-31 5.99074e-31 3.31605e-30 1.72676e-29 8.48335e-29 3.94287e-28 1.73812e-27 7.28489e-27 2.90958e-26 1.10978e-25 4.0507e-25 1.41756e-24 4.76498e-24 1.54112e-23 4.80371e-23 1.44528e-22 4.20335e-22 1.18335e-21 3.22906e-21 8.55125e-21 2.20033e-20 5.50736e-20 1.34234e-19 3.18926e-19 7.39346e-19 1.67394e-18 3.70469e-18 8.02136e-18 1.7005e-17 3.53244e-17 7.19545e-17 1.43824e-16 2.82282e-16 5.4437e-16 1.03212e-15 1.92504e-15 3.53405e-15 6.38939e-15 1.13821e-14 1.99883e-14 3.46198e-14 5.9165e-14 9.98127e-14 1.6629e-13 2.73706e-13 4.45247e-13 7.1611e-13 1.13913e-12 1.79279e-12 2.79249e-12 4.30622e-12 6.57617e-12 9.94834e-12 1.49125e-11 2.21558e-11 3.26346e-11 4.76683e-11 6.90634e-11 9.92734e-11 1.41606e-10 2.00489e-10 2.81806e-10 3.93319e-10 5.45209e-10 7.50731e-10 1.02704e-09 1.39621e-09 1.88645e-09 2.53362e-09 3.38308e-09 4.4918e-09 5.93106e-09 7.78949e-09 1.01768e-08 1.32281e-08 1.71089e-08 2.20213e-08 2.82106e-08 3.59732e-08 4.56662e-08 5.77174e-08 7.26376e-08 9.10343e-08 1.13627e-07 1.41264e-07 1.74943e-07 2.15833e-07 2.65298e-07 3.24925e-07 3.96552e-07 4.82306e-07 5.84632e-07 7.06342e-07 8.50653e-07 1.02124e-06 1.22227e-06 1.45849e-06 1.73527e-06 2.05866e-06 2.43547e-06 2.87336e-06 3.38089e-06 3.96762e-06 4.64423e-06 5.42257e-06 6.31578e-06 7.33842e-06 8.50655e-06 9.83787e-06 1.13519e-05 1.30698e-05 1.50152e-05 1.72136e-05 1.96927e-05 2.24831e-05 2.56175e-05 2.91318e-05 3.30648e-05 3.74582e-05 4.23572e-05 4.78104e-05 5.38701e-05 6.05925e-05 6.80378e-05 7.62703e-05 8.5359e-05 9.53772e-05 0.000106403 0.00011852 0.000131817 0.000146387 0.000162331 0.000179752 0.000198763 0.000219481 0.000242029 0.000266539 0.000293147 0.000321997 0.00035324 0.000387034 0.000423546 0.000462948 0.000505421 0.000551155 0.000600345 0.000653198 0.000709925 0.000770749 0.000835899 0.000905614 0.000980142 0.00105974 0.00114466 0.0012352 0.00133162 0.00143422 0.0015433 0.00165916 0.00178214 0.00191254 0.00205072 0.002197 0.00235175 0.00251534 0.00268812 0.00287048 0.0030628 0.0032655 0.00347895 0.00370359 0.00393984 0.00418811 0.00444886 0.00472252 0.00500954 0.00531039 0.00562553 0.00595544 0.00630059 0.00666148 0.00703859 0.00743243 0.0078435 0.00827232 0.00871939 0.00918524 0.00967039 0.0101754 0.0107008 0.011247 0.0118148 0.0124045 0.0130168 0.0136522 0.0143112 0.0149945 0.0157026 0.016436 0.0171953 0.0179811 0.0187939 0.0196343 0.0205029 0.0214002 0.0223269 0.0232834 0.0242703 0.0252883 0.0263378 0.0274195 0.0285338 0.0296814 0.0308628 0.0320785 0.0333292 0.0346153 0.0359373 0.037296 0.0386916 0.0401249 0.0415963
0 0 0 0 0 0 0 0 0 0 0 0 0 0 0 0 0 0 0 0 0 0 0 0 0 0 0 0 0 0 0 0 0 0 0 0 0 0 0 0 0 0 0 0 0 0 0 0 0 4.94066e-318 1.6099e-293 1.00137e-271 2.72497e-252 6.93e-235 3.09479e-219 4.11351e-205 2.5373e-192 1.05785e-180 4.10567e-170 1.95069e-160 1.43574e-151 2.00601e-143 6.34611e-136 5.29966e-129 1.33596e-122 1.14347e-116 3.68537e-111 4.90057e-106 2.91511e-101 8.3351e-97 1.22124e-92 9.70825e-89 4.40697e-85 1.196e-81 2.02229e-78 2.21124e-75 1.61698e-72 8.15208e-70 2.91279e-67 7.56346e-65 1.46021e-62 2.1401e-60 2.42682e-58 2.16662e-56 1.54736e-54 8.97067e-53 4.27879e-51 1.70003e-49 5.69099e-48 1.62214e-46 3.97546e-45 8.45264e-44 1.57227e-42 2.5784e-41 3.75475e-40 4.88789e-39 5.72357e-38 6.06361e-37 5.8433e-36 5.14795e-35 4.16583e-34 3.11008e-33 2.15096e-32 1.38343e-31 8.30455e-31 4.66857e-30 2.46572e-29 1.22714e-28 5.77112e-28 2.57153e-27 1.08836e-26 4.38556e-26 1.68622e-25 6.19938e-25 2.18367e-24 7.3832e-24 2.40042e-23 7.51697e-23 2.27091e-22 6.62842e-22 1.87194e-21 5.12193e-21 1.35954e-20 3.50503e-20 8.78699e-20 2.14443e-19 5.09992e-19 1.18311e-18 2.67985e-18 5.93211e-18 1.28439e-17 2.72225e-17 5.65256e-17 1.15072e-16 2.29833e-16 4.50682e-16 8.6821e-16 1.64417e-15 3.06261e-15 5.61448e-15 1.01353e-14 1.8026e-14 3.1602e-14 5.46373e-14 9.32018e-14 1.56931e-13 2.60933e-13 4.28606e-13 6.9577e-13 1.11664e-12 1.77239e-12 2.78324e-12 4.32545e-12 6.65488e-12 1.01394e-11 1.53028e-11 2.28846e-11 3.39192e-11 4.98418e-11 7.26267e-11 1.04969e-10 1.50517e-10 2.14178e-10 3.02495e-10 4.24141e-10 5.90526e-10 8.1656e-10 1.12161e-09 1.53066e-09 2.07574e-09 2.79771e-09 3.74834e-09 4.99285e-09 6.61302e-09 8.71079e-09 1.14126e-08 1.48744e-08 1.92879e-08 2.4887e-08 3.19566e-08 4.08414e-08 5.19571e-08 6.58026e-08 8.29742e-08 1.04182e-07 1.30267e-07 1.62225e-07 2.01224e-07 2.48636e-07 3.06063e-07 3.75369e-07 4.58717e-07 5.58607e-07 6.77922e-07 8.1997e-07 9.88542e-07 1.18797e-06 1.42317e-06 1.69974e-06 2.02401e-06 2.40312e-06 2.8451e-06 3.359e-06 3.95491e-06 4.64413e-06 5.43924e-06 6.35423e-06 7.40461e-06 8.60754e-06 9.98197e-06 1.15488e-05 1.33309e-05 1.53535e-05 1.76441e-05 2.02329e-05 2.31526e-05 2.6439e-05 3.01307e-05 3.427e-05 3.89023e-05 4.40767e-05 4.98462e-05 5.6268e-05 6.34034e-05 7.13181e-05 8.00828e-05 8.97728e-05 0.000100469 0.000112256 0.000125227 0.000139479 0.000155115 0.000172243 0.000190982 0.000211452 0.000233783 0.000258113 0.000284585 0.00031335 0.000344567 0.000378404 0.000415036 0.000454645 0.000497423 0.000543571 0.000593298 0.000646821 0.000704368 0.000766175 0.000832486 0.000903557 0.000979652 0.00106105 0.00114802 0.00124087 0.00133989 0.00144541 0.00155774 0.00167721 0.00180417 0.00193897 0.00208197 0.00223354 0.00239407 0.00256394 0.00274357 0.00293334 0.0031337 0.00334506 0.00356787 0.00380257 0.00404962 0.00430948 0.00458263 0.00486955 0.00517073 0.00548668 0.00581789 0.00616488 0.00652818 0.00690831 0.00730581 0.00772122 0.00815509 0.00860798 0.00908045 0.00957306 0.0100864 0.010621 0.0111775 0.0117565 0.0123585 0.0129842 0.0136341 0.0143089 0.0150091 0.0157354 0.0164883 0.0172685 0.0180767 0.0189133 0.019779 0.0206745 0.0216004 0.0225572 0.0235456 0.0245662 0.0256196 0.0267064 0.0278273 0.0289828 0.0301735 0.0314001 0.0326632 0.0339633 0.035301 0.036677 0.0380918 0.039546 0.0410402 0.042575 0.0441508 0.0457683 0.0474281 0.0491306 0.0508765
0 0 0 0 0 0 0 0 0 0 0 0 0 0 0 0 0 0 0 0 0 0 0 0 0 0 0 0 0 0 0 0 0 0 0 0 0 0 0 0 0 0 0 0 0 0 0 0 0 3.03535e-309 2.28015e-285 3.5576e-264 2.82029e-245 2.37642e-228 3.93032e-213 2.13134e-199 5.83691e-187 1.16368e-175 2.30566e-165 5.92549e-156 2.48341e-147 2.06832e-139 4.0633e-132 2.18595e-125 3.66893e-119 2.154e-113 4.89178e-108 4.69667e-103 2.06245e-98 4.44211e-94 4.99382e-90 3.09773e-86 1.11435e-82 2.43078e-79 3.347e-76 3.01623e-73 1.83809e-70 7.80216e-68 2.36954e-65 5.27598e-63 8.80593e-61 1.12427e-58 1.11847e-56 8.81829e-55 5.59606e-53 2.89934e-51 1.24256e-49 4.45826e-48 1.35413e-46 3.51765e-45 7.88953e-44 1.5412e-42 2.64361e-41 4.01176e-40 5.42381e-39 6.57547e-38 7.19157e-37 7.13576e-36 6.45735e-35 5.35541e-34 4.08924e-33 2.88709e-32 1.89228e-31 1.1557e-30 6.60039e-30 3.53661e-29 1.78339e-28 8.48809e-28 3.82355e-27 1.63432e-26 6.6447e-26 2.57557e-25 9.53831e-25 3.38184e-24 1.15015e-23 3.75891e-23 1.18257e-22 3.5872e-22 1.05079e-21 2.97677e-21 8.16662e-21 2.17259e-20 5.61169e-20 1.40898e-19 3.44269e-19 8.1948e-19 1.90225e-18 4.31031e-18 9.5424e-18 2.06585e-17 4.37717e-17 9.08426e-17 1.84806e-16 3.688e-16 7.22457e-16 1.39017e-15 2.62927e-15 4.89075e-15 8.95239e-15 1.61349e-14 2.86477e-14 5.01333e-14 8.65145e-14 1.47292e-13 2.47509e-13 4.10687e-13 6.73155e-13 1.09038e-12 1.74606e-12 2.76515e-12 4.33221e-12 6.717e-12 1.03099e-11 1.56706e-11 2.35937e-11 3.51973e-11 5.20409e-11 7.62814e-11 1.10877e-10 1.59853e-10 2.28645e-10 3.24533e-10 4.57204e-10 6.39452e-10 8.88059e-10 1.22489e-09 1.67825e-09 2.28454e-09 3.09032e-09 4.15474e-09 5.55256e-09 7.37768e-09 9.74745e-09 1.28077e-08 1.67389e-08 2.17628e-08 2.81511e-08 3.62348e-08 4.64153e-08 5.91772e-08 7.51029e-08 9.48897e-08 1.19368e-07 1.49525e-07 1.86527e-07 2.31745e-07 2.86793e-07 3.53554e-07 4.34221e-07 5.31342e-07 6.47863e-07 7.87181e-07 9.53201e-07 1.15039e-06 1.38387e-06 1.65944e-06 1.98371e-06 2.36416e-06 2.80923e-06 3.3284e-06 3.93236e-06 4.63305e-06 5.4438e-06 6.37949e-06 7.45663e-06 8.69356e-06 1.01105e-05 1.17299e-05 1.35764e-05 1.5677e-05 1.80615e-05 2.07622e-05 2.38148e-05 2.72579e-05 3.11335e-05 3.54873e-05 4.03689e-05 4.58317e-05 5.19336e-05 5.87368e-05 6.63084e-05 7.47205e-05 8.40502e-05 9.43802e-05 0.000105799 0.000118401 0.000132286 0.000147563 0.000164343 0.000182749 0.000202907 0.000224953 0.000249031 0.00027529 0.00030389 0.000334998 0.00036879 0.000405451 0.000445174 0.000488163 0.000534629 0.000584794 0.000638891 0.000697159 0.000759852 0.00082723 0.000899566 0.000977143 0.00106025 0.0011492 0.00124429 0.00134587 0.00145425 0.0015698 0.00169286 0.0018238 0.00196302 0.00211088 0.0022678 0.0024342 0.00261048 0.00279708 0.00299446 0.00320306 0.00342334 0.0036558 0.00390089 0.00415914 0.00443103 0.00471708 0.00501782 0.00533378 0.0056655 0.00601354 0.00637844 0.00676079 0.00716115 0.00758011 0.00801825 0.00847618 0.0089545 0.00945383 0.00997477 0.0105179 0.011084 0.0116736 0.0122872 0.0129257 0.0135896 0.0142796 0.0149964 0.0157405 0.0165127 0.0173136 0.0181438 0.0190042 0.0198952 0.0208176 0.0217721 0.0227593 0.0237799 0.0248346 0.0259239 0.0270487 0.0282095 0.0294071 0.030642 0.0319149 0.0332266 0.0345775 0.0359685 0.0374 0.0388729 0.0403876 0.0419449 0.0435452 0.0451894 0.0468779 0.0486114 0.0503905 0.0522157 0.0540877 0.056007 0.0579741 0.0599898 0.0620544
0 0 0 0 0 0 0 0 0 0 0 0 0 0 0 0 0 0 0 0 0 0 0 0 0 0 0 0 0 0 0 0 0 0 0 0 0 0 0 0 0 0 0 0 0 0 0 0 0 1.5363e-300 2.48386e-277 9.91105e-257 2.32871e-238 6.60256e-222 4.10069e-207 9.18696e-194 1.12981e-181 1.08827e-170 1.11117e-160 1.558e-151 3.74756e-143 1.87402e-135 2.30152e-128 8.02543e-122 9.01964e-116 3.65142e-110 5.87184e-105 4.08915e-100 1.33123e-95 2.16837e-91 1.87732e-87 9.11855e-84 2.60791e-80 4.58649e-77 5.15746e-74 3.84092e-71 1.95559e-68 7.00577e-66 1.81259e-63 3.46818e-61 5.01459e-59 5.5879e-57 4.88593e-55 3.40781e-53 1.92476e-51 8.92613e-50 3.44234e-48 1.11695e-46 3.08235e-45 7.30682e-44 1.50164e-42 2.6983e-41 4.27293e-40 6.00688e-39 7.54759e-38 8.52992e-37 8.72184e-36 8.11287e-35 6.90014e-34 5.3917e-33 3.88785e-32 2.59786e-31 1.61485e-30 9.37222e-30 5.09603e-29 2.60431e-28 1.25468e-27 5.7145e-27 2.46711e-26 1.01216e-25 3.95539e-25 1.4756e-24 5.26628e-24 1.80157e-23 5.9187e-23 1.87066e-22 5.69747e-22 1.67485e-21 4.75916e-21 1.30905e-20 3.49015e-20 9.03119e-20 2.27083e-19 5.55477e-19 1.32331e-18 3.07342e-18 6.96591e-18 1.54219e-17 3.33804e-17 7.06983e-17 1.46637e-16 2.98078e-16 5.94282e-16 1.16288e-15 2.23488e-15 4.22109e-15 7.84001e-15 1.43279e-14 2.57793e-14 4.56891e-14 7.98052e-14 1.37449e-13 2.33532e-13 3.91603e-13 6.48375e-13 1.0604e-12 1.71374e-12 2.73794e-12 4.32577e-12 6.76109e-12 1.04576e-11 1.60121e-11 2.42776e-11 3.64612e-11 5.42564e-11 8.0018e-11 1.16992e-10 1.69617e-10 2.43913e-10 3.47981e-10 4.92644e-10 6.92251e-10 9.65694e-10 1.33768e-09 1.84028e-09 2.51491e-09 3.41466e-09 4.60718e-09 6.1782e-09 8.23569e-09 1.09149e-08 1.43843e-08 1.88526e-08 2.45771e-08 3.18734e-08 4.11269e-08 5.28052e-08 6.74744e-08 8.58153e-08 1.08644e-07 1.36935e-07 1.71844e-07 2.14743e-07 2.67245e-07 3.31246e-07 4.08966e-07 5.0299e-07 6.16322e-07 7.52438e-07 9.1535e-07 1.10967e-06 1.34068e-06 1.61442e-06 1.93776e-06 2.31853e-06 2.76555e-06 3.28881e-06 3.89956e-06 4.61041e-06 5.43549e-06 6.39059e-06 7.49331e-06 8.76318e-06 1.02219e-05 1.18934e-05 1.38041e-05 1.59832e-05 1.84627e-05 2.12776e-05 2.44663e-05 2.80707e-05 3.21365e-05 3.67131e-05 4.18545e-05 4.7619e-05 5.40696e-05 6.12744e-05 6.93066e-05 7.82451e-05 8.81745e-05 9.91855e-05 0.000111375 0.000124847 0.000139712 0.000156087 0.000174099 0.000193879 0.000215569 0.000239319 0.000265285 0.000293635 0.000324544 0.000358198 0.000394792 0.000434528 0.000477623 0.000524301 0.000574797 0.000629357 0.000688238 0.000751708 0.000820045 0.00089354 0.000972496 0.00105722 0.00114805 0.00124531 0.00134936 0.00146055 0.00157926 0.00170588 0.00184079 0.00198441 0.00213716 0.00229948 0.0024718 0.00265459 0.00284832 0.00305346 0.0032705 0.00349996 0.00374234 0.00399818 0.004268 0.00455236 0.00485182 0.00516694 0.00549831 0.00584651 0.00621215 0.00659582 0.00699816 0.00741977 0.00786131 0.00832341 0.00880672 0.0093119 0.00983961 0.0103905 0.0109653 0.0115647 0.0121894 0.01284 0.0135172 0.0142218 0.0149545 0.015716 0.016507 0.0173282 0.0181803 0.0190641 0.0199803 0.0209296 0.0219127 0.0229304 0.0239834 0.0250724 0.0261982 0.0273614 0.0285629 0.0298032 0.0310832 0.0324035 0.0337649 0.0351681 0.0366137 0.0381026 0.0396352 0.0412125 0.0428349 0.0445033 0.0462183 0.0479806 0.0497907 0.0516494 0.0535573 0.0555151 0.0575233 0.0595826 0.0616936 0.063857 0.0660731 0.0683428 0.0706665 0.0730448 0.0754783
0 0 0 0 0 0 0 0 0 0 0 0 0 0 0 0 0 0 0 0 0 0 0 0 0 0 0 0 0 0 0 0 0 0 0 0 0 0 0 0 0 0 0 0 0 0 0 0 1.4822e-317 5.85167e-292 2.08107e-269 2.16511e-249 1.534e-231 1.48628e-215 3.51494e-201 3.29434e-188 1.84007e-176 8.65221e-166 4.59557e-156 3.54583e-147 4.93373e-139 1.49211e-131 1.15323e-124 2.62259e-118 1.98493e-112 5.57025e-107 6.37386e-102 3.23427e-97 7.83914e-93 9.69483e-89 6.48808e-85 2.47622e-81 5.64883e-78 8.03405e-75 7.39918e-72 4.56613e-69 1.94733e-66 5.9019e-64 1.30382e-61 2.1484e-59 2.69647e-57 2.62762e-55 2.02303e-53 1.25041e-51 6.2962e-50 2.61767e-48 9.09763e-47 2.67336e-45 6.71201e-44 1.45384e-42 2.74114e-41 4.53614e-40 6.63914e-39 8.6555e-38 1.01179e-36 1.06703e-35 1.02099e-34 8.91114e-34 7.12965e-33 5.25331e-32 3.58017e-31 2.26587e-30 1.33681e-29 7.37811e-29 3.82211e-28 1.86422e-27 8.58615e-27 3.74455e-26 1.55033e-25 6.10846e-25 2.2957e-24 8.24732e-24 2.838e-23 9.37232e-23 2.97583e-22 9.09998e-22 2.68442e-21 7.65077e-21 2.10978e-20 5.63698e-20 1.46116e-19 3.67905e-19 9.00878e-19 2.14772e-18 4.99033e-18 1.13126e-17 2.50433e-17 5.41895e-17 1.14713e-16 2.37761e-16 4.82886e-16 9.61727e-16 1.87964e-15 3.60752e-15 6.80361e-15 1.26165e-14 2.3018e-14 4.13401e-14 7.31288e-14 1.27481e-13 2.19109e-13 3.71486e-13 6.21566e-13 1.02681e-12 1.67544e-12 2.70136e-12 4.30546e-12 6.78578e-12 1.05798e-11 1.63233e-11 2.49302e-11 3.77026e-11 5.64779e-11 8.38249e-11 1.23304e-10 1.79807e-10 2.60003e-10 3.72904e-10 5.30603e-10 7.492e-10 1.04997e-09 1.46084e-09 2.01819e-09 2.76915e-09 3.77431e-09 5.11113e-09 6.87801e-09 9.19921e-09 1.22308e-08 1.61674e-08 2.12512e-08 2.77807e-08 3.61232e-08 4.67276e-08 6.014e-08 7.70221e-08 9.8171e-08 1.24544e-07 1.57283e-07 1.97749e-07 2.47554e-07 3.08598e-07 3.83116e-07 4.73725e-07 5.83477e-07 7.1592e-07 8.75164e-07 1.06595e-06 1.29373e-06 1.56477e-06 1.8862e-06 2.26618e-06 2.71395e-06 3.23999e-06 3.85612e-06 4.57567e-06 5.41359e-06 6.38661e-06 7.51346e-06 8.81495e-06 1.03142e-05 1.2037e-05 1.40116e-05 1.62694e-05 1.88448e-05 2.17757e-05 2.51035e-05 2.88736e-05 3.31355e-05 3.79431e-05 4.33549e-05 4.94346e-05 5.62508e-05 6.38778e-05 7.2396e-05 8.18915e-05 9.24571e-05 0.000104192 0.000117204 0.000131605 0.000147519 0.000165074 0.000184408 0.000205669 0.000229012 0.000254602 0.000282613 0.000313229 0.000346646 0.000383068 0.00042271 0.000465799 0.000512573 0.00056328 0.000618183 0.000677554 0.000741678 0.000810851 0.000885384 0.0009656 0.00105183 0.00114443 0.00124376 0.00135018 0.0014641 0.0015859 0.00171601 0.00185485 0.00200287 0.0021605 0.00232824 0.00250655 0.00269593 0.00289688 0.00310994 0.00333562 0.00357448 0.00382707 0.00409398 0.00437577 0.00467304 0.00498641 0.00531649 0.0056639 0.0060293 0.00641334 0.00681666 0.00723996 0.0076839 0.00814919 0.00863651 0.00914658 0.00968013 0.0102379 0.0108205 0.0114288 0.0120636 0.0127255 0.0134153 0.0141338 0.0148817 0.0156599 0.0164691 0.0173101 0.0181836 0.0190905 0.0200315 0.0210075 0.0220191 0.0230673 0.0241528 0.0252764 0.0264389 0.027641 0.0288836 0.0301675 0.0314934 0.0328621 0.0342743 0.035731 0.0372328 0.0387804 0.0403747 0.0420164 0.0437063 0.045445 0.0472334 0.0490721 0.0509618 0.0529034 0.0548974 0.0569445 0.0590455 0.0612011 0.0634118 0.0656784 0.0680014 0.0703816 0.0728195 0.0753157 0.0778709 0.0804857 0.0831605 0.0858961 0.0886928 0.0915514
0 0 0 0 0 0 0 0 0 0 0 0 0 0 0 0 0 0 0 0 0 0 0 0 0 0 0 0 0 0 0 0 0 0 0 0 0 0 0 0 0 0 0 0 0 0 0 0 2.66323e-308 1.67733e-283 1.34105e-261 3.70883e-242 8.06165e-225 2.71073e-209 2.4752e-195 9.82747e-183 2.52159e-171 5.84803e-161 1.63107e-151 6.98515e-143 5.6667e-135 1.044e-127 5.11186e-121 7.62831e-115 3.91027e-109 7.64685e-104 6.25682e-99 2.32391e-94 4.2114e-90 3.9702e-86 2.06143e-82 6.20343e-79 1.13245e-75 1.3065e-72 9.88323e-70 5.06762e-67 1.81488e-64 4.66468e-62 8.81891e-60 1.25414e-57 1.36917e-55 1.169e-53 7.93942e-52 4.35632e-50 1.95878e-48 7.31232e-47 2.29372e-45 6.11279e-44 1.39821e-42 2.77088e-41 4.79896e-40 7.32233e-39 9.91644e-38 1.20023e-36 1.30664e-35 1.28712e-34 1.15361e-33 9.45622e-33 7.12337e-32 4.95352e-31 3.19319e-30 1.91568e-29 1.0735e-28 5.63838e-28 2.78473e-27 1.29719e-26 5.7154e-26 2.38822e-25 9.48803e-25 3.59236e-24 1.29912e-23 4.49679e-23 1.49277e-22 4.76142e-22 1.46183e-21 4.32715e-21 1.2369e-20 3.41933e-20 9.15461e-20 2.3769e-19 5.99248e-19 1.46875e-18 3.50377e-18 8.14399e-18 1.8463e-17 4.08656e-17 8.83911e-17 1.86999e-16 3.87273e-16 7.85766e-16 1.56315e-15 3.05108e-15 5.84735e-15 1.10105e-14 2.0383e-14 3.71203e-14 6.65407e-14 1.17473e-13 2.04357e-13 3.50483e-13 5.92898e-13 9.89761e-13 1.63121e-12 2.65526e-12 4.2707e-12 6.78975e-12 1.06742e-11 1.65998e-11 2.5545e-11 3.89125e-11 5.86935e-11 8.76885e-11 1.298e-10 1.9042e-10 2.76931e-10 3.99363e-10 5.71227e-10 8.10592e-10 1.14143e-09 1.59532e-09 2.21356e-09 3.04982e-09 4.17331e-09 5.67278e-09 7.66131e-09 1.02821e-08 1.37152e-08 1.81863e-08 2.3976e-08 3.14316e-08 4.09809e-08 5.31478e-08 6.85706e-08 8.80239e-08 1.12443e-07 1.4295e-07 1.8089e-07 2.27863e-07 2.85768e-07 3.56846e-07 4.43737e-07 5.4953e-07 6.77835e-07 8.32848e-07 1.01943e-06 1.24321e-06 1.51063e-06 1.82912e-06 2.20715e-06 2.65437e-06 3.18176e-06 3.80175e-06 4.52837e-06 5.37742e-06 6.36665e-06 7.51592e-06 8.84742e-06 1.03859e-05 1.21587e-05 1.41965e-05 1.65327e-05 1.92045e-05 2.22527e-05 2.57222e-05 2.96621e-05 3.4126e-05 3.91725e-05 4.48654e-05 5.12738e-05 5.84728e-05 6.65436e-05 7.55739e-05 8.56583e-05 9.68984e-05 0.000109403 0.000123291 0.000138685 0.000155722 0.000174542 0.000195299 0.000218155 0.000243282 0.000270861 0.000301085 0.00033416 0.000370299 0.00040973 0.000452693 0.000499437 0.000550227 0.00060534 0.000665065 0.000729706 0.000799577 0.000875011 0.000956351 0.00104396 0.0011382 0.00123946 0.00134815 0.00146469 0.00158949 0.00172302 0.00186572 0.00201808 0.00218059 0.00235374 0.00253807 0.00273409 0.00294238 0.00316347 0.00339797 0.00364645 0.00390952 0.00418781 0.00448194 0.00479257 0.00512035 0.00546596 0.00583008 0.00621341 0.00661666 0.00704055 0.00748582 0.0079532 0.00844345 0.00895733 0.00949562 0.0100591 0.0106486 0.0112648 0.0119086 0.0125808 0.0132823 0.0140138 0.0147762 0.0155702 0.0163969 0.017257 0.0181513 0.0190808 0.0200462 0.0210484 0.0220884 0.0231669 0.0242848 0.025443 0.0266424 0.0278837 0.0291679 0.0304959 0.0318684 0.0332863 0.0347505 0.0362618 0.0378211 0.0394291 0.0410868 0.0427949 0.0445542 0.0463656 0.0482299 0.0501478 0.0521202 0.0541477 0.0562313 0.0583716 0.0605693 0.0628253 0.0651402 0.0675148 0.0699497 0.0724456 0.0750033 0.0776234 0.0803065 0.0830533 0.0858644 0.0887405 0.0916821 0.0946897 0.0977641 0.100906 0.104115 0.107393 0.110739
0 0 0 0 0 0 0 0 0 0 0 0 0 0 0 0 0 0 0 0 0 0 0 0 0 0 0 0 0 0 0 0 0 0 0 0 0 0 0 0 0 0 0 0 0 0 0 0 3.03671e-299 3.6182e-275 6.6466e-254 4.98187e-235 3.37997e-218 4.00564e-203 1.43198e-189 2.4389e-177 2.90753e-166 3.36034e-156 4.96802e-147 1.19108e-138 5.67823e-131 6.41898e-124 2.0045e-117 1.97497e-111 6.89564e-106 9.44683e-101 5.55426e-96 1.51692e-91 2.06409e-87 1.48919e-83 6.02136e-80 1.43369e-76 2.10122e-73 1.97244e-70 1.22908e-67 5.25051e-65 1.5831e-62 3.45896e-60 5.60913e-58 6.89906e-56 6.56472e-54 4.92045e-52 2.95331e-50 1.44103e-48 5.79559e-47 1.94574e-45 5.51687e-44 1.3353e-42 2.78637e-41 5.0586e-40 8.05775e-39 1.13495e-37 1.42383e-36 1.60164e-35 1.62555e-34 1.49718e-33 1.25813e-32 9.69452e-32 6.88193e-31 4.52032e-30 2.75849e-29 1.56991e-28 8.36225e-28 4.18283e-27 1.97094e-26 8.77425e-26 3.70064e-25 1.48252e-24 5.65512e-24 2.05871e-23 7.16801e-23 2.39188e-22 7.66392e-22 2.36223e-21 7.0161e-21 2.0113e-20 5.57353e-20 1.49515e-19 3.8881e-19 9.81415e-19 2.4075e-18 5.74626e-18 1.33596e-17 3.02864e-17 6.70166e-17 1.44881e-16 3.06288e-16 6.33739e-16 1.28443e-15 2.55192e-15 4.97401e-15 9.51778e-15 1.78916e-14 3.30619e-14 6.00953e-14 1.07508e-13 1.89399e-13 3.28762e-13 5.6257e-13 9.49461e-13 1.5812e-12 2.59959e-12 4.22102e-12 6.77179e-12 1.07383e-11 1.68376e-11 2.61154e-11 4.00808e-11 6.08898e-11 9.15932e-11 1.36466e-10 2.01448e-10 2.94712e-10 4.27416e-10 6.14664e-10 8.76735e-10 1.24065e-09 1.74215e-09 2.42813e-09 3.35974e-09 4.61613e-09 6.2991e-09 8.53869e-09 1.15e-08 1.53915e-08 2.04744e-08 2.70749e-08 3.55974e-08 4.65407e-08 6.05171e-08 7.8274e-08 1.0072e-07 1.28952e-07 1.64291e-07 2.0832e-07 2.62925e-07 3.30347e-07 4.13234e-07 5.14706e-07 6.38418e-07 7.88645e-07 9.70359e-07 1.18933e-06 1.45221e-06 1.76667e-06 2.14152e-06 2.58682e-06 3.11404e-06 3.73621e-06 4.4681e-06 5.32639e-06 6.32985e-06 7.49957e-06 8.85916e-06 1.0435e-05 1.22564e-05 1.4356e-05 1.677e-05 1.95382e-05 2.27048e-05 2.63182e-05 3.04315e-05 3.5103e-05 4.03962e-05 4.63805e-05 5.31314e-05 6.07307e-05 6.92672e-05 7.88369e-05 8.95434e-05 0.000101498 0.000114821 0.000129642 0.000146097 0.000164335 0.000184513 0.0002068 0.000231374 0.000258425 0.000288155 0.000320777 0.000356518 0.000395615 0.000438322 0.000484902 0.000535634 0.000590812 0.000650743 0.000715748 0.000786164 0.000862344 0.000944653 0.00103348 0.00112921 0.00123227 0.00134309 0.00146212 0.00158981 0.00172664 0.00187312 0.00202976 0.00219708 0.00237563 0.00256597 0.00276868 0.00298436 0.00321361 0.00345707 0.00371537 0.00398917 0.00427915 0.00458599 0.0049104 0.0052531 0.00561482 0.0059963 0.0063983 0.00682161 0.007267 0.00773527 0.00822724 0.00874372 0.00928556 0.00985358 0.0104487 0.0110716 0.0117234 0.0124048 0.0131168 0.0138603 0.014636 0.0154451 0.0162883 0.0171667 0.018081 0.0190323 0.0200215 0.0210496 0.0221174 0.0232259 0.024376 0.0255687 0.0268049 0.0280856 0.0294117 0.0307842 0.0322039 0.0336718 0.0351888 0.0367558 0.0383739 0.0400438 0.0417665 0.0435428 0.0453737 0.0472601 0.0492028 0.0512027 0.0532607 0.0553775 0.0575541 0.0597913 0.0620898 0.0644505 0.0668742 0.0693617 0.0719137 0.0745309 0.0772142 0.0799642 0.0827817 0.0856673 0.0886218 0.0916458 0.09474 0.0979049 0.101141 0.10445 0.107831 0.111285 0.114813 0.118415 0.122092 0.125844 0.129673 0.133577
0 0 0 0 0 0 0 0 0 0 0 0 0 0 0 0 0 0 0 0 0 0 0 0 0 0 0 0 0 0 0 0 0 0 0 0 0 0 0 0 0 0 0 0 0 0 0 6.42285e-317 2.54227e-290 5.87355e-267 2.53369e-246 5.24741e-228 1.13055e-211 4.79574e-197 6.80603e-184 5.03528e-172 2.82087e-161 1.64152e-151 1.29857e-142 1.75797e-134 4.9639e-127 3.46819e-120 6.95343e-114 4.55123e-108 1.08855e-102 1.05023e-97 4.45883e-93 8.99511e-89 9.22941e-85 5.11624e-81 1.61694e-77 3.05675e-74 3.60842e-71 2.76451e-68 1.42309e-65 5.07858e-63 1.29246e-60 2.40638e-58 3.35473e-56 3.57644e-54 2.97219e-52 1.95944e-50 1.04127e-48 4.52603e-47 1.63086e-45 4.93175e-44 1.26585e-42 2.78663e-41 5.31196e-40 8.84617e-39 1.29757e-37 1.68916e-36 1.96525e-35 2.05681e-34 1.94816e-33 1.67935e-32 1.32439e-31 9.60198e-31 6.42897e-30 3.99207e-29 2.30806e-28 1.24707e-27 6.31885e-27 3.01226e-26 1.3551e-25 5.76922e-25 2.33072e-24 8.9574e-24 3.28263e-23 1.14968e-22 3.85618e-22 1.24114e-21 3.84045e-21 1.14446e-20 3.29005e-20 9.13833e-20 2.45607e-19 6.3964e-19 1.61633e-18 3.96799e-18 9.47497e-18 2.20316e-17 4.9939e-17 1.1046e-16 2.38653e-16 5.04108e-16 1.04197e-15 2.10925e-15 4.18493e-15 8.14446e-15 1.55584e-14 2.91943e-14 5.38448e-14 9.76735e-14 1.74364e-13 3.065e-13 5.30808e-13 9.06159e-13 1.52562e-12 2.5344e-12 4.15609e-12 6.73082e-12 1.07698e-11 1.70324e-11 2.66343e-11 4.1197e-11 6.30524e-11 9.55207e-11 1.43283e-10 2.12877e-10 3.13352e-10 4.5712e-10 6.61063e-10 9.47953e-10 1.34826e-09 1.90244e-09 2.66379e-09 3.70207e-09 5.10784e-09 6.99796e-09 9.52217e-09 1.28711e-08 1.72861e-08 2.30704e-08 3.06033e-08 4.03563e-08 5.29122e-08 6.89874e-08 8.94585e-08 1.15392e-07 1.48078e-07 1.89073e-07 2.40244e-07 3.03816e-07 3.8244e-07 4.79247e-07 5.97932e-07 7.4283e-07 9.19007e-07 1.13237e-06 1.38975e-06 1.69908e-06 2.06947e-06 2.51139e-06 3.03679e-06 3.65934e-06 4.39454e-06 5.25996e-06 6.27545e-06 7.46335e-06 8.84877e-06 1.04598e-05 1.23278e-05 1.44877e-05 1.69783e-05 1.98425e-05 2.31279e-05 2.68868e-05 3.11768e-05 3.60608e-05 4.16082e-05 4.78942e-05 5.50012e-05 6.30186e-05 7.20433e-05 8.21805e-05 9.35436e-05 0.000106255 0.000120447 0.000136261 0.000153849 0.000173373 0.000195008 0.000218939 0.000245364 0.000274493 0.000306549 0.000341769 0.000380403 0.000422716 0.000468987 0.000519511 0.000574597 0.000634571 0.000699774 0.000770564 0.000847317 0.000930423 0.00102029 0.00111735 0.00122204 0.00133482 0.00145618 0.00158661 0.00172662 0.00187676 0.00203758 0.00220963 0.00239353 0.00258986 0.00279927 0.00302238 0.00325987 0.00351241 0.00378071 0.00406547 0.00436742 0.00468732 0.00502594 0.00538405 0.00576245 0.00616195 0.00658339 0.0070276 0.00749545 0.0079878 0.00850555 0.00904958 0.00962081 0.0102202 0.0108486 0.011507 0.0121963 0.0129176 0.0136717 0.0144597 0.0152826 0.0161413 0.0170369 0.0179703 0.0189426 0.0199548 0.0210079 0.0221029 0.0232408 0.0244227 0.0256497 0.0269226 0.0282426 0.0296107 0.0310279 0.0324953 0.0340137 0.0355843 0.0372081 0.038886 0.0406192 0.0424084 0.0442548 0.0461593 0.0481229 0.0501465 0.0522312 0.0543777 0.0565871 0.0588603 0.0611982 0.0636016 0.0660715 0.0686087 0.0712141 0.0738885 0.0766327 0.0794476 0.082334 0.0852925 0.0883241 0.0914294 0.0946091 0.097864 0.101195 0.104602 0.108087 0.111649 0.11529 0.11901 0.12281 0.126689 0.13065 0.134692 0.138816 0.143022 0.14731 0.151682 0.156138 0.160678
0 0 0 0 0 0 0 0 0 0 0 0 0 0 0 0 0 0 0 0 0 0 0 0 0 0 0 0 0 0 0 0 0 0 0 0 0 0 0 0 0 0 0 0 0 0 0 2.48252e-307 1.56265e-281 7.17538e-259 7.42854e-239 4.33407e-221 3.01687e-205 4.65199e-191 2.65756e-178 8.64829e-167 2.30278e-156 6.81714e-147 2.9129e-138 2.24591e-130 3.78583e-123 1.64668e-116 2.13381e-110 9.33538e-105 1.53825e-99 1.0507e-94 3.23696e-90 4.84563e-86 3.76499e-82 1.60997e-78 3.99179e-75 6.01235e-72 5.73529e-69 3.5971e-66 1.53409e-63 4.5859e-61 9.87588e-59 1.57065e-56 1.8867e-54 1.74714e-52 1.27068e-50 7.38242e-49 3.47976e-47 1.34973e-45 4.36456e-44 1.19071e-42 2.77084e-41 5.55565e-40 9.68768e-39 1.48181e-37 2.00401e-36 2.41396e-35 2.60756e-34 2.54187e-33 2.2492e-32 1.81645e-31 1.34567e-30 9.18797e-30 5.80738e-29 3.41193e-28 1.87045e-27 9.60232e-27 4.63176e-26 2.10581e-25 9.05065e-25 3.68744e-24 1.42785e-23 5.26763e-23 1.85574e-22 6.25642e-22 2.02268e-21 6.28279e-21 1.8784e-20 5.41472e-20 1.50736e-19 4.05855e-19 1.05844e-18 2.67728e-18 6.57683e-18 1.57096e-17 3.65294e-17 8.27805e-17 1.8301e-16 3.95108e-16 8.33792e-16 1.72144e-15 3.48005e-15 6.89437e-15 1.33953e-14 2.55434e-14 4.78385e-14 8.80522e-14 1.59383e-13 2.8389e-13 4.97869e-13 8.60156e-13 1.46476e-12 2.45983e-12 4.07571e-12 6.66592e-12 1.07664e-11 1.71798e-11 2.70943e-11 4.22497e-11 6.5165e-11 9.94504e-11 1.50227e-10 2.24692e-10 3.32855e-10 4.88527e-10 7.10578e-10 1.02458e-09 1.46492e-09 2.0774e-09 2.92267e-09 4.0803e-09 5.65407e-09 7.77824e-09 1.06254e-08 1.4416e-08 1.94297e-08 2.60189e-08 3.46255e-08 4.57998e-08 6.02238e-08 7.87372e-08 1.02369e-07 1.32374e-07 1.70272e-07 2.17899e-07 2.77459e-07 3.51587e-07 4.43418e-07 5.56665e-07 6.9571e-07 8.65698e-07 1.07265e-06 1.32359e-06 1.62664e-06 1.99125e-06 2.42825e-06 2.95011e-06 3.5711e-06 4.30747e-06 5.1777e-06 6.20275e-06 7.40627e-06 8.8149e-06 1.04585e-05 1.23707e-05 1.45887e-05 1.71543e-05 2.01135e-05 2.35176e-05 2.74231e-05 3.18922e-05 3.69935e-05 4.2802e-05 4.93997e-05 5.68764e-05 6.53296e-05 7.48654e-05 8.55989e-05 9.76546e-05 0.000111167 0.000126281 0.000143152 0.000161949 0.00018285 0.000206047 0.000231746 0.000260166 0.000291538 0.00032611 0.000364145 0.00040592 0.00045173 0.000501883 0.000556709 0.00061655 0.00068177 0.000752747 0.000829881 0.000913589 0.00100431 0.00110249 0.00120861 0.00132317 0.00144668 0.00157967 0.00172271 0.00187636 0.00204122 0.0022179 0.00240705 0.00260932 0.00282539 0.00305595 0.00330173 0.00356346 0.00384189 0.00413781 0.00445201 0.0047853 0.00513852 0.00551252 0.00590817 0.00632636 0.00676799 0.00723397 0.00772526 0.00824279 0.00878753 0.00936048 0.00996261 0.0105949 0.0112585 0.0119543 0.0126834 0.0134468 0.0142457 0.015081 0.0159539 0.0168655 0.0178168 0.018809 0.0198431 0.0209203 0.0220417 0.0232083 0.0244214 0.0256821 0.0269914 0.0283505 0.0297605 0.0312225 0.0327377 0.0343071 0.0359319 0.0376132 0.0393521 0.0411496 0.0430069 0.044925 0.046905 0.048948 0.0510549 0.053227 0.0554651 0.0577703 0.0601437 0.0625861 0.0650986 0.0676822 0.0703377 0.0730662 0.0758686 0.0787457 0.0816985 0.0847278 0.0878344 0.0910193 0.0942831 0.0976268 0.101051 0.104557 0.108145 0.111815 0.115569 0.119407 0.123331 0.127339 0.131434 0.135615 0.139884 0.14424 0.148685 0.153219 0.157842 0.162555 0.167358 0.172252 0.177236 0.182313 0.18748 0.19274
0 0 0 0 0 0 0 0 0 0 0 0 0 0 0 0 0 0 0 0 0 0 0 0 0 0 0 0 0 0 0 0 0 0 0 0 0 0 0 0 0 0 0 0 0 0 0 6.8536e-298 7.05216e-273 6.59666e-251 1.67514e-231 2.80701e-214 6.42261e-199 3.65612e-185 8.52523e-173 1.23571e-161 1.58172e-151 2.40684e-142 5.60736e-134 2.48358e-126 2.51899e-119 6.87049e-113 5.79262e-107 1.70439e-101 1.94585e-96 9.45953e-92 2.12508e-87 2.37134e-83 1.40119e-79 4.64032e-76 9.05972e-73 1.09096e-69 8.437e-67 4.34517e-64 1.5397e-61 3.86588e-59 7.06291e-57 9.61802e-55 9.97765e-53 8.04303e-51 5.12974e-49 2.6315e-47 1.10222e-45 3.82179e-44 1.11089e-42 2.73843e-41 5.78599e-40 1.05816e-38 1.69018e-37 2.37762e-36 2.96838e-35 3.31249e-34 3.3259e-33 3.02301e-32 2.50157e-31 1.89459e-30 1.31973e-29 8.49384e-29 5.07254e-28 2.82213e-27 1.46816e-26 7.16682e-26 3.29341e-25 1.42907e-24 5.87214e-24 2.29104e-23 8.50862e-23 3.0151e-22 1.02171e-21 3.31774e-21 1.03445e-20 3.10263e-20 8.96746e-20 2.50176e-19 6.74744e-19 1.76193e-18 4.46072e-18 1.09638e-17 2.61938e-17 6.09025e-17 1.37962e-16 3.04814e-16 6.57506e-16 1.38604e-15 2.85794e-15 5.76921e-15 1.14109e-14 2.21313e-14 4.21214e-14 7.87255e-14 1.44591e-13 2.61134e-13 4.64031e-13 8.11803e-13 1.399e-12 2.37619e-12 3.97985e-12 6.57637e-12 1.07261e-11 1.72756e-11 2.74881e-11 4.32268e-11 6.72099e-11 1.03359e-10 1.57273e-10 2.36867e-10 3.53216e-10 5.2168e-10 7.63357e-10 1.10698e-09 1.59133e-09 2.26836e-09 3.20706e-09 4.49834e-09 6.26116e-09 8.64999e-09 1.1864e-08 1.61583e-08 2.18574e-08 2.93716e-08 3.92162e-08 5.20347e-08 6.8626e-08 8.9976e-08 1.17295e-07 1.5206e-07 1.96067e-07 2.51484e-07 3.20919e-07 4.07494e-07 5.14926e-07 6.47624e-07 8.10795e-07 1.01056e-06 1.25408e-06 1.54972e-06 1.90717e-06 2.33768e-06 2.85417e-06 3.47153e-06 4.20677e-06 5.0793e-06 6.11119e-06 7.32745e-06 8.75631e-06 1.04296e-05 1.2383e-05 1.46565e-05 1.72946e-05 2.03472e-05 2.38692e-05 2.79216e-05 3.2572e-05 3.78944e-05 4.39704e-05 5.08893e-05 5.87489e-05 6.76558e-05 7.77259e-05 8.90854e-05 0.000101871 0.00011623 0.000132322 0.000150319 0.000170405 0.000192778 0.000217652 0.000245251 0.00027582 0.000309614 0.000346909 0.000387996 0.000433182 0.000482795 0.00053718 0.0005967 0.000661739 0.000732699 0.000810005 0.000894099 0.000985448 0.00108454 0.00119188 0.00130799 0.00143344 0.00156879 0.00171464 0.00187162 0.00204036 0.00222152 0.00241581 0.00262392 0.00284658 0.00308457 0.00333864 0.00360962 0.0038983 0.00420555 0.00453223 0.00487922 0.00524743 0.00563779 0.00605124 0.00648877 0.00695134 0.00743997 0.00795569 0.00849952 0.00907253 0.00967579 0.0103104 0.0109774 0.011678 0.0124133 0.0131844 0.0139926 0.0148388 0.0157244 0.0166505 0.0176183 0.018629 0.0196838 0.0207839 0.0219306 0.023125 0.0243684 0.025662 0.027007 0.0284047 0.0298563 0.0313631 0.0329261 0.0345467 0.0362261 0.0379655 0.0397661 0.0416291 0.0435556 0.045547 0.0476043 0.0497287 0.0519213 0.0541834 0.056516 0.0589203 0.0613973 0.0639482 0.066574 0.0692759 0.0720547 0.0749116 0.0778476 0.0808637 0.0839608 0.0871399 0.0904019 0.0937478 0.0971784 0.100695 0.104297 0.107987 0.111765 0.115632 0.119589 0.123636 0.127774 0.132004 0.136327 0.140742 0.145251 0.149855 0.154554 0.159348 0.164238 0.169224 0.174308 0.179488 0.184767 0.190144 0.195619 0.201194 0.206867 0.212641 0.218514 0.224487 0.23056
0 0 0 0 0 0 0 0 0 0 0 0 0 0 0 0 0 0 0 0 0 0 0 0 0 0 0 0 0 0 0 0 0 0 0 0 0 0 0 0 0 0 0 0 0 0 2.37152e-316 1.35074e-288 2.33672e-264 4.56393e-243 2.90535e-224 1.42558e-207 1.09083e-192 2.32809e-179 2.24678e-167 1.46885e-156 9.14153e-147 7.22411e-138 9.26331e-130 2.37723e-122 1.46224e-115 2.51904e-109 1.3911e-103 2.76977e-98 2.20343e-93 7.66399e-89 1.26164e-84 1.05424e-80 4.75744e-77 1.22502e-73 1.89032e-70 1.82622e-67 1.14872e-64 4.87284e-62 1.43877e-59 3.0424e-57 4.72761e-55 5.52571e-53 4.96176e-51 3.48921e-49 1.95549e-47 8.87451e-46 3.30919e-44 1.02748e-42 2.68909e-41 5.99907e-40 1.15261e-38 1.9254e-37 2.82095e-36 3.65431e-35 4.21687e-34 4.3646e-33 4.07795e-32 3.45984e-31 2.68026e-30 1.90556e-29 1.24928e-28 7.58601e-28 4.28428e-27 2.25906e-26 1.11617e-25 5.18492e-25 2.27163e-24 9.41448e-24 3.70102e-23 1.3837e-22 4.93192e-22 1.67973e-21 5.47835e-21 1.71446e-20 5.15822e-20 1.4947e-19 4.17855e-19 1.12878e-18 2.951e-18 7.47692e-18 1.83848e-17 4.39272e-17 1.02112e-16 2.31197e-16 5.10421e-16 1.09993e-15 2.31586e-15 4.7685e-15 9.6107e-15 1.89757e-14 3.67331e-14 6.97697e-14 1.30118e-13 2.38437e-13 4.29595e-13 7.61493e-13 1.32879e-12 2.28389e-12 3.86868e-12 6.46167e-12 1.06472e-11 1.73159e-11 2.78079e-11 4.41159e-11 6.91683e-11 1.0722e-10 1.64388e-10 2.49373e-10 3.74423e-10 5.56619e-10 8.19551e-10 1.1955e-09 1.72827e-09 2.47675e-09 3.51951e-09 4.96052e-09 6.93625e-09 9.62459e-09 1.32557e-08 1.81251e-08 2.461e-08 3.31885e-08 4.44626e-08 5.91858e-08 7.82955e-08 1.02951e-07 1.34578e-07 1.74921e-07 2.26101e-07 2.90684e-07 3.71763e-07 4.73042e-07 5.98938e-07 7.54696e-07 9.46513e-07 1.18168e-06 1.46874e-06 1.81767e-06 2.24004e-06 2.74927e-06 3.36083e-06 4.09249e-06 4.96458e-06 6.00033e-06 7.22611e-06 8.67184e-06 1.03713e-05 1.23625e-05 1.46882e-05 1.73961e-05 2.05395e-05 2.41778e-05 2.83769e-05 3.32096e-05 3.87563e-05 4.51055e-05 5.23546e-05 6.061e-05 6.99882e-05 8.06161e-05 9.26317e-05 0.000106185 0.000121438 0.000138567 0.00015776 0.000179222 0.000203171 0.000229841 0.000259484 0.000292368 0.000328779 0.000369021 0.000413417 0.000462309 0.000516063 0.00057506 0.000639706 0.000710428 0.000787676 0.000871922 0.00096366 0.00106341 0.00117171 0.00128914 0.00141628 0.00155375 0.00170219 0.00186227 0.00203468 0.00222014 0.00241939 0.0026332 0.00286236 0.0031077 0.00337005 0.00365028 0.0039493 0.00426801 0.00460736 0.00496832 0.00535187 0.00575903 0.00619083 0.00664833 0.00713261 0.00764476 0.00818591 0.00875719 0.00935975 0.00999479 0.0106635 0.011367 0.0121067 0.0128836 0.0136992 0.0145545 0.015451 0.01639 0.0173726 0.0184002 0.0194742 0.0205958 0.0217664 0.0229873 0.0242598 0.0255854 0.0269653 0.0284009 0.0298935 0.0314445 0.0330552 0.0347269 0.0364611 0.0382589 0.0401219 0.0420511 0.0440481 0.046114 0.0482502 0.0504579 0.0527385 0.0550931 0.057523 0.0600295 0.0626138 0.065277 0.0680204 0.0708451 0.0737522 0.076743 0.0798184 0.0829796 0.0862277 0.0895638 0.0929887 0.0965036 0.100109 0.103807 0.107598 0.111482 0.115461 0.119535 0.123706 0.127974 0.132339 0.136804 0.141368 0.146032 0.150796 0.155662 0.160631 0.165701 0.170875 0.176153 0.181535 0.187022 0.192614 0.198311 0.204115 0.210025 0.216041 0.222165 0.228396 0.234734 0.241181 0.247735 0.254398 0.261169 0.268048 0.275036
0 0 0 0 0 0 0 0 0 0 0 0 0 0 0 0 0 0 0 0 0 0 0 0 0 0 0 0 0 0 0 0 0 0 0 0 0 0 0 0 0 0 0 0 0 0 2.4772e-306 1.90043e-279 5.68477e-256 2.37623e-235 3.87563e-217 5.6772e-201 1.47805e-186 1.2011e-173 4.86459e-162 1.45251e-151 4.44546e-142 1.84337e-133 1.31325e-125 1.96958e-118 7.40526e-112 8.1162e-106 2.95534e-100 4.00637e-95 2.23355e-90 5.58774e-86 6.77358e-82 4.25776e-78 1.47365e-74 2.96213e-71 3.62602e-68 2.8202e-65 1.44755e-62 5.07314e-60 1.25173e-57 2.23524e-55 2.96175e-53 2.97841e-51 2.3202e-49 1.42643e-47 7.03905e-46 2.83155e-44 9.41688e-43 2.62282e-41 6.1908e-40 1.25186e-38 2.19042e-37 3.34697e-36 4.50408e-35 5.37998e-34 5.74529e-33 5.52205e-32 4.80654e-31 3.81067e-30 2.76644e-29 1.84816e-28 1.14146e-27 6.54557e-27 3.49895e-26 1.75006e-25 8.21883e-25 3.636e-24 1.51992e-23 6.02066e-23 2.26598e-22 8.12366e-22 2.78071e-21 9.10819e-21 2.8608e-20 8.63331e-20 2.50786e-19 7.02465e-19 1.90045e-18 4.9736e-18 1.26098e-17 3.10149e-17 7.41013e-17 1.72193e-16 3.89625e-16 8.5942e-16 1.84991e-15 3.8897e-15 7.99678e-15 1.60894e-14 3.17075e-14 6.12543e-14 1.16091e-13 2.1601e-13 3.94876e-13 7.09665e-13 1.25467e-12 2.18348e-12 3.74256e-12 6.32159e-12 1.05282e-11 1.72968e-11 2.80463e-11 4.49037e-11 7.10195e-11 1.11006e-10 1.71537e-10 2.62173e-10 3.96453e-10 5.93371e-10 8.79302e-10 1.29053e-09 1.87652e-09 2.70411e-09 3.86284e-09 5.47164e-09 7.68733e-09 1.07149e-08 1.48206e-08 2.03475e-08 2.77343e-08 3.75391e-08 5.04662e-08 6.73994e-08 8.94404e-08 1.17955e-07 1.54625e-07 2.01513e-07 2.6113e-07 3.3652e-07 4.31356e-07 5.50041e-07 6.97834e-07 8.80983e-07 1.10688e-06 1.38423e-06 1.72324e-06 2.13582e-06 2.63582e-06 3.23931e-06 3.96478e-06 4.83351e-06 5.86987e-06 7.10166e-06 8.5605e-06 1.02822e-05 1.23072e-05 1.46812e-05 1.74551e-05 2.06863e-05 2.44386e-05 2.8783e-05 3.37982e-05 3.95715e-05 4.61989e-05 5.37863e-05 6.24499e-05 7.23167e-05 8.35257e-05 9.62282e-05 0.000110589 0.000126786 0.000145012 0.000165477 0.000188406 0.000214039 0.000242636 0.000274476 0.000309855 0.000349092 0.000392523 0.000440509 0.00049343 0.000551691 0.000615719 0.000685966 0.000762909 0.000847047 0.000938909 0.00103905 0.00114804 0.0012665 0.00139505 0.00153436 0.00168512 0.00184805 0.00202388 0.0022134 0.0024174 0.00263673 0.00287223 0.00312479 0.00339534 0.00368481 0.00399418 0.00432444 0.00467663 0.00505179 0.005451 0.00587537 0.00632603 0.00680413 0.00731085 0.0078474 0.00841499 0.00901487 0.00964831 0.0103166 0.011021 0.011763 0.0125437 0.0133646 0.0142271 0.0151325 0.0160823 0.0170778 0.0181205 0.0192118 0.0203531 0.021546 0.0227918 0.0240921 0.0254483 0.0268619 0.0283343 0.029867 0.0314616 0.0331194 0.034842 0.0366307 0.0384872 0.0404128 0.0424089 0.0444771 0.0466187 0.0488352 0.051128 0.0534985 0.0559481 0.0584781 0.0610899 0.0637848 0.0665642 0.0694293 0.0723815 0.075422 0.078552 0.0817729 0.0850857 0.0884917 0.0919919 0.0955877 0.0992799 0.10307 0.106958 0.110947 0.115036 0.119226 0.12352 0.127917 0.132418 0.137025 0.141737 0.146557 0.151484 0.15652 0.161665 0.16692 0.172285 0.177761 0.183349 0.189049 0.194862 0.200788 0.206827 0.212981 0.219249 0.225632 0.23213 0.238744 0.245473 0.252319 0.25928 0.266358 0.273553 0.280864 0.288291 0.295836 0.303497 0.311275 0.319169 0.32718
0 0 0 0 0 0 0 0 0 0 0 0 0 0 0 0 0 0 0 0 0 0 0 0 0 0 0 0 0 0 0 0 0 0 0 0 0 0 0 0 0 0 0 0 0 0 1.79754e-296 1.9088e-270 1.01541e-247 9.3105e-228 3.97634e-210 1.77287e-194 1.59776e-180 5.02061e-168 8.65297e-157 1.19492e-146 1.81896e-137 3.9988e-129 1.59774e-121 1.41247e-114 3.27182e-108 2.29795e-102 5.55417e-97 5.15816e-92 2.02674e-87 3.66617e-83 3.28869e-79 1.56216e-75 4.16445e-72 6.56038e-69 6.39437e-66 4.01778e-63 1.68828e-60 4.90334e-58 1.01391e-55 1.53312e-53 1.73662e-51 1.50618e-49 1.02023e-47 5.49527e-46 2.39262e-44 8.54755e-43 2.53995e-41 6.357e-40 1.35548e-38 2.48837e-37 3.97109e-36 5.55828e-35 6.87963e-34 7.58696e-33 7.5073e-32 6.70844e-31 5.44604e-30 4.03902e-29 2.75071e-28 1.7285e-27 1.00668e-26 5.45641e-26 2.76315e-25 1.31206e-24 5.86162e-24 2.47156e-23 9.86501e-23 3.73765e-22 1.34772e-21 4.6362e-21 1.52502e-20 4.80703e-20 1.45493e-19 4.23638e-19 1.18882e-18 3.22064e-18 8.43647e-18 2.14006e-17 5.26448e-17 1.25757e-16 2.92084e-16 6.60394e-16 1.45517e-15 3.12828e-15 6.56787e-15 1.34801e-14 2.70711e-14 5.3241e-14 1.0263e-13 1.94058e-13 3.60203e-13 6.56791e-13 1.17725e-12 2.07565e-12 3.60205e-12 6.1562e-12 1.03678e-11 1.72148e-11 2.81958e-11 4.55769e-11 7.27418e-11 1.14683e-10 1.78678e-10 2.75221e-10 4.19275e-10 6.31953e-10 9.42748e-10 1.39245e-09 2.03695e-09 2.95213e-09 4.2401e-09 6.0371e-09 8.52339e-09 1.19356e-08 1.65821e-08 2.28613e-08 3.12848e-08 4.25046e-08 5.73461e-08 7.68474e-08 1.02306e-07 1.35332e-07 1.77916e-07 2.32499e-07 3.02061e-07 3.90218e-07 5.01338e-07 6.40669e-07 8.14482e-07 1.03024e-06 1.29677e-06 1.62448e-06 2.02559e-06 2.51437e-06 3.10742e-06 3.82397e-06 4.68623e-06 5.71972e-06 6.95367e-06 8.42144e-06 1.0161e-05 1.22153e-05 1.46329e-05 1.74685e-05 2.07834e-05 2.46462e-05 2.91336e-05 3.43307e-05 4.03317e-05 4.72412e-05 5.51743e-05 6.42575e-05 7.46297e-05 8.64431e-05 9.98634e-05 0.000115071 0.000132263 0.000151652 0.000173467 0.000197958 0.000225391 0.000256054 0.000290255 0.000328324 0.000370613 0.000417498 0.000469379 0.00052668 0.000589852 0.000659371 0.000735742 0.000819495 0.000911191 0.00101142 0.0011208 0.00123997 0.00136962 0.00151046 0.00166322 0.00182868 0.00200764 0.00220094 0.00240944 0.00263404 0.00287567 0.0031353 0.00341391 0.00371253 0.00403223 0.00437408 0.0047392 0.00512875 0.0055439 0.00598585 0.00645585 0.00695514 0.00748503 0.00804682 0.00864186 0.00927152 0.00993718 0.0106402 0.0113822 0.0121644 0.0129884 0.0138556 0.0147677 0.015726 0.0167322 0.0177877 0.0188943 0.0200533 0.0212665 0.0225354 0.0238617 0.0252468 0.0266925 0.0282004 0.029772 0.0314091 0.0331131 0.0348858 0.0367288 0.0386436 0.0406319 0.0426952 0.0448352 0.0470534 0.0493514 0.0517308 0.054193 0.0567397 0.0593723 0.0620923 0.0649012 0.0678005 0.0707916 0.0738759 0.0770548 0.0803297 0.083702 0.0871729 0.0907437 0.0944158 0.0981904 0.102069 0.106052 0.110141 0.114338 0.118642 0.123056 0.127581 0.132217 0.136965 0.141826 0.146802 0.151893 0.1571 0.162423 0.167864 0.173424 0.179102 0.1849 0.190818 0.196857 0.203018 0.2093 0.215705 0.222232 0.228883 0.235658 0.242557 0.24958 0.256727 0.264 0.271397 0.27892 0.286568 0.294342 0.302241 0.310266 0.318417 0.326693 0.335094 0.343621 0.352274 0.361051 0.369953 0.37898 0.388132
0 0 0 0 0 0 0 0 0 0 0 0 0 0 0 0 0 0 0 0 0 0 0 0 0 0 0 0 0 0 0 0 0 0 0 0 0 0 0 0 0 0 0 0 0 8.49793e-316 9.01698e-287 1.36867e-261 1.33166e-239 2.74532e-220 3.13778e-203 4.34125e-188 1.37792e-174 1.70033e-162 1.26449e-151 8.17774e-142 6.2624e-133 7.3746e-125 1.66816e-117 8.76791e-111 1.26114e-104 5.71739e-99 9.23412e-94 5.91116e-89 1.64628e-84 2.16463e-80 1.44394e-76 5.20679e-73 1.07366e-69 1.33082e-66 1.03667e-63 5.28047e-61 1.82243e-58 4.39974e-56 7.64639e-54 9.8168e-52 9.53039e-50 7.14597e-48 4.21842e-46 1.995e-44 7.67949e-43 2.44117e-41 6.49348e-40 1.46293e-38 2.82258e-37 4.71154e-36 6.868e-35 8.81833e-34 1.00525e-32 1.02487e-31 9.40821e-31 7.82542e-30 5.93181e-29 4.11982e-28 2.63481e-27 1.55888e-26 8.56931e-26 4.39432e-25 2.10998e-24 9.51975e-24 4.04904e-23 1.62849e-22 6.21107e-22 2.25247e-21 7.7867e-21 2.57201e-20 8.13541e-20 2.46931e-19 7.20624e-19 2.02573e-18 5.49469e-18 1.44048e-17 3.65545e-17 8.99242e-17 2.14739e-16 4.98435e-16 1.12591e-15 2.47799e-15 5.31954e-15 1.11502e-14 2.28429e-14 4.57815e-14 8.98432e-14 1.72784e-13 3.25906e-13 6.03372e-13 1.09723e-12 1.96123e-12 3.44797e-12 5.9659e-12 1.01654e-11 1.7067e-11 2.82494e-11 4.61217e-11 7.43123e-11 1.18217e-10 1.85765e-10 2.88465e-10 4.42844e-10 6.72369e-10 1.01002e-09 1.50165e-09 2.21046e-09 3.22263e-09 4.6547e-09 6.66285e-09 9.45457e-09 1.33033e-08 1.85665e-08 2.57078e-08 3.53244e-08 4.81793e-08 6.52414e-08 8.77323e-08 1.17182e-07 1.55495e-07 2.05026e-07 2.68674e-07 3.49979e-07 4.53248e-07 5.83686e-07 7.47558e-07 9.52356e-07 1.20701e-06 1.52208e-06 1.91006e-06 2.38559e-06 2.96579e-06 3.67058e-06 4.52309e-06 5.54998e-06 6.78192e-06 8.25406e-06 1.00065e-05 1.20849e-05 1.45408e-05 1.74328e-05 2.08265e-05 2.47956e-05 2.94226e-05 3.47994e-05 4.10282e-05 4.82224e-05 5.65072e-05 6.60207e-05 7.69144e-05 8.93549e-05 0.000103524 0.00011962 0.00013786 0.000158477 0.000181725 0.00020788 0.000237236 0.000270113 0.000306852 0.000347819 0.000393407 0.000444032 0.000500141 0.000562206 0.00063073 0.000706245 0.000789314 0.000880531 0.000980521 0.00108994 0.00120949 0.00133989 0.00148189 0.0016363 0.00180395 0.00198569 0.00218243 0.00239511 0.00262469 0.00287218 0.00313863 0.00342512 0.00373275 0.00406268 0.0044161 0.00479421 0.00519828 0.00562958 0.00608944 0.0065792 0.00710025 0.00765399 0.00824187 0.00886536 0.00952596 0.0102252 0.0109646 0.0117458 0.0125703 0.0134397 0.0143558 0.0153202 0.0163345 0.0174004 0.0185197 0.019694 0.0209252 0.0222149 0.0235649 0.024977 0.026453 0.0279945 0.0296034 0.0312816 0.0330306 0.0348524 0.0367488 0.0387214 0.040772 0.0429025 0.0451145 0.0474098 0.0497902 0.0522573 0.0548129 0.0574586 0.0601962 0.0630271 0.0659532 0.068976 0.0720971 0.0753181 0.0786405 0.0820658 0.0855955 0.0892312 0.0929741 0.0968258 0.100788 0.104861 0.109047 0.113347 0.117762 0.122294 0.126943 0.131712 0.1366 0.141609 0.146741 0.151995 0.157374 0.162877 0.168506 0.174262 0.180145 0.186157 0.192297 0.198567 0.204968 0.211499 0.218162 0.224956 0.231884 0.238944 0.246137 0.253464 0.260926 0.268521 0.276251 0.284116 0.292116 0.300251 0.308521 0.316926 0.325466 0.334142 0.342953 0.351899 0.36098 0.370196 0.379547 0.389031 0.39865 0.408403 0.418289 0.428308 0.43846 0.448745 0.459161
0 0 0 0 0 0 0 0 0 0 0 0 0 0 0 0 0 0 0 0 0 0 0 0 0 0 0 0 0 0 0 0 0 0 0 0 0 0 0 0 0 0 0 0 0 2.66983e-305 3.12685e-277 7.00585e-253 1.28223e-231 6.09184e-213 1.90441e-196 8.33589e-182 9.48035e-169 4.66561e-157 1.5181e-146 4.65593e-137 1.81413e-128 1.15621e-120 1.49467e-113 4.71106e-107 4.24101e-101 1.25005e-95 1.35811e-90 6.02957e-86 1.19706e-81 1.15014e-77 5.73319e-74 1.57657e-70 2.52532e-67 2.4727e-64 1.5451e-61 6.40235e-59 1.82075e-56 3.66507e-54 5.36884e-52 5.86821e-50 4.89515e-48 3.18084e-46 1.64015e-44 6.82518e-43 2.32751e-41 6.59615e-40 1.57348e-38 3.19656e-37 5.58991e-36 8.49765e-35 1.13316e-33 1.33657e-32 1.40517e-31 1.32611e-30 1.13079e-29 8.76516e-29 6.21085e-28 4.04399e-27 2.43127e-26 1.35572e-25 7.04091e-25 3.41902e-24 1.55797e-23 6.68456e-23 2.70903e-22 1.04007e-21 3.79339e-21 1.31773e-20 4.37034e-20 1.38703e-19 4.22147e-19 1.2346e-18 3.47609e-18 9.43915e-18 2.47617e-17 6.28519e-17 1.54595e-16 3.68996e-16 8.55804e-16 1.93108e-15 4.24437e-15 9.09709e-15 1.9034e-14 3.89166e-14 7.78271e-14 1.52374e-13 2.92316e-13 5.49932e-13 1.01535e-12 1.84118e-12 3.28134e-12 5.75143e-12 9.92074e-12 1.68507e-11 2.82002e-11 4.65244e-11 7.57069e-11 1.21572e-10 1.92744e-10 3.0184e-10 4.67101e-10 7.14605e-10 1.08122e-09 1.61853e-09 2.39798e-09 3.51756e-09 5.11036e-09 7.35557e-09 1.04923e-08 1.48368e-08 2.08042e-08 2.89347e-08 3.99262e-08 5.46736e-08 7.43158e-08 1.00293e-07 1.34412e-07 1.78929e-07 2.3664e-07 3.10987e-07 4.0619e-07 5.27383e-07 6.80787e-07 8.73892e-07 1.11567e-06 1.41682e-06 1.79004e-06 2.25029e-06 2.81518e-06 3.50531e-06 4.34464e-06 5.36098e-06 6.58645e-06 8.05799e-06 9.81791e-06 1.19145e-05 1.44028e-05 1.7345e-05 2.08115e-05 2.48812e-05 2.96432e-05 3.51964e-05 4.16517e-05 4.91319e-05 5.77732e-05 6.77262e-05 7.91565e-05 9.22463e-05 0.000107195 0.000124221 0.000143562 0.000165476 0.000190244 0.00021817 0.00024958 0.000284829 0.000324295 0.000368386 0.000417537 0.000472214 0.000532913 0.000600162 0.000674523 0.000756589 0.000846991 0.000946391 0.00105549 0.00117503 0.00130578 0.00144856 0.00160421 0.00177364 0.00195776 0.00215755 0.00237402 0.00260823 0.00286125 0.00313422 0.00342832 0.00374475 0.00408476 0.00444964 0.00484072 0.00525937 0.00570698 0.006185 0.00669491 0.00723822 0.00781648 0.00843126 0.00908418 0.00977687 0.010511 0.0112883 0.0121105 0.0129794 0.0138966 0.0148641 0.0158837 0.0169571 0.0180864 0.0192732 0.0205196 0.0218275 0.0231988 0.0246353 0.0261391 0.0277122 0.0293564 0.0310737 0.0328661 0.0347355 0.0366839 0.0387133 0.0408256 0.0430227 0.0453067 0.0476793 0.0501425 0.0526983 0.0553484 0.0580948 0.0609394 0.0638838 0.06693 0.0700798 0.0733348 0.0766969 0.0801677 0.083749 0.0874423 0.0912493 0.0951716 0.0992107 0.103368 0.107646 0.112044 0.116566 0.121211 0.125982 0.13088 0.135905 0.14106 0.146346 0.151763 0.157312 0.162996 0.168814 0.174767 0.180858 0.187085 0.193452 0.199957 0.206602 0.213388 0.220315 0.227384 0.234595 0.241949 0.249447 0.257089 0.264875 0.272805 0.28088 0.289101 0.297467 0.305978 0.314635 0.323438 0.332387 0.341481 0.350721 0.360107 0.369638 0.379315 0.389137 0.399104 0.409216 0.419471 0.429871 0.440414 0.451101 0.46193 0.472901 0.484014 0.495268 0.506662 0.518197 0.52987 0.541681
0 0 0 0 0 0 0 0 0 0 0 0 0 0 0 0 0 0 0 0 0 0 0 0 0 0 0 0 0 0 0 0 0 0 0 0 0 0 0 0 0 0 0 0 0 5.59454e-295 7.49575e-268 2.56007e-244 9.06486e-224 1.01728e-205 8.88984e-190 1.25512e-175 5.20372e-163 1.03725e-151 1.49732e-141 2.20525e-132 4.42185e-124 1.54109e-116 1.14928e-109 2.19103e-103 1.24423e-97 2.40173e-92 1.76701e-87 5.47438e-83 7.79175e-79 5.4994e-75 2.05857e-71 4.33669e-68 5.4189e-65 4.20815e-62 2.11711e-59 7.16121e-57 1.68361e-54 2.83437e-52 3.50972e-50 3.27479e-48 2.35327e-46 1.32836e-44 5.99655e-43 2.20039e-41 6.66116e-40 1.68625e-38 3.61393e-37 6.63177e-36 1.05286e-34 1.4599e-33 1.78356e-32 1.93532e-31 1.87903e-30 1.64363e-29 1.30348e-28 9.42709e-28 6.25133e-27 3.82007e-26 2.16122e-25 1.13694e-24 5.58392e-24 2.57001e-23 1.11236e-22 4.54248e-22 1.7555e-21 6.43887e-21 2.2474e-20 7.48341e-20 2.38279e-19 7.27105e-19 2.13074e-18 6.00799e-18 1.63301e-17 4.28601e-17 1.088e-16 2.67533e-16 6.38152e-16 1.47864e-15 3.33232e-15 7.31316e-15 1.56472e-14 3.26748e-14 6.66624e-14 1.33004e-13 2.59754e-13 4.97001e-13 9.32417e-13 1.71658e-12 3.10345e-12 5.51394e-12 9.63409e-12 1.65642e-11 2.80421e-11 4.67717e-11 7.69008e-11 1.24705e-10 1.99557e-10 3.15272e-10 4.91974e-10 7.58629e-10 1.15646e-09 1.74348e-09 2.60053e-09 3.83904e-09 5.61116e-09 8.12268e-09 1.16494e-08 1.65577e-08 2.33301e-08 3.2597e-08 4.51756e-08 6.21166e-08 8.47615e-08 1.14811e-07 1.54404e-07 2.06218e-07 2.73575e-07 3.60579e-07 4.72263e-07 6.14766e-07 7.95532e-07 1.02354e-06 1.30956e-06 1.66643e-06 2.10943e-06 2.65656e-06 3.32903e-06 4.15165e-06 5.15332e-06 6.36756e-06 7.83314e-06 9.59462e-06 1.17031e-05 1.42168e-05 1.72022e-05 2.07343e-05 2.4898e-05 2.97888e-05 3.55137e-05 4.21924e-05 4.99582e-05 5.89592e-05 6.93595e-05 8.134e-05 9.51003e-05 0.000110859 0.000128856 0.000149354 0.000172637 0.000199014 0.000228823 0.000262426 0.000300215 0.000342611 0.000390068 0.00044307 0.000502137 0.000567822 0.000640715 0.000721443 0.000810671 0.000909103 0.00101748 0.0011366 0.00126727 0.00141038 0.00156683 0.00173758 0.00192362 0.00212601 0.00234584 0.00258424 0.00284238 0.0031215 0.00342287 0.00374779 0.00409764 0.00447381 0.00487776 0.00531097 0.00577498 0.00627136 0.00680173 0.00736775 0.00797112 0.00861356 0.00929684 0.0100228 0.0107932 0.01161 0.0124751 0.0133903 0.0143578 0.0153794 0.0164571 0.017593 0.0187892 0.0200478 0.0213707 0.0227602 0.0242183 0.0257472 0.0273491 0.029026 0.0307801 0.0326137 0.0345288 0.0365276 0.0386123 0.040785 0.0430478 0.045403 0.0478526 0.0503988 0.0530437 0.0557892 0.0586376 0.0615909 0.064651 0.06782 0.0710999 0.0744926 0.078 0.0816241 0.0853667 0.0892297 0.0932148 0.0973238 0.101558 0.10592 0.110411 0.115033 0.119786 0.124674 0.129696 0.134855 0.140153 0.145589 0.151166 0.156885 0.162747 0.168754 0.174906 0.181204 0.18765 0.194245 0.200989 0.207883 0.214928 0.222125 0.229474 0.236977 0.244634 0.252445 0.260411 0.268532 0.276809 0.285242 0.293832 0.302579 0.311482 0.320543 0.329761 0.339136 0.348668 0.358358 0.368205 0.378209 0.38837 0.398688 0.409162 0.419793 0.430579 0.441521 0.452617 0.463869 0.475274 0.486833 0.498545 0.510409 0.522424 0.534591 0.546908 0.559374 0.571988 0.584751 0.59766 0.610716 0.623916 0.63726
0 0 0 0 0 0 0 0 0 0 0 0 0 0 0 0 0 0 0 0 0 0 0 0 0 0 0 0 0 0 0 0 0 0 0 0 0 0 0 0 0 0 0 0 2.96933e-315 7.8093e-285 1.24218e-258 6.67836e-236 4.70521e-216 1.27839e-198 3.19173e-183 1.4819e-169 2.27873e-157 1.86833e-146 1.21328e-136 8.68936e-128 9.06881e-120 1.74626e-112 7.58371e-106 8.82032e-100 3.18463e-94 4.05501e-89 2.0338e-84 4.42403e-80 4.54004e-76 2.36632e-72 6.68433e-69 1.08368e-65 1.06084e-62 6.55955e-60 2.6669e-57 7.38948e-55 1.44088e-52 2.03494e-50 2.13615e-48 1.7061e-46 1.05883e-44 5.20457e-43 2.06158e-41 6.685e-40 1.80015e-38 4.07841e-37 7.86739e-36 1.30637e-34 1.88599e-33 2.38912e-32 2.67808e-31 2.67715e-30 2.40374e-29 1.95138e-28 1.44106e-27 9.73556e-27 6.04856e-26 3.47265e-25 1.85073e-24 9.19429e-24 4.27442e-23 1.86636e-22 7.67966e-22 2.98737e-21 1.10183e-20 3.86386e-20 1.29159e-19 4.12552e-19 1.26202e-18 3.70519e-18 1.04611e-17 2.84568e-17 7.47135e-17 1.89644e-16 4.66108e-16 1.11092e-15 2.57116e-15 5.78625e-15 1.26773e-14 2.70723e-14 5.64124e-14 1.14824e-13 2.28521e-13 4.45112e-13 8.49271e-13 1.58864e-12 2.91579e-12 5.25495e-12 9.30634e-12 1.62064e-11 2.77698e-11 4.68504e-11 7.78687e-11 1.27576e-10 2.0614e-10 3.28677e-10 5.17372e-10 8.04386e-10 1.2358e-09 1.8769e-09 2.81914e-09 4.18937e-09 6.16162e-09 8.97248e-09 1.29404e-08 1.84904e-08 2.61841e-08 3.67585e-08 5.11717e-08 7.06597e-08 9.68055e-08 1.31621e-07 1.77644e-07 2.38056e-07 3.16817e-07 4.18824e-07 5.50097e-07 7.1799e-07 9.31432e-07 1.20121e-06 1.54027e-06 1.96408e-06 2.49104e-06 3.14287e-06 3.94515e-06 4.92785e-06 6.12588e-06 7.57978e-06 9.33637e-06 1.14496e-05 1.39811e-05 1.70016e-05 2.05912e-05 2.48407e-05 2.98528e-05 3.57428e-05 4.26401e-05 5.06892e-05 6.00512e-05 7.09047e-05 8.34476e-05 9.78982e-05 0.000114497 0.000133507 0.000155216 0.00017994 0.000208022 0.000239832 0.000275774 0.000316282 0.000361826 0.000412909 0.000470073 0.000533897 0.000604999 0.000684038 0.000771716 0.000868778 0.000976013 0.00109426 0.00122439 0.00136733 0.00152408 0.00169564 0.00188309 0.00208756 0.00231023 0.00255231 0.0028151 0.0030999 0.00340811 0.00374115 0.00410051 0.0044877 0.00490432 0.00535199 0.00583238 0.00634723 0.00689829 0.0074874 0.0081164 0.00878721 0.00950176 0.0102621 0.0110701 0.011928 0.0128377 0.0138016 0.0148216 0.0159 0.0170391 0.018241 0.0195081 0.0208425 0.0222468 0.023723 0.0252737 0.0269012 0.0286078 0.0303958 0.0322678 0.034226 0.0362729 0.0384109 0.0406422 0.0429693 0.0453946 0.0479204 0.0505491 0.053283 0.0561244 0.0590755 0.0621388 0.0653164 0.0686105 0.0720234 0.0755572 0.079214 0.082996 0.0869053 0.0909438 0.0951136 0.0994167 0.103855 0.10843 0.113144 0.117999 0.122996 0.128137 0.133425 0.138859 0.144442 0.150176 0.156061 0.1621 0.168294 0.174643 0.181149 0.187814 0.194638 0.201622 0.208768 0.216076 0.223548 0.231184 0.238985 0.246951 0.255084 0.263384 0.271851 0.280486 0.28929 0.298263 0.307404 0.316715 0.326196 0.335847 0.345667 0.355657 0.365818 0.376148 0.386648 0.397317 0.408156 0.419164 0.430341 0.441687 0.4532 0.464881 0.47673 0.488744 0.500925 0.513271 0.525782 0.538456 0.551294 0.564294 0.577455 0.590777 0.604259 0.617899 0.631697 0.645652 0.659762 0.674026 0.688444 0.703014 0.717735 0.732605 0.747624
0 0 0 0 0 0 0 0 0 0 0 0 0 0 0 0 0 0 0 0 0 0 0 0 0 0 0 0 0 0 0 0 0 0 0 0 0 0 0 0 0 0 0 0 3.14078e-304 7.26152e-275 1.42305e-249 1.2437e-227 1.79316e-208 1.209e-191 8.81367e-177 1.37198e-163 7.96087e-152 2.72663e-141 8.07686e-132 2.84836e-123 1.56497e-115 1.68221e-108 4.2945e-102 3.07347e-96 7.11126e-91 6.01631e-86 2.07081e-81 3.18227e-77 2.36804e-73 9.16279e-70 1.96278e-66 2.46007e-63 1.89466e-60 9.36531e-58 3.08847e-55 7.03432e-53 1.14132e-50 1.35634e-48 1.21048e-46 8.29787e-45 4.45892e-43 1.91315e-41 6.66469e-40 1.9139e-38 4.59374e-37 9.33251e-36 1.62336e-34 2.44337e-33 3.21303e-32 3.72425e-31 3.83618e-30 3.53793e-29 2.94165e-28 2.21917e-27 1.52794e-26 9.65405e-26 5.62586e-25 3.03794e-24 1.52675e-23 7.16988e-23 3.15822e-22 1.30942e-21 5.12677e-21 1.90133e-20 6.69818e-20 2.24749e-19 7.20051e-19 2.20783e-18 6.49315e-18 1.83537e-17 4.99584e-17 1.31188e-16 3.32909e-16 8.17699e-16 1.94696e-15 4.50022e-15 1.01113e-14 2.2112e-14 4.71209e-14 9.79623e-14 1.98896e-13 3.94782e-13 7.66774e-13 1.45865e-12 2.72009e-12 4.97642e-12 8.93903e-12 1.5777e-11 2.73791e-11 4.67484e-11 7.85852e-11 1.30138e-10 2.12423e-10 3.41959e-10 5.43184e-10 8.51794e-10 1.3193e-09 2.01915e-09 3.05491e-09 4.57098e-09 6.76667e-09 9.91419e-09 1.43818e-08 2.06628e-08 2.94126e-08 4.14933e-08 5.80305e-08 8.04811e-08 1.10716e-07 1.5112e-07 2.0471e-07 2.75276e-07 3.67546e-07 4.8738e-07 6.4199e-07 8.40206e-07 1.09276e-06 1.41265e-06 1.81547e-06 2.31989e-06 2.94812e-06 3.72643e-06 4.68575e-06 5.86236e-06 7.29852e-06 9.04333e-06 1.11535e-05 1.36945e-05 1.6741e-05 2.03785e-05 2.47043e-05 2.98285e-05 3.58752e-05 4.29843e-05 5.13124e-05 6.10343e-05 7.23449e-05 8.54601e-05 0.000100619 0.000118085 0.000138148 0.000161127 0.000187367 0.000217249 0.000251184 0.000289619 0.000333038 0.000381962 0.000436953 0.000498615 0.000567594 0.000644583 0.000730318 0.000825587 0.000931223 0.00104811 0.00117719 0.00131945 0.00147594 0.00164774 0.00183602 0.00204199 0.00226691 0.0025121 0.00277895 0.00306889 0.00338342 0.00372409 0.00409252 0.00449037 0.00491935 0.00538127 0.00587793 0.00641125 0.00698314 0.00759562 0.00825071 0.00895052 0.00969717 0.0104929 0.0113398 0.0122403 0.0131967 0.0142112 0.0152863 0.0164245 0.017628 0.0188996 0.0202415 0.0216565 0.023147 0.0247156 0.0263649 0.0280975 0.029916 0.031823 0.0338213 0.0359133 0.0381018 0.0403894 0.0427787 0.0452723 0.0478729 0.0505831 0.0534053 0.0563423 0.0593966 0.0625706 0.0658669 0.069288 0.0728363 0.0765143 0.0803242 0.0842685 0.0883495 0.0925694 0.0969305 0.101435 0.106085 0.110882 0.115829 0.120928 0.12618 0.131588 0.137153 0.142877 0.148762 0.154809 0.16102 0.167397 0.173941 0.180654 0.187536 0.19459 0.201816 0.209215 0.21679 0.22454 0.232466 0.240571 0.248854 0.257316 0.265958 0.274781 0.283786 0.292972 0.30234 0.311891 0.321625 0.331543 0.341644 0.351928 0.362397 0.373049 0.383885 0.394904 0.406108 0.417494 0.429064 0.440816 0.45275 0.464867 0.477165 0.489644 0.502303 0.515142 0.528159 0.541355 0.554728 0.568278 0.582004 0.595904 0.609978 0.624224 0.638643 0.653232 0.66799 0.682916 0.69801 0.713269 0.728692 0.744278 0.760027 0.775935 0.792002 0.808227 0.824607 0.841142 0.85783 0.874668
0 0 0 0 0 0 0 0 0 0 0 0 0 0 0 0 0 0 0 0 0 0 0 0 0 0 0 0 0 0 0 0 0 0 0 0 0 0 0 0 0 0 0 0 2.11844e-293 4.49791e-265 1.12699e-240 1.65344e-219 5.01744e-201 8.60442e-185 1.87191e-170 9.9604e-158 2.2188e-146 3.22401e-136 4.41727e-127 7.76747e-119 2.27233e-111 1.37767e-104 2.08698e-98 9.27e-93 1.38535e-87 7.84402e-83 1.86525e-78 2.03747e-74 1.10567e-70 3.19284e-67 5.21202e-64 5.07331e-61 3.08715e-58 1.22471e-55 3.28817e-53 6.17747e-51 8.36718e-49 8.39273e-47 6.38637e-45 3.76766e-43 1.75745e-41 6.59791e-40 2.02601e-38 5.16358e-37 1.10694e-35 2.02043e-34 3.17491e-33 4.33911e-32 5.2059e-31 5.53005e-30 5.24219e-29 4.46668e-28 3.44383e-27 2.41742e-26 1.55376e-25 9.19229e-25 5.03018e-24 2.55756e-23 1.21331e-22 5.3916e-22 2.25234e-21 8.87543e-21 3.30943e-20 1.17112e-19 3.94389e-19 1.26719e-18 3.89397e-18 1.14699e-17 3.24529e-17 8.83767e-17 2.3207e-16 5.88651e-16 1.44466e-15 3.4357e-15 7.92937e-15 1.77841e-14 3.88115e-14 8.25187e-14 1.71124e-13 3.46503e-13 6.85793e-13 1.32798e-12 2.51828e-12 4.68069e-12 8.53438e-12 1.52768e-11 2.68667e-11 4.64544e-11 7.90249e-11 1.32344e-10 2.18329e-10 3.55009e-10 5.6928e-10 9.00745e-10 1.40697e-09 2.1706e-09 3.30894e-09 4.98653e-09 7.43174e-09 1.09581e-08 1.5992e-08 2.31071e-08 3.30685e-08 4.68873e-08 6.58879e-08 9.17905e-08 1.26811e-07 1.73782e-07 2.36298e-07 3.18882e-07 4.27192e-07 5.68254e-07 7.50734e-07 9.85254e-07 1.28475e-06 1.6649e-06 2.14456e-06 2.7463e-06 3.497e-06 4.4285e-06 5.57831e-06 6.99041e-06 8.7161e-06 1.0815e-05 1.3356e-05 1.64185e-05 2.00933e-05 2.44843e-05 2.97095e-05 3.59026e-05 4.32144e-05 5.18145e-05 6.18929e-05 7.36616e-05 8.73567e-05 0.00010324 0.0001216 0.000142757 0.000167059 0.000194892 0.000226675 0.000262864 0.000303955 0.000350486 0.000403039 0.00046224 0.000528763 0.000603331 0.000686719 0.000779753 0.000883315 0.000998342 0.00112583 0.00126683 0.00142245 0.00159388 0.00178235 0.00198915 0.00221565 0.00246328 0.00273353 0.00302796 0.00334818 0.0036959 0.00407285 0.00448086 0.0049218 0.00539762 0.00591033 0.006462 0.00705474 0.00769076 0.00837229 0.00910163 0.00988114 0.0107132 0.0116003 0.012545 0.0135497 0.0146172 0.0157499 0.0169507 0.0182221 0.019567 0.0209882 0.0224883 0.0240703 0.0257371 0.0274914 0.0293362 0.0312743 0.0333087 0.0354423 0.037678 0.0400187 0.0424673 0.0450268 0.0477 0.0504899 0.0533993 0.0564311 0.059588 0.062873 0.0662888 0.0698382 0.0735238 0.0773485 0.0813148 0.0854253 0.0896827 0.0940895 0.0986482 0.103361 0.108231 0.113259 0.118449 0.123803 0.129322 0.135009 0.140866 0.146894 0.153096 0.159474 0.16603 0.172764 0.179679 0.186777 0.194058 0.201525 0.209179 0.21702 0.225051 0.233272 0.241684 0.250289 0.259087 0.26808 0.277268 0.286651 0.296231 0.306008 0.315982 0.326155 0.336525 0.347094 0.357862 0.368829 0.379995 0.391359 0.402923 0.414686 0.426647 0.438806 0.451164 0.463719 0.476471 0.48942 0.502564 0.515905 0.52944 0.543169 0.557091 0.571205 0.585511 0.600007 0.614692 0.629566 0.644626 0.659873 0.675305 0.690919 0.706716 0.722694 0.738851 0.755186 0.771697 0.788384 0.805243 0.822275 0.839476 0.856846 0.874382 0.892084 0.909949 0.927975 0.946161 0.964504 0.983004 1.00166 1.02046
0 0 0 0 0 0 0 0 0 0 0 0 0 0 0 0 0 0 0 0 0 0 0 0 0 0 0 0 0 0 0 0 0 0 0 0 0 0 0 0 0 0 0 1.00592e-314 9.11752e-283 1.85593e-255 6.16991e-232 1.56924e-211 1.03078e-193 4.60843e-178 3.0578e-164 5.67025e-152 4.9336e-141 3.08862e-131 1.98472e-122 1.76215e-114 2.77617e-107 9.59174e-101 8.70358e-95 2.42013e-89 2.35452e-84 8.98705e-80 1.48627e-75 1.16113e-71 4.62131e-68 1.0012e-64 1.25159e-61 9.50465e-59 4.58911e-56 1.46694e-53 3.21838e-51 5.00471e-49 5.67734e-47 4.82124e-45 3.13702e-43 1.59705e-41 6.48314e-40 2.13481e-38 5.79143e-37 1.3128e-35 2.51874e-34 4.13835e-33 5.88547e-32 7.31644e-31 8.02201e-30 7.82183e-29 6.83383e-28 5.38739e-27 3.85692e-26 2.52247e-25 1.51535e-24 8.40433e-24 4.32351e-23 2.07206e-22 9.28877e-22 3.90963e-21 1.55043e-20 5.81198e-20 2.06571e-19 6.981e-19 2.24915e-18 6.92548e-18 2.04275e-17 5.78439e-17 1.57565e-16 4.13669e-16 1.04861e-15 2.57083e-15 6.10549e-15 1.40671e-14 3.1487e-14 6.85612e-14 1.45408e-13 3.00727e-13 6.07176e-13 1.19804e-12 2.31246e-12 4.37051e-12 8.09531e-12 1.47077e-11 2.62309e-11 4.59589e-11 7.91636e-11 1.34147e-10 2.23777e-10 3.67704e-10 5.95507e-10 9.51092e-10 1.49878e-09 2.33158e-09 3.58239e-09 5.43883e-09 8.16278e-09 1.21159e-08 1.77921e-08 2.58596e-08 3.72134e-08 5.30409e-08 7.49033e-08 1.04836e-07 1.45468e-07 2.00172e-07 2.73238e-07 3.70078e-07 4.9748e-07 6.63886e-07 8.79731e-07 1.15783e-06 1.51381e-06 1.96663e-06 2.53912e-06 3.25867e-06 4.15789e-06 5.27544e-06 6.65691e-06 8.35578e-06 1.04345e-05 1.29655e-05 1.60328e-05 1.97328e-05 2.41763e-05 2.94897e-05 3.58165e-05 4.33194e-05 5.2182e-05 6.26104e-05 7.48355e-05 8.91149e-05 0.000105735 0.000125014 0.000147301 0.000172984 0.000202487 0.000236273 0.000274849 0.000318767 0.000368626 0.000425073 0.000488808 0.000560585 0.000641213 0.000731559 0.000832551 0.00094518 0.0010705 0.00120962 0.00136374 0.00153411 0.00172205 0.00192896 0.00215629 0.0024056 0.00267849 0.00297665 0.00330183 0.00365587 0.00404068 0.00445823 0.00491058 0.00539984 0.00592823 0.00649799 0.00711147 0.00777107 0.00847925 0.00923855 0.0100516 0.0109209 0.0118494 0.0128397 0.0138946 0.0150171 0.01621 0.0174764 0.0188191 0.0202413 0.021746 0.0233364 0.0250155 0.0267865 0.0286527 0.0306171 0.0326831 0.0348538 0.0371325 0.0395224 0.0420268 0.0446488 0.0473918 0.0502588 0.0532532 0.0563781 0.0596367 0.063032 0.0665673 0.0702455 0.0740698 0.0780432 0.0821686 0.0864489 0.090887 0.0954858 0.100248 0.105176 0.110274 0.115542 0.120985 0.126604 0.132402 0.138381 0.144544 0.150893 0.157429 0.164156 0.171074 0.178186 0.185495 0.193 0.200705 0.208611 0.216719 0.22503 0.233547 0.242271 0.251201 0.260341 0.269691 0.279251 0.289022 0.299006 0.309204 0.319614 0.330239 0.341079 0.352134 0.363404 0.374889 0.386591 0.398508 0.41064 0.422988 0.435552 0.448331 0.461324 0.474532 0.487954 0.501589 0.515437 0.529498 0.543769 0.558251 0.572943 0.587843 0.602951 0.618265 0.633785 0.64951 0.665437 0.681566 0.697895 0.714424 0.731149 0.748071 0.765187 0.782496 0.799996 0.817686 0.835563 0.853627 0.871874 0.890304 0.908914 0.927702 0.946667 0.965807 0.985119 1.0046 1.02425 1.04407 1.06405 1.08419 1.10449 1.12495 1.14557 1.16634 1.18726
0 0 0 0 0 0 0 0 0 0 0 0 0 0 0 0 0 0 0 0 0 0 0 0 0 0 0 0 0 0 0 0 0 0 0 0 0 0 0 0 0 0 0 4.08369e-303 2.50392e-272 5.1013e-246 2.33509e-223 1.06321e-203 1.5548e-186 1.85746e-171 3.84178e-158 2.53119e-146 8.75183e-136 2.39735e-126 7.32614e-118 3.32569e-110 2.85384e-103 5.67729e-97 3.11496e-91 5.46894e-86 3.49119e-81 9.04828e-77 1.04766e-72 5.88983e-69 1.72907e-65 2.82529e-62 2.71796e-59 1.61764e-56 6.2236e-54 1.60936e-51 2.89598e-49 3.74049e-47 3.56536e-45 2.57119e-43 1.43465e-41 6.31987e-40 2.2384e-38 6.48045e-37 1.55672e-35 3.14531e-34 5.41179e-33 8.01951e-32 1.0341e-30 1.17135e-29 1.17564e-28 1.05384e-27 8.49875e-27 6.20769e-26 4.13228e-25 2.52123e-24 1.4174e-23 7.37817e-23 3.57229e-22 1.6155e-21 6.85052e-21 2.7338e-20 1.03015e-19 3.67692e-19 1.24679e-18 4.02725e-18 1.24234e-17 3.66881e-17 1.03951e-16 2.8318e-16 7.4315e-16 1.88221e-15 4.60881e-15 1.0928e-14 2.51299e-14 5.61253e-14 1.21909e-13 2.57852e-13 5.3173e-13 1.07026e-12 2.10488e-12 4.049e-12 7.6255e-12 1.40728e-11 2.54717e-11 4.52539e-11 7.89782e-11 1.35497e-10 2.28679e-10 3.79912e-10 6.21686e-10 1.00265e-09 1.59465e-09 2.50238e-09 3.87644e-09 5.93089e-09 8.96633e-09 1.34002e-08 1.98058e-08 2.89624e-08 4.19185e-08 6.00711e-08 8.52642e-08 1.1991e-07 1.67137e-07 2.30967e-07 3.16532e-07 4.30326e-07 5.80507e-07 7.77246e-07 1.03314e-06 1.36368e-06 1.78781e-06 2.32849e-06 3.01347e-06 3.87603e-06 4.95585e-06 6.29999e-06 7.96401e-06 1.00131e-05 1.25233e-05 1.55833e-05 1.92952e-05 2.37768e-05 2.91634e-05 3.5609e-05 4.32887e-05 5.24011e-05 6.31697e-05 7.58458e-05 9.07106e-05 0.000108078 0.000128295 0.00015175 0.000178867 0.000210116 0.00024601 0.000287113 0.000334038 0.000387451 0.000448075 0.000516692 0.000594147 0.000681344 0.000779259 0.000888933 0.00101148 0.00114808 0.0013 0.00146857 0.00165522 0.00186142 0.00208876 0.00233889 0.00261356 0.00291458 0.00324386 0.00360339 0.00399524 0.00442157 0.00488461 0.0053867 0.00593022 0.00651768 0.00715162 0.00783468 0.00856959 0.00935913 0.0102062 0.0111136 0.0120844 0.0131218 0.0142287 0.0154083 0.016664 0.0179989 0.0194164 0.02092 0.0225128 0.0241986 0.0259806 0.0278624 0.0298476 0.0319398 0.0341424 0.036459 0.0388933 0.0414488 0.0441292 0.046938 0.0498788 0.0529552 0.0561707 0.0595288 0.0630331 0.066687 0.070494 0.0744574 0.0785807 0.0828672 0.0873201 0.0919426 0.0967381 0.101709 0.10686 0.112192 0.117709 0.123415 0.12931 0.135399 0.141684 0.148168 0.154852 0.16174 0.168833 0.176135 0.183647 0.19137 0.199308 0.207462 0.215834 0.224425 0.233238 0.242273 0.251532 0.261016 0.270728 0.280666 0.290834 0.301232 0.31186 0.322719 0.333811 0.345135 0.356692 0.368483 0.380507 0.392765 0.405258 0.417985 0.430945 0.44414 0.457568 0.47123 0.485124 0.499251 0.51361 0.5282 0.543021 0.558071 0.57335 0.588857 0.604591 0.62055 0.636734 0.653141 0.669771 0.68662 0.703689 0.720976 0.738479 0.756196 0.774126 0.792267 0.810618 0.829175 0.847939 0.866906 0.886075 0.905443 0.925009 0.94477 0.964725 0.984871 1.00521 1.02573 1.04643 1.06732 1.08839 1.10963 1.13105 1.15264 1.1744 1.19633 1.21842 1.24068 1.2631 1.28567 1.3084 1.33128 1.3543 1.37748
0 0 0 0 0 0 0 0 0 0 0 0 0 0 0 0 0 0 0 0 0 0 0 0 0 0 0 0 0 0 0 0 0 0 0 0 0 0 0 0 0 0 0 1.00574e-291 4.38782e-262 9.34046e-237 6.10928e-215 5.14251e-196 1.72188e-179 5.63405e-165 3.71239e-152 8.86025e-141 1.23858e-130 1.50764e-121 2.22169e-113 5.22156e-106 2.46845e-99 2.85678e-93 9.56714e-88 1.06973e-82 4.51617e-78 8.00543e-74 6.53296e-70 2.65927e-66 5.79114e-63 7.17462e-60 5.33757e-57 2.50107e-54 7.70014e-52 1.61719e-49 2.39567e-47 2.57904e-45 2.07231e-43 1.273e-41 6.10864e-40 2.33475e-38 7.23336e-37 1.84564e-35 3.93476e-34 7.10139e-33 1.09799e-31 1.4703e-30 1.72218e-29 1.78059e-28 1.63861e-27 1.35248e-26 1.00829e-25 6.83344e-25 4.23532e-24 2.41386e-23 1.27152e-22 6.21955e-22 2.83736e-21 1.21211e-20 4.86708e-20 1.84336e-19 6.60652e-19 2.24734e-18 7.27649e-18 2.2484e-17 6.64643e-17 1.88393e-16 5.1314e-16 1.34578e-15 3.40488e-15 8.32501e-15 1.97036e-14 4.52129e-14 1.00734e-13 2.18214e-13 4.60203e-13 9.46043e-13 1.89788e-12 3.71962e-12 7.12931e-12 1.33764e-11 2.4591e-11 4.4334e-11 7.84475e-11 1.36346e-10 2.32945e-10 3.91484e-10 6.47614e-10 1.0552e-09 1.69447e-09 2.68324e-09 4.19228e-09 6.46592e-09 9.84954e-09 1.48255e-08 2.20602e-08 3.24636e-08 4.72663e-08 6.81148e-08 9.71916e-08 1.37362e-07 1.92355e-07 2.6698e-07 3.67391e-07 5.01395e-07 6.78825e-07 9.11966e-07 1.21606e-06 1.6099e-06 2.11646e-06 2.7637e-06 3.58537e-06 4.62203e-06 5.92209e-06 7.54302e-06 9.55264e-06 1.20306e-05 1.50701e-05 1.87791e-05 2.3283e-05 2.87257e-05 3.52724e-05 4.31118e-05 5.24579e-05 6.35532e-05 7.6671e-05 9.2118e-05 0.000110237 0.000131412 0.000156065 0.000184669 0.00021774 0.00025585 0.000299622 0.00034974 0.000406946 0.000472049 0.000545923 0.000629512 0.000723835 0.000829984 0.000949131 0.00108253 0.00123152 0.00139751 0.00158202 0.00178664 0.00201307 0.00226308 0.00253855 0.00284145 0.00317383 0.00353786 0.0039358 0.00436998 0.00484285 0.00535696 0.00591493 0.00651948 0.00717342 0.00787966 0.00864119 0.00946107 0.0103425 0.0112886 0.0123028 0.0133884 0.014549 0.0157879 0.0171088 0.0185154 0.0200112 0.0216002 0.023286 0.0250725 0.0269635 0.0289631 0.031075 0.0333032 0.0356518 0.0381247 0.0407258 0.0434593 0.046329 0.0493391 0.0524934 0.0557958 0.0592505 0.0628612 0.066632 0.0705665 0.0746687 0.0789423 0.083391 0.0880185 0.0928285 0.0978245 0.10301 0.108388 0.113963 0.119738 0.125715 0.131898 0.13829 0.144894 0.151713 0.158749 0.166006 0.173486 0.181191 0.189124 0.197288 0.205683 0.214314 0.22318 0.232285 0.241631 0.251218 0.261049 0.271125 0.281447 0.292016 0.302835 0.313903 0.325222 0.336792 0.348615 0.360691 0.37302 0.385603 0.39844 0.411531 0.424877 0.438477 0.452332 0.466441 0.480803 0.495419 0.510288 0.525409 0.540781 0.556405 0.572278 0.588401 0.604771 0.621388 0.638251 0.655359 0.672709 0.690301 0.708133 0.726204 0.744512 0.763054 0.78183 0.800837 0.820074 0.839538 0.859228 0.879142 0.899276 0.91963 0.9402 0.960985 0.981982 1.00319 1.0246 1.04622 1.06804 1.09006 1.11228 1.13469 1.1573 1.18009 1.20307 1.22623 1.24957 1.27309 1.29679 1.32066 1.3447 1.3689 1.39327 1.4178 1.44249 1.46733 1.49232 1.51746 1.54275 1.56818 1.59375
0 0 0 0 0 0 0 0 0 0 0 0 0 0 0 0 0 0 0 0 0 0 0 0 0 0 0 0 0 0 0 0 0 0 0 0 0 0 0 0 0 0 3.26775e-314 1.50294e-280 4.90637e-252 1.13926e-227 1.10494e-206 1.77565e-188 1.40009e-172 1.28605e-158 2.75913e-146 2.43201e-135 1.39842e-125 7.68181e-117 5.53509e-109 6.82019e-102 1.7965e-95 1.22209e-89 2.52166e-84 1.81116e-79 5.09678e-75 6.22406e-71 3.60381e-67 1.0687e-63 1.73629e-60 1.63957e-57 9.47909e-55 3.51294e-52 8.69159e-50 1.48844e-47 1.82193e-45 1.64047e-43 1.11481e-41 5.85121e-40 2.42164e-38 8.05218e-37 2.18772e-35 4.93153e-34 9.35206e-33 1.51091e-31 2.10357e-30 2.55037e-29 2.71849e-28 2.56997e-27 2.1721e-26 1.65339e-25 1.14117e-24 7.18633e-24 4.15271e-23 2.21372e-22 1.09396e-21 5.03426e-21 2.16641e-20 8.75194e-20 3.33115e-19 1.19858e-18 4.08953e-18 1.32702e-17 4.10638e-17 1.21482e-16 3.444e-16 9.37717e-16 2.45717e-15 6.2086e-15 1.51543e-14 3.57933e-14 8.19378e-14 1.82069e-13 3.93254e-13 8.26745e-13 1.69385e-12 3.38608e-12 6.61182e-12 1.26242e-11 2.35926e-11 4.31963e-11 7.75532e-11 1.36647e-10 2.3648e-10 4.02261e-10 6.73058e-10 1.10846e-09 1.79802e-09 2.87433e-09 4.53107e-09 7.04733e-09 1.08203e-08 1.6408e-08 2.45858e-08 3.64186e-08 5.33526e-08 7.73327e-08 1.10947e-07 1.57606e-07 2.21766e-07 3.09191e-07 4.27278e-07 5.85438e-07 7.95553e-07 1.0725e-06 1.43478e-06 1.90523e-06 2.51182e-06 3.28864e-06 4.27691e-06 5.52617e-06 7.09564e-06 9.05566e-06 1.14893e-05 1.44942e-05 1.81845e-05 2.26927e-05 2.81723e-05 3.48001e-05 4.27785e-05 5.23387e-05 6.3743e-05 7.72886e-05 9.33098e-05 0.000112182 0.000134325 0.000160207 0.000190345 0.000225314 0.000265746 0.000312334 0.00036584 0.000427092 0.000496993 0.000576523 0.000666741 0.00076879 0.0008839 0.00101339 0.00115867 0.00132125 0.00150274 0.00170484 0.00192935 0.0021782 0.00245339 0.00275705 0.00309141 0.00345881 0.00386171 0.00430265 0.0047843 0.00530943 0.00588093 0.00650178 0.00717506 0.00790398 0.00869181 0.00954195 0.0104579 0.0114432 0.0125015 0.0136366 0.0148523 0.0161524 0.0175411 0.0190223 0.0206001 0.0222787 0.0240623 0.0259552 0.0279616 0.030086 0.0323327 0.0347061 0.0372107 0.0398508 0.0426309 0.0455555 0.0486291 0.051856 0.0552407 0.0587877 0.0625012 0.0663857 0.0704455 0.0746848 0.079108 0.0837192 0.0885225 0.0935219 0.0987216 0.104125 0.109737 0.115561 0.1216 0.127858 0.134339 0.141047 0.147983 0.155152 0.162557 0.170201 0.178087 0.186218 0.194596 0.203223 0.212104 0.221239 0.230631 0.240283 0.250195 0.260371 0.270812 0.281519 0.292494 0.303739 0.315255 0.327042 0.339103 0.351437 0.364046 0.37693 0.39009 0.403527 0.41724 0.43123 0.445497 0.46004 0.47486 0.489957 0.505329 0.520977 0.5369 0.553097 0.569568 0.586311 0.603326 0.62061 0.638164 0.655986 0.674074 0.692427 0.711044 0.729922 0.74906 0.768457 0.788109 0.808016 0.828174 0.848583 0.86924 0.890142 0.911287 0.932673 0.954298 0.976158 0.998252 1.02058 1.04313 1.0659 1.0889 1.11212 1.13556 1.15921 1.18307 1.20714 1.23141 1.25588 1.28056 1.30542 1.33049 1.35574 1.38117 1.40679 1.43259 1.45856 1.48471 1.51103 1.53751 1.56416 1.59096 1.61793 1.64504 1.67231 1.69972 1.72727 1.75497 1.7828 1.81076 1.83886
0 0 0 0 0 0 0 0 0 0 0 0 0 0 0 0 0 0 0 0 0 0 0 0 0 0 0 0 0 0 0 0 0 0 0 0 0 0 0 0 0 0 5.95706e-302 1.36275e-269 3.5007e-242 9.25648e-219 1.38151e-198 4.37693e-181 8.3585e-166 2.20917e-152 1.57721e-140 5.23457e-130 1.25962e-120 3.17122e-112 1.13292e-104 7.41088e-98 1.10012e-91 4.44445e-86 5.70381e-81 2.65426e-76 5.01821e-72 4.25238e-68 1.75865e-64 3.82283e-61 4.66e-58 3.37177e-55 1.52234e-52 4.48246e-50 8.95043e-48 1.25478e-45 1.27383e-43 9.62627e-42 5.55059e-40 2.49679e-38 8.93806e-37 2.59257e-35 6.19287e-34 1.23627e-32 2.09015e-31 3.02935e-30 3.80552e-29 4.18541e-28 4.06734e-27 3.52192e-26 2.73835e-25 1.92534e-24 1.23213e-23 7.21992e-23 3.89517e-22 1.94467e-21 9.02681e-21 3.91271e-20 1.5901e-19 6.08129e-19 2.19634e-18 7.51508e-18 2.44344e-17 7.57031e-17 2.2408e-16 6.35222e-16 1.72848e-15 4.52423e-15 1.14137e-14 2.78047e-14 6.55208e-14 1.49596e-13 3.3144e-13 7.13615e-13 1.49516e-12 3.05231e-12 6.07872e-12 1.18231e-11 2.24827e-11 4.18412e-11 7.62805e-11 1.36354e-10 2.39186e-10 4.1207e-10 6.97756e-10 1.16211e-09 1.90504e-09 3.07575e-09 4.89397e-09 7.67871e-09 1.1887e-08 1.81655e-08 2.74176e-08 4.08909e-08 6.02892e-08 8.79135e-08 1.2684e-07 1.81138e-07 2.56143e-07 3.58783e-07 4.97972e-07 6.85085e-07 9.34516e-07 1.26433e-06 1.69705e-06 2.26049e-06 2.98884e-06 3.92375e-06 5.11569e-06 6.62537e-06 8.52544e-06 1.09022e-05 1.38578e-05 1.7512e-05 2.20052e-05 2.75003e-05 3.41861e-05 4.22797e-05 5.20301e-05 6.37212e-05 7.76755e-05 9.42575e-05 0.000113878 0.000136997 0.00016413 0.000195848 0.000232786 0.000275646 0.0003252 0.000382294 0.000447856 0.000522895 0.000608509 0.000705888 0.000816317 0.00094118 0.00108197 0.00124027 0.00141779 0.00161635 0.00183787 0.00208441 0.00235813 0.00266131 0.00299638 0.00336587 0.00377242 0.00421884 0.00470801 0.00524296 0.00582687 0.00646298 0.0071547 0.00790554 0.00871912 0.00959918 0.0105496 0.0115742 0.0126773 0.0138627 0.015135 0.0164983 0.0179571 0.0195158 0.0211792 0.0229517 0.0248381 0.0268431 0.0289717 0.0312285 0.0336185 0.0361466 0.0388177 0.0416368 0.0446089 0.047739 0.0510319 0.0544927 0.0581263 0.0619376 0.0659315 0.0701129 0.0744866 0.0790573 0.0838298 0.0888087 0.0939986 0.0994041 0.10503 0.110879 0.116958 0.123269 0.129817 0.136606 0.14364 0.150922 0.158457 0.166247 0.174296 0.182609 0.191186 0.200033 0.209151 0.218544 0.228214 0.238164 0.248396 0.258913 0.269716 0.280807 0.292189 0.303863 0.315831 0.328094 0.340653 0.35351 0.366665 0.38012 0.393874 0.40793 0.422286 0.436944 0.451904 0.467165 0.482728 0.498593 0.514758 0.531224 0.54799 0.565055 0.582419 0.60008 0.618037 0.636289 0.654836 0.673674 0.692804 0.712223 0.731929 0.751922 0.772198 0.792755 0.813593 0.834708 0.856098 0.87776 0.899694 0.921895 0.944361 0.967089 0.990078 1.01332 1.03682 1.06057 1.08457 1.10882 1.1333 1.15803 1.18299 1.20818 1.2336 1.25924 1.28511 1.3112 1.3375 1.36402 1.39074 1.41767 1.4448 1.47212 1.49964 1.52735 1.55525 1.58333 1.61159 1.64002 1.66863 1.6974 1.72634 1.75544 1.78469 1.8141 1.84366 1.87336 1.90321 1.93319 1.96331 1.99355 2.02393 2.05443 2.08504 2.11578
0 0 0 0 0 0 0 0 0 0 0 0 0 0 0 0 0 0 0 0 0 0 0 0 0 0 0 0 0 0 0 0 0 0 0 0 0 0 0 0 0 0 6.20916e-290 7.49737e-259 1.59379e-232 5.00998e-210 1.19407e-190 7.70207e-174 3.66374e-159 2.85586e-146 6.9343e-135 8.83476e-125 9.05169e-116 1.06069e-107 1.90504e-100 6.69917e-94 5.66846e-88 1.37412e-82 1.10718e-77 3.36695e-73 4.31051e-69 2.55306e-65 7.59206e-62 1.21716e-58 1.11958e-55 6.23993e-53 2.21095e-50 5.19591e-48 8.40876e-46 9.68876e-44 8.18772e-42 5.21109e-40 2.55783e-38 9.89094e-37 3.07145e-35 7.79271e-34 1.64075e-32 2.90761e-31 4.39269e-30 5.72368e-29 6.50087e-28 6.49847e-27 5.768e-26 4.58268e-25 3.28326e-24 2.13565e-23 1.26912e-22 6.92971e-22 3.49517e-21 1.63637e-20 7.14359e-20 2.92001e-19 1.12193e-18 4.06646e-18 1.39503e-17 4.54375e-17 1.40915e-16 4.17228e-16 1.18237e-15 3.21449e-15 8.4022e-15 2.11584e-14 5.14292e-14 1.20879e-13 2.75189e-13 6.07767e-13 1.30409e-12 2.72235e-12 5.53624e-12 1.09813e-11 2.12697e-11 4.02727e-11 7.46191e-11 1.35425e-10 2.40968e-10 4.20729e-10 7.21419e-10 1.21577e-09 2.01515e-09 3.2875e-09 5.28211e-09 8.36383e-09 1.30592e-08 2.01182e-08 3.05951e-08 4.59544e-08 6.82064e-08 1.0008e-07 1.45238e-07 2.0855e-07 2.9642e-07 4.17193e-07 5.81642e-07 8.03555e-07 1.10042e-06 1.49424e-06 2.01249e-06 2.68919e-06 3.56619e-06 4.69458e-06 6.13633e-06 7.96606e-06 1.02731e-05 1.31638e-05 1.67637e-05 2.12208e-05 2.67078e-05 3.34256e-05 4.1607e-05 5.15195e-05 6.347e-05 7.78083e-05 9.49315e-05 0.000115288 0.000139384 0.000167784 0.000201121 0.000240096 0.000285489 0.000338159 0.00039905 0.000469197 0.000549733 0.000641888 0.000747001 0.000866517 0.001002 0.00115513 0.0013277 0.00152165 0.00173903 0.00198203 0.00225298 0.00255433 0.00288869 0.0032588 0.00366754 0.00411794 0.00461315 0.0051565 0.00575142 0.00640151 0.0071105 0.00788224 0.00872073 0.00963011 0.0106146 0.0116786 0.0128266 0.0140633 0.0153932 0.0168213 0.0183525 0.0199917 0.0217441 0.0236148 0.0256091 0.0277323 0.0299898 0.0323869 0.0349292 0.0376221 0.0404711 0.0434818 0.0466598 0.0500106 0.0535397 0.0572528 0.0611553 0.0652526 0.0695504 0.074054 0.0787688 0.0837 0.088853 0.0942329 0.0998449 0.105694 0.111785 0.118123 0.124712 0.131558 0.138664 0.146036 0.153677 0.161591 0.169784 0.178257 0.187016 0.196064 0.205404 0.21504 0.224975 0.235212 0.245753 0.256602 0.267761 0.279232 0.291018 0.303121 0.315542 0.328284 0.341348 0.354736 0.368448 0.382486 0.396851 0.411543 0.426564 0.441913 0.457591 0.473599 0.489935 0.506601 0.523596 0.540919 0.558569 0.576547 0.594851 0.61348 0.632433 0.651708 0.671305 0.691222 0.711457 0.732009 0.752875 0.774053 0.795542 0.817339 0.839442 0.861848 0.884555 0.90756 0.930861 0.954454 0.978337 1.00251 1.02696 1.05169 1.07671 1.10199 1.12755 1.15337 1.17945 1.2058 1.2324 1.25926 1.28636 1.31372 1.34131 1.36914 1.3972 1.42549 1.45401 1.48275 1.51171 1.54088 1.57026 1.59985 1.62964 1.65963 1.68981 1.72017 1.75073 1.78146 1.81237 1.84345 1.87471 1.90612 1.93769 1.96942 2.00131 2.03333 2.06551 2.09782 2.13026 2.16284 2.19554 2.22836 2.2613 2.29436 2.32753 2.3608 2.39417 2.42765
0 0 0 0 0 0 0 0 0 0 0 0 0 0 0 0 0 0 0 0 0 0 0 0 0 0 0 0 0 0 0 0 0 0 0 0 0 0 0 0 0 1.00686e-313 3.70037e-278 2.50279e-248 4.63013e-223 1.80632e-201 7.13459e-183 9.67551e-167 1.17908e-152 2.7783e-140 2.34484e-129 1.16925e-119 5.18932e-111 2.87442e-103 2.63173e-96 5.03791e-90 2.45752e-84 3.6118e-79 1.84436e-74 3.69691e-70 3.23026e-66 1.34698e-62 2.89937e-59 3.44943e-56 2.40786e-53 1.0392e-50 2.9038e-48 5.4715e-46 7.20715e-44 6.85225e-42 4.83826e-40 2.60244e-38 1.09093e-36 3.63759e-35 9.82681e-34 2.1867e-32 4.06857e-31 6.41587e-30 8.6809e-29 1.0191e-27 1.04865e-26 9.546e-26 7.75306e-25 5.66171e-24 3.74392e-23 2.25652e-22 1.24705e-21 6.35413e-21 3.00027e-20 1.31896e-19 5.42188e-19 2.09246e-18 7.60964e-18 2.61677e-17 8.53592e-17 2.64916e-16 7.84401e-16 2.22156e-15 6.03272e-15 1.57425e-14 3.95592e-14 9.59151e-14 2.24794e-13 5.10138e-13 1.12278e-12 2.40025e-12 4.99104e-12 1.01083e-11 1.99645e-11 3.84986e-11 7.25638e-11 1.33825e-10 2.41728e-10 4.28046e-10 7.43725e-10 1.26897e-09 2.12791e-09 3.50942e-09 5.6965e-09 9.10665e-09 1.43471e-08 2.22886e-08 3.41635e-08 5.16939e-08 7.72565e-08 1.14094e-07 1.66581e-07 2.40554e-07 3.43722e-07 4.86167e-07 6.80944e-07 9.44808e-07 1.29907e-06 1.77062e-06 2.39306e-06 3.20814e-06 4.26726e-06 5.63325e-06 7.38242e-06 9.6068e-06 1.24166e-05 1.59431e-05 2.03415e-05 2.57945e-05 3.25157e-05 4.07535e-05 5.07955e-05 6.29726e-05 7.76638e-05 9.53012e-05 0.000116375 0.000141439 0.000171116 0.000206103 0.000247178 0.000295206 0.000351142 0.000416041 0.000491062 0.000577473 0.000676657 0.000790119 0.00091949 0.00106653 0.00123315 0.00142138 0.0016334 0.00187155 0.00213832 0.00243635 0.00276845 0.00313756 0.00354681 0.00399949 0.00449904 0.00504908 0.00565338 0.00631586 0.00704064 0.00783194 0.0086942 0.00963194 0.0106499 0.0117529 0.0129459 0.0142341 0.0156227 0.017117 0.0187226 0.020445 0.0222899 0.0242631 0.0263704 0.0286179 0.0310114 0.033557 0.036261 0.0391293 0.0421683 0.045384 0.0487828 0.0523709 0.0561544 0.0601396 0.0643327 0.0687398 0.0733671 0.0782206 0.0833063 0.0886301 0.0941979 0.100016 0.106089 0.112423 0.119024 0.125896 0.133046 0.140479 0.148198 0.15621 0.164519 0.17313 0.182046 0.191272 0.200813 0.210673 0.220854 0.231361 0.242197 0.253366 0.264869 0.276712 0.288895 0.301422 0.314295 0.327516 0.341087 0.355011 0.369287 0.383919 0.398907 0.414252 0.429955 0.446017 0.462438 0.479218 0.496359 0.513859 0.531719 0.549938 0.568516 0.587451 0.606744 0.626392 0.646396 0.666753 0.687462 0.708521 0.729929 0.751684 0.773783 0.796224 0.819006 0.842125 0.865579 0.889366 0.913482 0.937924 0.96269 0.987777 1.01318 1.0389 1.06492 1.09126 1.1179 1.14483 1.17207 1.19959 1.2274 1.2555 1.28388 1.31253 1.34145 1.37064 1.4001 1.42981 1.45977 1.48999 1.52045 1.55116 1.58209 1.61327 1.64466 1.67628 1.70812 1.74018 1.77244 1.8049 1.83756 1.87042 1.90347 1.93671 1.97012 2.00371 2.03747 2.0714 2.10549 2.13973 2.17413 2.20868 2.24336 2.27819 2.31315 2.34824 2.38346 2.41879 2.45424 2.4898 2.52547 2.56124 2.59711 2.63307 2.66912 2.70525 2.74147 2.77776
0 0 0 0 0 0 0 0 0 0 0 0 0 0 0 0 0 0 0 0 0 0 0 0 0 0 0 0 0 0 0 0 0 0 0 0 0 0 0 0 0 9.92681e-301 1.26087e-266 5.06943e-238 8.58297e-214 4.33832e-193 2.94694e-175 8.67695e-160 2.78602e-146 2.03403e-134 6.0985e-124 1.21343e-114 2.37345e-106 6.31118e-99 2.98683e-92 3.15179e-86 8.96478e-81 8.07072e-76 2.63663e-71 3.51356e-67 2.1119e-63 6.24497e-60 9.79518e-57 8.70126e-54 4.63566e-51 1.55744e-48 3.44887e-46 5.23422e-44 5.63559e-42 4.43877e-40 2.62838e-38 1.19898e-36 4.30641e-35 1.24197e-33 2.92717e-32 5.72838e-31 9.4426e-30 1.32822e-28 1.61317e-27 1.70992e-26 1.5973e-25 1.32669e-24 9.87767e-24 6.64146e-23 4.06026e-22 2.2711e-21 1.16898e-20 5.56615e-20 2.46377e-19 1.01834e-18 3.9467e-18 1.43978e-17 4.96159e-17 1.62048e-16 5.03149e-16 1.48941e-15 4.21451e-15 1.1428e-14 2.97631e-14 7.46119e-14 1.80397e-13 4.21461e-13 9.53132e-13 2.08993e-12 4.45004e-12 9.21457e-12 1.85805e-11 3.65311e-11 7.01157e-11 1.31524e-10 2.41374e-10 4.33822e-10 7.64324e-10 1.32122e-09 2.24271e-09 3.74125e-09 6.13807e-09 9.91127e-09 1.57617e-08 2.47018e-08 3.81744e-08 5.82079e-08 8.76185e-08 1.30268e-07 1.91392e-07 2.78008e-07 3.99419e-07 5.67839e-07 7.99135e-07 1.11373e-06 1.53769e-06 2.10393e-06 2.85375e-06 3.83848e-06 5.12146e-06 6.78025e-06 8.90911e-06 1.16219e-05 1.50549e-05 1.93708e-05 2.4762e-05 3.14549e-05 3.97143e-05 4.98482e-05 6.22131e-05 7.72192e-05 9.5336e-05 0.000117099 0.000143114 0.000174067 0.000210728 0.000253957 0.000304715 0.000364067 0.00043319 0.000513382 0.000606065 0.000712795 0.000835269 0.000975326 0.00113496 0.00131632 0.00152173 0.00175365 0.00201475 0.00230786 0.00263597 0.00300229 0.0034102 0.00386324 0.00436518 0.00491994 0.00553167 0.00620465 0.0069434 0.00775258 0.00863706 0.00960188 0.0106522 0.0117935 0.0130312 0.014371 0.0158188 0.0173805 0.0190623 0.0208704 0.0228111 0.024891 0.0271165 0.0294943 0.0320311 0.0347339 0.0376093 0.0406643 0.0439059 0.0473409 0.0509765 0.0548196 0.0588771 0.0631561 0.0676635 0.0724061 0.0773909 0.0826246 0.088114 0.0938657 0.0998862 0.106182 0.11276 0.119625 0.126785 0.134244 0.14201 0.150087 0.158481 0.167198 0.176242 0.185619 0.195334 0.205392 0.215796 0.226551 0.237662 0.249132 0.260964 0.273164 0.285733 0.298674 0.311992 0.325688 0.339764 0.354224 0.369069 0.3843 0.399921 0.415931 0.432332 0.449125 0.466311 0.48389 0.501863 0.52023 0.53899 0.558144 0.577691 0.59763 0.617961 0.638682 0.659793 0.681291 0.703175 0.725444 0.748095 0.771127 0.794537 0.818323 0.842483 0.867012 0.89191 0.917172 0.942796 0.968778 0.995114 1.0218 1.04884 1.07622 1.10394 1.132 1.16038 1.1891 1.21814 1.2475 1.27718 1.30716 1.33745 1.36805 1.39894 1.43012 1.46159 1.49334 1.52536 1.55766 1.59023 1.62306 1.65615 1.68948 1.72307 1.75689 1.79095 1.82525 1.85977 1.89451 1.92946 1.96462 1.99999 2.03556 2.07132 2.10727 2.14341 2.17972 2.21621 2.25286 2.28968 2.32665 2.36377 2.40104 2.43846 2.47601 2.51369 2.55149 2.58942 2.62746 2.66562 2.70388 2.74224 2.7807 2.81925 2.85789 2.89661 2.93541 2.97428 3.01321 3.05221 3.09127 3.13039 3.16955
0 0 0 0 0 0 0 0 0 0 0 0 0 0 0 0 0 0 0 0 0 0 0 0 0 0 0 0 0 0 0 0 0 0 0 0 0 0 0 0 0 5.21314e-288 2.45645e-255 6.23039e-228 1.01523e-204 6.94089e-185 8.41466e-168 5.55505e-153 4.83334e-140 1.12065e-128 1.21992e-118 9.87467e-110 8.6604e-102 1.12271e-94 2.78492e-88 1.64037e-82 2.75164e-77 1.53317e-72 3.23464e-68 2.89043e-64 1.20458e-60 2.54431e-57 2.92742e-54 1.95367e-51 7.98909e-49 2.10049e-46 3.70433e-44 4.5488e-42 4.0203e-40 2.63364e-38 1.31269e-36 5.09593e-35 1.57336e-33 3.93664e-32 8.11806e-31 1.40093e-29 2.05112e-28 2.57975e-27 2.81889e-26 2.70364e-25 2.29743e-24 1.74444e-23 1.1928e-22 7.39721e-22 4.18781e-21 2.17732e-20 1.04536e-19 4.65814e-19 1.93548e-18 7.53122e-18 2.7553e-17 9.5126e-17 3.10982e-16 9.65721e-16 2.85708e-15 8.0748e-15 2.18567e-14 5.67942e-14 1.41988e-13 3.42229e-13 7.96779e-13 1.79512e-12 3.92025e-12 8.31157e-12 1.71334e-11 3.43871e-11 6.72828e-11 1.285e-10 2.39821e-10 4.37854e-10 7.82838e-10 1.37193e-09 2.35887e-09 3.98251e-09 6.6076e-09 1.07819e-08 1.73151e-08 2.73861e-08 4.26866e-08 6.56107e-08 9.95022e-08 1.48972e-07 2.20302e-07 3.21949e-07 4.65178e-07 6.64825e-07 9.40237e-07 1.31639e-06 1.82524e-06 2.50726e-06 3.41332e-06 4.60679e-06 6.16598e-06 8.18689e-06 1.07864e-05 1.41057e-05 1.83143e-05 2.3614e-05 3.02442e-05 3.84863e-05 4.86697e-05 6.11774e-05 7.64527e-05 9.50055e-05 0.000117419 0.000144358 0.000176576 0.000214922 0.00026035 0.000313927 0.000376839 0.000450402 0.000536071 0.000635443 0.000750269 0.000882463 0.00103411 0.00120745 0.00140495 0.00162921 0.00188306 0.00216953 0.00249184 0.00285342 0.00325791 0.00370917 0.00421128 0.00476852 0.0053854 0.00606664 0.00681718 0.00764215 0.00854693 0.00953707 0.0106183 0.0117967 0.0130782 0.0144694 0.0159765 0.0176064 0.0193659 0.0212619 0.0233015 0.025492 0.0278407 0.0303551 0.0330428 0.0359113 0.0389684 0.0422219 0.0456795 0.0493491 0.0532386 0.0573557 0.0617085 0.0663046 0.0711519 0.0762582 0.0816311 0.0872783 0.0932074 0.0994258 0.105941 0.11276 0.11989 0.127338 0.13511 0.143215 0.151657 0.160443 0.16958 0.179074 0.18893 0.199154 0.209751 0.220726 0.232084 0.243831 0.25597 0.268506 0.281442 0.294783 0.308532 0.322693 0.337267 0.352259 0.367671 0.383505 0.399763 0.416446 0.433557 0.451097 0.469067 0.487467 0.506299 0.525562 0.545257 0.565384 0.585941 0.60693 0.628348 0.650195 0.67247 0.695171 0.718297 0.741845 0.765813 0.790201 0.815004 0.84022 0.865847 0.891881 0.91832 0.945159 0.972397 1.00003 1.02805 1.05646 1.08525 1.11442 1.14396 1.17387 1.20414 1.23478 1.26577 1.29711 1.3288 1.36083 1.39319 1.42588 1.4589 1.49223 1.52588 1.55984 1.5941 1.62866 1.66351 1.69865 1.73406 1.76975 1.80571 1.84193 1.87841 1.91513 1.95211 1.98932 2.02676 2.06443 2.10232 2.14043 2.17874 2.21726 2.25598 2.29488 2.33397 2.37324 2.41268 2.4523 2.49207 2.532 2.57207 2.6123 2.65266 2.69315 2.73377 2.77451 2.81537 2.85634 2.89741 2.93858 2.97985 3.0212 3.06264 3.10415 3.14574 3.1874 3.22911 3.27089 3.31272 3.35459 3.39651 3.43846 3.48045 3.52247 3.56451 3.60657
0 0 0 0 0 0 0 0 0 0 0 0 0 0 0 0 0 0 0 0 0 0 0 0 0 0 0 0 0 0 0 0 0 0 0 0 0 0 0 0 2.89977e-313 1.45826e-275 2.73626e-244 4.64612e-218 7.66259e-196 7.39737e-177 1.66098e-160 2.53885e-146 6.15648e-134 4.64642e-123 1.87687e-113 6.30126e-105 2.52108e-97 1.61818e-90 2.13327e-84 7.10238e-79 7.10646e-74 2.47606e-69 3.40548e-65 2.05819e-61 5.99415e-58 9.10918e-55 7.73966e-52 3.90441e-49 1.23251e-46 2.54933e-44 3.59802e-42 3.59123e-40 2.6165e-38 1.43125e-36 6.02711e-35 1.99809e-33 5.32025e-32 1.15841e-30 2.09616e-29 3.19849e-28 4.17003e-27 4.70088e-26 4.63189e-25 4.02845e-24 3.12032e-23 2.17011e-22 1.36526e-21 7.82277e-21 4.10795e-20 1.98837e-19 8.91793e-19 3.72415e-18 1.45454e-17 5.3352e-17 1.84483e-16 6.03488e-16 1.87373e-15 5.53844e-15 1.56289e-14 4.22146e-14 1.09408e-13 2.72687e-13 6.54983e-13 1.51915e-12 3.40857e-12 7.41131e-12 1.5641e-11 3.20878e-11 6.40813e-11 1.24743e-10 2.36992e-10 4.3994e-10 7.98865e-10 1.42044e-09 2.47551e-09 4.23253e-09 7.10565e-09 1.17228e-08 1.90205e-08 3.0373e-08 4.77675e-08 7.40353e-08 1.13155e-07 1.70647e-07 2.54066e-07 3.73638e-07 5.43036e-07 7.80344e-07 1.10922e-06 1.56032e-06 2.17295e-06 2.99704e-06 4.09548e-06 5.54674e-06 7.44799e-06 9.91851e-06 1.31037e-05 1.71793e-05 2.23565e-05 2.88871e-05 3.70694e-05 4.72546e-05 5.98537e-05 7.53445e-05 9.42799e-05 0.000117295 0.000145118 0.000178576 0.000218607 0.000266266 0.000322739 0.000389349 0.000467568 0.000559026 0.000665519 0.000789023 0.000931697 0.0010959 0.00128418 0.00149932 0.0017443 0.00202234 0.00233688 0.0026916 0.00309044 0.00353755 0.00403736 0.00459452 0.00521396 0.00590084 0.00666057 0.00749882 0.0084215 0.00943474 0.0105449 0.0117587 0.0130828 0.0145244 0.0160906 0.017789 0.0196272 0.0216129 0.0237542 0.0260591 0.0285359 0.0311931 0.034039 0.0370824 0.0403318 0.043796 0.0474838 0.0514041 0.0555657 0.0599774 0.0646481 0.0695867 0.0748018 0.0803024 0.086097 0.0921943 0.0986026 0.105331 0.112386 0.119778 0.127513 0.1356 0.144047 0.15286 0.162048 0.171616 0.181573 0.191924 0.202676 0.213835 0.225408 0.237399 0.249814 0.262659 0.275938 0.289655 0.303816 0.318424 0.333483 0.348997 0.364968 0.3814 0.398295 0.415655 0.433483 0.45178 0.470549 0.489789 0.509502 0.529689 0.55035 0.571485 0.593094 0.615176 0.637731 0.660758 0.684255 0.708222 0.732656 0.757555 0.782918 0.808741 0.835023 0.86176 0.88895 0.916588 0.944673 0.973199 1.00216 1.03156 1.06139 1.09164 1.12232 1.15341 1.18491 1.21682 1.24913 1.28184 1.31493 1.34842 1.38228 1.41651 1.45112 1.48608 1.52141 1.55708 1.5931 1.62945 1.66613 1.70315 1.74047 1.77812 1.81606 1.85431 1.89285 1.93167 1.97077 2.01015 2.04979 2.08969 2.12984 2.17024 2.21087 2.25174 2.29284 2.33415 2.37567 2.4174 2.45933 2.50145 2.54375 2.58624 2.62889 2.67171 2.71469 2.75782 2.8011 2.84452 2.88807 2.93174 2.97554 3.01945 3.06347 3.10759 3.15181 3.19612 3.24051 3.28498 3.32952 3.37413 3.4188 3.46352 3.5083 3.55311 3.59797 3.64286 3.68778 3.73272 3.77768 3.82265 3.86763 3.91261 3.95758 4.00255 4.04751 4.09245
0 0 0 0 0 0 0 0 0 0 0 0 0 0 0 0 0 0 0 0 0 0 0 0 0 0 0 0 0 0 0 0 0 0 0 0 0 0 0 0 1.93152e-299 2.17278e-263 1.74268e-233 2.10226e-208 3.69037e-187 5.25179e-169 2.26651e-153 8.28348e-140 5.75759e-128 1.44978e-117 2.22094e-108 3.15304e-100 5.85494e-93 1.88966e-86 1.3425e-80 2.55825e-75 1.54427e-70 3.39956e-66 3.07684e-62 1.26858e-58 2.60224e-55 2.86589e-52 1.81018e-49 6.94537e-47 1.70211e-44 2.78436e-42 3.16038e-40 2.57566e-38 1.55356e-36 7.12426e-35 2.54408e-33 7.22751e-32 1.66506e-30 3.1646e-29 5.03922e-28 6.81733e-27 7.93481e-26 8.03667e-25 7.15681e-24 5.65643e-23 4.0018e-22 2.55413e-21 1.48114e-20 7.8549e-20 3.83239e-19 1.72966e-18 7.25773e-18 2.84446e-17 1.04571e-16 3.62034e-16 1.18466e-15 3.67623e-15 1.08527e-14 3.0567e-14 8.23595e-14 2.12817e-13 5.28613e-13 1.26488e-12 2.92157e-12 6.52615e-12 1.41232e-11 2.96594e-11 6.05356e-11 1.20255e-10 2.32825e-10 4.39883e-10 8.11979e-10 1.46601e-09 2.59164e-09 4.49038e-09 7.63253e-09 1.27384e-08 2.0892e-08 3.36979e-08 5.34943e-08 8.36365e-08 1.28871e-07 1.95819e-07 2.93599e-07 4.34607e-07 6.35495e-07 9.18376e-07 1.31229e-06 1.85496e-06 2.59493e-06 3.59401e-06 4.93022e-06 6.70111e-06 9.02767e-06 1.20586e-05 1.59755e-05 2.09978e-05 2.73898e-05 3.54663e-05 4.56009e-05 5.8233e-05 7.38771e-05 9.31314e-05 0.000116687 0.00014534 0.000179998 0.000221696 0.000271603 0.000331037 0.000401472 0.000484558 0.000582121 0.000696185 0.000828978 0.000982941 0.00116075 0.0013653 0.00159975 0.0018675 0.00217222 0.00251786 0.00290862 0.00334899 0.00384376 0.00439798 0.00501703 0.00570654 0.00647244 0.00732097 0.00825863 0.00929221 0.0104288 0.0116757 0.0130405 0.014531 0.0161555 0.0179221 0.0198394 0.0219162 0.0241614 0.0265842 0.0291938 0.0319997 0.0350115 0.0382387 0.0416913 0.0453791 0.049312 0.0535 0.0579531 0.0626813 0.0676946 0.073003 0.0786164 0.0845447 0.0907977 0.097385 0.104316 0.111601 0.119248 0.127268 0.135668 0.144457 0.153645 0.163239 0.173248 0.18368 0.194541 0.20584 0.217584 0.229779 0.242432 0.25555 0.269137 0.283201 0.297745 0.312776 0.328297 0.344314 0.360829 0.377847 0.395372 0.413406 0.431951 0.451011 0.470587 0.490681 0.511294 0.532427 0.554082 0.576258 0.598955 0.622174 0.645914 0.670173 0.694951 0.720246 0.746057 0.772382 0.799217 0.826562 0.854412 0.882765 0.911617 0.940966 0.970806 1.00113 1.03195 1.06324 1.09501 1.12724 1.15994 1.1931 1.22672 1.26078 1.29528 1.33023 1.3656 1.4014 1.43761 1.47424 1.51127 1.5487 1.58653 1.62473 1.66332 1.70227 1.74159 1.78127 1.82129 1.86166 1.90236 1.94339 1.98474 2.02639 2.06836 2.11062 2.15317 2.196 2.2391 2.28247 2.3261 2.36998 2.41411 2.45847 2.50305 2.54786 2.59288 2.63811 2.68353 2.72915 2.77495 2.82092 2.86706 2.91337 2.95982 3.00643 3.05317 3.10004 3.14704 3.19416 3.24139 3.28873 3.33616 3.38368 3.43129 3.47897 3.52673 3.57455 3.62243 3.67036 3.71834 3.76635 3.8144 3.86248 3.91058 3.9587 4.00682 4.05495 4.10308 4.15121 4.19932 4.24741 4.29548 4.34352 4.39153 4.43951 4.48744 4.53532 4.58315 4.63092
0 0 0 0 0 0 0 0 0 0 0 0 0 0 0 0 0 0 0 0 0 0 0 0 0 0 0 0 0 0 0 0 0 0 0 0 0 0 0 0 6.29202e-286 1.72442e-251 6.34588e-223 5.7717e-199 1.13409e-178 2.48373e-161 2.13802e-146 1.92937e-133 3.9534e-122 3.40424e-112 2.02133e-103 1.23717e-95 1.0848e-88 1.78788e-82 6.94083e-77 7.66587e-72 2.82362e-67 3.96803e-63 2.38565e-59 6.76789e-56 9.85583e-53 7.92335e-50 3.7453e-47 1.09969e-44 2.10422e-42 2.73666e-40 2.51037e-38 1.67816e-36 8.41545e-35 3.24809e-33 9.87244e-32 2.4118e-30 4.82305e-29 8.02592e-28 1.1279e-26 1.35652e-25 1.41314e-24 1.28904e-23 1.03983e-22 7.4845e-22 4.84632e-21 2.84409e-20 1.52303e-19 7.48875e-19 3.40032e-18 1.43322e-17 5.63477e-17 2.07554e-16 7.19195e-16 2.3532e-15 7.29591e-15 2.15032e-14 6.04263e-14 1.62348e-13 4.181e-13 1.03457e-12 2.46522e-12 5.66839e-12 1.26012e-11 2.71324e-11 5.66791e-11 1.15053e-10 2.27273e-10 4.37496e-10 8.21742e-10 1.50785e-09 2.70606e-09 4.75484e-09 8.18823e-09 1.38328e-08 2.29448e-08 3.74003e-08 5.99555e-08 9.45952e-08 1.46995e-07 2.25122e-07 3.40009e-07 5.06732e-07 7.45638e-07 1.08386e-06 1.55715e-06 2.21214e-06 3.10897e-06 4.32446e-06 5.95575e-06 8.12458e-06 1.09821e-05 1.47146e-05 1.95494e-05 2.57619e-05 3.36837e-05 4.37102e-05 5.63104e-05 7.20366e-05 9.15348e-05 0.000115556 0.000144969 0.00018077 0.0002241 0.000276253 0.000338694 0.000413069 0.000501222 0.000605207 0.000727303 0.000870026 0.00103614 0.00122868 0.00145095 0.00170654 0.00199933 0.00233353 0.00271364 0.00314448 0.00363123 0.00417936 0.0047947 0.00548342 0.006252 0.0071073 0.00805647 0.00910701 0.0102668 0.0115438 0.0129467 0.0144841 0.0161651 0.017999 0.0199953 0.022164 0.024515 0.0270585 0.0298052 0.0327656 0.0359505 0.0393709 0.0430378 0.0469623 0.0511558 0.0556296 0.0603948 0.065463 0.0708453 0.0765532 0.0825978 0.0889903 0.0957418 0.102863 0.110365 0.118259 0.126555 0.135263 0.144393 0.153956 0.16396 0.174416 0.185332 0.196717 0.20858 0.220929 0.233771 0.247115 0.260968 0.275336 0.290226 0.305644 0.321596 0.338087 0.355123 0.372707 0.390845 0.40954 0.428796 0.448616 0.469001 0.489956 0.511481 0.533579 0.55625 0.579495 0.603315 0.62771 0.652679 0.678221 0.704337 0.731024 0.75828 0.786104 0.814494 0.843446 0.872957 0.903025 0.933645 0.964815 0.996528 1.02878 1.06157 1.09489 1.12874 1.1631 1.19798 1.23337 1.26926 1.30564 1.34252 1.37988 1.41771 1.45601 1.49478 1.534 1.57366 1.61377 1.65431 1.69527 1.73664 1.77843 1.82062 1.86319 1.90615 1.94949 1.99319 2.03725 2.08166 2.12641 2.17149 2.2169 2.26262 2.30865 2.35498 2.4016 2.4485 2.49566 2.5431 2.59079 2.63872 2.68689 2.73529 2.78391 2.83274 2.88178 2.93101 2.98043 3.03002 3.07979 3.12972 3.1798 3.23003 3.2804 3.33089 3.38151 3.43224 3.48308 3.53402 3.58505 3.63616 3.68735 3.73861 3.78993 3.8413 3.89273 3.94419 3.99569 4.04721 4.09876 4.15032 4.20189 4.25345 4.30502 4.35657 4.40811 4.45962 4.5111 4.56255 4.61395 4.66531 4.71662 4.76787 4.81906 4.87018 4.92123 4.9722 5.02308 5.07388 5.12459 5.1752 5.2257
0 0 0 0 0 0 0 0 0 0 0 0 0 0 0 0 0 0 0 0 0 0 0 0 0 0 0 0 0 0 0 0 0 0 0 0 0 0 0 7.64942e-313 1.0024e-272 7.28978e-240 1.32123e-212 9.6148e-190 2.22386e-170 7.82476e-154 1.39422e-139 3.20809e-127 1.99307e-116 6.01553e-107 1.41493e-98 3.80651e-91 1.60348e-84 1.37054e-78 2.9481e-73 1.91098e-68 4.34406e-64 3.93747e-60 1.58739e-56 3.12535e-53 3.25662e-50 1.92499e-47 6.85513e-45 1.54981e-42 2.32863e-40 2.42054e-38 1.80326e-36 9.93299e-35 4.15883e-33 1.35638e-31 3.52203e-30 7.42463e-29 1.29303e-27 1.88969e-26 2.35041e-25 2.51988e-24 2.35549e-23 1.93978e-22 1.42065e-21 9.33251e-21 5.54203e-20 2.99628e-19 1.48441e-18 6.77901e-18 2.8693e-17 1.13124e-16 4.1734e-16 1.44683e-15 4.73184e-15 1.46515e-14 4.30941e-14 1.20773e-13 3.23423e-13 8.29792e-13 2.04468e-12 4.84987e-12 1.10969e-11 2.45412e-11 5.25546e-11 1.09167e-10 2.20312e-10 4.32609e-10 8.27707e-10 1.54508e-09 2.81742e-09 5.02437e-09 8.77228e-09 1.50102e-08 2.51953e-08 4.15245e-08 6.72528e-08 1.07123e-07 1.6794e-07 2.59316e-07 3.94643e-07 5.92317e-07 8.77283e-07 1.28295e-06 1.85352e-06 2.64682e-06 3.73767e-06 5.2219e-06 7.22095e-06 9.88733e-06 1.34108e-05 1.80252e-05 2.40166e-05 3.1732e-05 4.15887e-05 5.40855e-05 6.98134e-05 8.94688e-05 0.000113866 0.000143951 0.000180819 0.000225723 0.000280098 0.00034557 0.000423979 0.000517388 0.000628108 0.000758706 0.000912028 0.00109121 0.0012997 0.00154126 0.00181999 0.00214034 0.0025071 0.00292547 0.00340098 0.00393956 0.00454754 0.00523162 0.00599891 0.00685692 0.00781352 0.008877 0.010056 0.0113596 0.0127972 0.0143785 0.0161136 0.018013 0.0200874 0.0223478 0.0248056 0.0274723 0.0303597 0.0334799 0.0368451 0.0404676 0.0443601 0.0485351 0.0530053 0.0577837 0.062883 0.0683161 0.0740959 0.0802352 0.0867468 0.0936433 0.100937 0.108641 0.116768 0.125328 0.134335 0.143799 0.153733 0.164147 0.175052 0.186459 0.198378 0.210819 0.223792 0.237305 0.251367 0.265987 0.281173 0.296932 0.313272 0.330199 0.347719 0.365839 0.384564 0.403898 0.423847 0.444413 0.465602 0.487416 0.509857 0.532929 0.556632 0.580969 0.605939 0.631544 0.657784 0.684657 0.712165 0.740304 0.769074 0.798472 0.828497 0.859145 0.890413 0.922298 0.954795 0.987901 1.02161 1.05592 1.09082 1.12632 1.16239 1.19904 1.23626 1.27405 1.31239 1.35128 1.39072 1.43069 1.47119 1.5122 1.55373 1.59576 1.63829 1.6813 1.72479 1.76874 1.81316 1.85803 1.90333 1.94907 1.99523 2.04181 2.08878 2.13615 2.18391 2.23204 2.28053 2.32938 2.37857 2.42809 2.47795 2.52811 2.57859 2.62935 2.68041 2.73173 2.78333 2.83518 2.88728 2.93961 2.99217 3.04495 3.09794 3.15112 3.2045 3.25805 3.31178 3.36567 3.41971 3.47389 3.52821 3.58265 3.63721 3.69188 3.74664 3.8015 3.85644 3.91146 3.96654 4.02168 4.07687 4.1321 4.18736 4.24266 4.29797 4.35329 4.40862 4.46395 4.51926 4.57456 4.62984 4.68508 4.74029 4.79545 4.85057 4.90563 4.96062 5.01555 5.0704 5.12517 5.17986 5.23445 5.28895 5.34334 5.39763 5.4518 5.50585 5.55979 5.61359 5.66726 5.72079 5.77418 5.82743 5.88052
0 0 0 0 0 0 0 0 0 0 0 0 0 0 0 0 0 0 0 0 0 0 0 0 0 0 0 0 0 0 0 0 0 0 0 0 0 0 0 4.50747e-298 7.80999e-260 1.64147e-228 1.57281e-202 9.71846e-181 2.78261e-162 1.64212e-146 6.28509e-133 3.80808e-121 7.3773e-111 7.9995e-102 7.61782e-94 9.18381e-87 1.89089e-80 8.51224e-75 1.02874e-69 3.96306e-65 5.62336e-61 3.32162e-57 9.06429e-54 1.24925e-50 9.38791e-48 4.10978e-45 1.10996e-42 1.94412e-40 2.30682e-38 1.92663e-36 1.17138e-34 5.34104e-33 1.87503e-31 5.18798e-30 1.15514e-28 2.10857e-27 3.20838e-26 4.13055e-25 4.56022e-24 4.36995e-23 3.67474e-22 2.73863e-21 1.82513e-20 1.0966e-19 5.98446e-19 2.98647e-18 1.37131e-17 5.82654e-17 2.3027e-16 8.50516e-16 2.94878e-15 9.6353e-15 2.97825e-14 8.73812e-14 2.44122e-13 6.51329e-13 1.66408e-12 4.08151e-12 9.63279e-12 2.19236e-11 4.8214e-11 1.02649e-10 2.11943e-10 4.25081e-10 8.2943e-10 1.57675e-09 2.92414e-09 5.29704e-09 9.38374e-09 1.62744e-08 2.76611e-08 4.61201e-08 7.55031e-08 1.21469e-07 1.92197e-07 2.99322e-07 4.59148e-07 6.94202e-07 1.03518e-06 1.52337e-06 2.21362e-06 3.17796e-06 4.50983e-06 6.32925e-06 8.7887e-06 1.208e-05 1.64422e-05 2.21705e-05 2.96262e-05 3.92477e-05 5.15633e-05 6.72036e-05 8.6917e-05 0.000111585 0.000142236 0.00018007 0.000226466 0.000283011 0.000351514 0.000434026 0.000532861 0.000650616 0.00079019 0.000954804 0.00114802 0.00137376 0.00163632 0.00194039 0.00229107 0.00269386 0.00315473 0.00368004 0.00427666 0.00495185 0.00571339 0.00656948 0.00752878 0.00860044 0.00979404 0.0111196 0.0125876 0.0142088 0.0159947 0.0179568 0.0201073 0.0224586 0.0250233 0.0278146 0.0308459 0.0341307 0.0376828 0.0415164 0.0456456 0.0500848 0.0548485 0.0599513 0.0654077 0.0712325 0.0774403 0.0840456 0.091063 0.0985069 0.106392 0.114731 0.12354 0.132831 0.142618 0.152915 0.163734 0.175087 0.186988 0.199448 0.212478 0.226089 0.240293 0.2551 0.270518 0.286559 0.30323 0.320539 0.338496 0.357106 0.376378 0.396316 0.416928 0.438218 0.460191 0.482852 0.506203 0.530249 0.554991 0.580432 0.606573 0.633416 0.660961 0.689208 0.718157 0.747806 0.778155 0.809201 0.840941 0.873374 0.906496 0.940303 0.97479 1.00995 1.04579 1.08229 1.11946 1.15727 1.19574 1.23484 1.27458 1.31495 1.35594 1.39754 1.43974 1.48253 1.52591 1.56987 1.6144 1.65948 1.70512 1.75129 1.79799 1.84521 1.89293 1.94116 1.98987 2.03906 2.08872 2.13883 2.18939 2.24038 2.29179 2.34361 2.39583 2.44845 2.50144 2.55479 2.6085 2.66256 2.71695 2.77166 2.82668 2.882 2.93761 2.99349 3.04964 3.10604 3.16269 3.21957 3.27668 3.33399 3.39151 3.44922 3.5071 3.56516 3.62337 3.68174 3.74024 3.79887 3.85762 3.91648 3.97543 4.03448 4.09361 4.15281 4.21207 4.27138 4.33074 4.39013 4.44955 4.50898 4.56843 4.62787 4.68731 4.74674 4.80614 4.86551 4.92484 4.98412 5.04335 5.10252 5.16163 5.22065 5.2796 5.33846 5.39722 5.45588 5.51444 5.57287 5.63119 5.68939 5.74745 5.80538 5.86316 5.92079 5.97827 6.03559 6.09275 6.14974 6.20656 6.26319 6.31965 6.37592 6.43199 6.48787 6.54355 6.59903
0 0 0 0 0 0 0 0 0 0 0 0 0 0 0 0 0 0 0 0 0 0 0 0 0 0 0 0 0 0 0 0 0 0 0 0 0 0 0 1.17038e-283 2.9759e-247 1.96877e-217 1.0705e-192 5.96039e-172 2.22167e-154 2.29565e-139 1.95864e-126 3.22695e-115 2.00491e-105 8.00548e-97 3.15445e-89 1.73747e-82 1.77893e-76 4.28346e-71 2.94918e-66 6.83725e-62 6.125e-58 2.38218e-54 4.4418e-51 4.32224e-48 2.36101e-45 7.71044e-43 1.58988e-40 2.17072e-38 2.04567e-36 1.38001e-34 6.88118e-33 2.60899e-31 7.71241e-30 1.81753e-28 3.48297e-27 5.52437e-26 7.36813e-25 8.38194e-24 8.23751e-23 7.07482e-22 5.36565e-21 3.62751e-20 2.20487e-19 1.21428e-18 6.10212e-18 2.81625e-17 1.20073e-16 4.75492e-16 1.75754e-15 6.09116e-15 1.98762e-14 6.13013e-14 1.79326e-13 4.9919e-13 1.32632e-12 3.37285e-12 8.23068e-12 1.93197e-11 4.37178e-11 9.55662e-11 2.02196e-10 4.14802e-10 8.26481e-10 1.60186e-09 3.02446e-09 5.57048e-09 1.0021e-08 1.76288e-08 3.03605e-08 5.12423e-08 8.48413e-08 1.37926e-07 2.20356e-07 3.46255e-07 5.35545e-07 8.15907e-07 1.22526e-06 1.81483e-06 2.65298e-06 3.82975e-06 5.46238e-06 7.70183e-06 1.07404e-05 1.48203e-05 2.02442e-05 2.7386e-05 3.67042e-05 4.87553e-05 6.42101e-05 8.38701e-05 0.000108686 0.000139777 0.000178452 0.000226229 0.000284862 0.000356361 0.000443014 0.000547416 0.000672491 0.000821512 0.000998132 0.0012064 0.00145079 0.0017362 0.00206802 0.00245209 0.00289476 0.00340288 0.00398383 0.0046455 0.00539632 0.00624529 0.0072019 0.00827623 0.00947884 0.0108209 0.012314 0.0139702 0.0158023 0.0178233 0.0200468 0.0224868 0.0251576 0.028074 0.0312512 0.0347044 0.0384496 0.0425026 0.0468796 0.0515969 0.0566711 0.0621188 0.0679567 0.0742015 0.0808698 0.0879783 0.0955437 0.103582 0.112111 0.121145 0.1307 0.140793 0.151438 0.162651 0.174446 0.186838 0.19984 0.213465 0.227728 0.24264 0.258213 0.274459 0.291389 0.309013 0.327341 0.346382 0.366145 0.386638 0.407869 0.429843 0.452568 0.476049 0.50029 0.525297 0.551073 0.577621 0.604944 0.633043 0.66192 0.691575 0.722008 0.753219 0.785207 0.817969 0.851505 0.88581 0.920883 0.956718 0.993311 1.03066 1.06875 1.10759 1.14717 1.18747 1.2285 1.27024 1.31269 1.35583 1.39967 1.44419 1.48938 1.53524 1.58174 1.62889 1.67667 1.72508 1.77409 1.8237 1.8739 1.92468 1.97602 2.02791 2.08034 2.13331 2.18678 2.24077 2.29524 2.35019 2.40561 2.46149 2.5178 2.57454 2.63169 2.68925 2.7472 2.80552 2.86421 2.92325 2.98263 3.04233 3.10234 3.16265 3.22325 3.28413 3.34527 3.40666 3.46828 3.53013 3.59219 3.65446 3.71691 3.77954 3.84234 3.90529 3.96838 4.03161 4.09495 4.1584 4.22196 4.28559 4.34931 4.41309 4.47693 4.54081 4.60473 4.66868 4.73264 4.7966 4.86057 4.92452 4.98845 5.05235 5.11621 5.18002 5.24377 5.30746 5.37108 5.43461 5.49806 5.56141 5.62465 5.68779 5.7508 5.81369 5.87645 5.93906 6.00153 6.06385 6.126 6.18799 6.24981 6.31146 6.37292 6.43419 6.49526 6.55614 6.61681 6.67727 6.73752 6.79755 6.85735 6.91692 6.97627 7.03537 7.09423 7.15285 7.21122 7.26934 7.32719 7.38479
0 0 0 0 0 0 0 0 0 0 0 0 0 0 0 0 0 0 0 0 0 0 0 0 0 0 0 0 0 0 0 0 0 0 0 0 0 0 1.79648e-312 1.33909e-269 5.54556e-235 1.25777e-206 4.16588e-183 2.21806e-163 1.13185e-146 2.13784e-132 4.21952e-120 1.95211e-109 4.00049e-100 6.02902e-92 1.00465e-84 2.57755e-78 1.33519e-72 1.7464e-67 6.94589e-63 9.81319e-59 5.61339e-55 1.45241e-51 1.86792e-48 1.29442e-45 5.18031e-43 1.27119e-40 2.01459e-38 2.15734e-36 1.62391e-34 8.89525e-33 3.65552e-31 1.15776e-29 2.89411e-28 5.83213e-27 9.65472e-26 1.33523e-24 1.56611e-23 1.57907e-22 1.38539e-21 1.06929e-20 7.33276e-20 4.50793e-19 2.50468e-18 1.26707e-17 5.87539e-17 2.5126e-16 9.96533e-16 3.68438e-15 1.27579e-14 4.15533e-14 1.27809e-13 3.72591e-13 1.03293e-12 2.73165e-12 6.91096e-12 1.6771e-11 3.9134e-11 8.80056e-11 1.91137e-10 4.01708e-10 8.18464e-10 1.61939e-09 3.11641e-09 5.84187e-09 1.06818e-08 1.90761e-08 3.33133e-08 5.69532e-08 9.54229e-08 1.56839e-07 2.5312e-07 4.01472e-07 6.26322e-07 9.61816e-07 1.45498e-06 2.16965e-06 3.19136e-06 4.63321e-06 6.64295e-06 9.4113e-06 1.31818e-05 1.8262e-05 2.50364e-05 3.39812e-05 4.56803e-05 6.08435e-05 8.03265e-05 0.000105152 0.000136533 0.000175896 0.000224911 0.000285513 0.000359933 0.000450727 0.000560804 0.000693456 0.000852385 0.00104173 0.00126611 0.00153063 0.00184091 0.00220311 0.00262397 0.00311081 0.00367154 0.00431468 0.0050494 0.00588546 0.0068333 0.00790397 0.00910915 0.0104612 0.011973 0.0136581 0.0155306 0.0176053 0.0198973 0.0224225 0.0251971 0.0282378 0.0315617 0.0351864 0.0391297 0.0434098 0.0480451 0.0530544 0.0584564 0.0642703 0.0705149 0.0772095 0.0843732 0.0920251 0.100184 0.108869 0.118098 0.127891 0.138265 0.149238 0.160827 0.17305 0.185924 0.199464 0.213686 0.228606 0.244239 0.260598 0.277696 0.295548 0.314164 0.333558 0.353739 0.374717 0.396503 0.419105 0.442532 0.46679 0.491886 0.517826 0.544615 0.572258 0.600758 0.630119 0.660341 0.691428 0.72338 0.756196 0.789877 0.82442 0.859824 0.896087 0.933205 0.971173 1.00999 1.04965 1.09014 1.13146 1.17361 1.21657 1.26034 1.30491 1.35026 1.39641 1.44332 1.49099 1.53942 1.58858 1.63848 1.68909 1.74041 1.79242 1.84511 1.89847 1.95249 2.00715 2.06244 2.11834 2.17484 2.23193 2.2896 2.34782 2.40659 2.46589 2.52571 2.58603 2.64683 2.70811 2.76984 2.83202 2.89462 2.95764 3.02105 3.08485 3.14902 3.21354 3.2784 3.34359 3.40909 3.47489 3.54096 3.60731 3.67391 3.74075 3.80781 3.87509 3.94257 4.01023 4.07806 4.14606 4.2142 4.28247 4.35087 4.41937 4.48797 4.55665 4.6254 4.69421 4.76307 4.83197 4.90089 4.96982 5.03876 5.10769 5.1766 5.24549 5.31433 5.38312 5.45186 5.52053 5.58911 5.65761 5.72602 5.79432 5.8625 5.93056 5.99849 6.06628 6.13393 6.20142 6.26874 6.3359 6.40287 6.46967 6.53627 6.60267 6.66887 6.73485 6.80062 6.86617 6.93148 6.99656 7.0614 7.12599 7.19033 7.25441 7.31824 7.38179 7.44507 7.50808 7.57081 7.63325 7.6954 7.75726 7.81883 7.88009 7.94106 8.00171 8.06205 8.12208 8.1818 8.24119
0 0 0 0 0 0 0 0 0 0 0 0 0 0 0 0 0 0 0 0 0 0 0 0 0 0 0 0 0 0 0 0 0 0 0 0 0 0 1.3039e-296 6.75124e-256 5.05396e-223 4.28011e-196 9.26918e-174 5.0083e-155 3.67945e-139 1.32621e-125 6.28396e-114 8.43036e-104 5.86078e-95 3.41697e-87 2.46095e-80 2.99844e-74 7.99489e-69 5.76891e-64 1.34396e-59 1.1717e-55 4.32867e-52 7.52827e-49 6.74115e-46 3.35543e-43 9.91609e-41 1.84166e-38 2.25824e-36 1.90839e-34 1.15396e-32 5.15978e-31 1.75613e-29 4.66729e-28 9.90794e-27 1.71411e-25 2.46038e-24 2.97723e-23 3.08092e-22 2.76171e-21 2.16929e-20 1.50876e-19 9.37913e-19 5.25582e-18 2.6755e-17 1.24594e-16 5.34186e-16 2.12087e-15 7.83917e-15 2.71065e-14 8.80761e-14 2.70022e-13 7.84026e-13 2.16348e-12 5.69179e-12 1.43185e-11 3.45367e-11 8.00733e-11 1.78867e-10 3.85788e-10 8.05029e-10 1.62828e-09 3.19782e-09 6.10783e-09 1.13628e-08 2.06183e-08 3.65397e-08 6.33218e-08 1.07428e-07 1.78616e-07 2.91343e-07 4.66636e-07 7.34563e-07 1.13741e-06 1.73375e-06 2.60349e-06 3.85413e-06 5.6284e-06 8.11334e-06 1.15511e-05 1.62516e-05 2.2607e-05 3.11086e-05 4.23651e-05 5.71242e-05 7.6295e-05 0.000100974 0.000132472 0.000172342 0.000222414 0.000284823 0.000362045 0.000456932 0.000572746 0.000713196 0.000882471 0.00108528 0.00132687 0.00161309 0.00195039 0.00234587 0.00280727 0.00334307 0.00396242 0.0046752 0.00549206 0.00642437 0.00748425 0.00868458 0.010039 0.0115619 0.0132683 0.0151741 0.0172956 0.0196502 0.0222555 0.02513 0.0282925 0.0317626 0.0355601 0.0397055 0.0442194 0.0491229 0.0544375 0.0601847 0.0663862 0.073064 0.08024 0.087936 0.0961741 0.104976 0.114363 0.124357 0.13498 0.14625 0.158191 0.17082 0.184158 0.198225 0.213038 0.228615 0.244974 0.262131 0.280103 0.298904 0.31855 0.339053 0.360428 0.382685 0.405836 0.429893 0.454863 0.480757 0.507582 0.535345 0.564052 0.593709 0.624319 0.655887 0.688415 0.721905 0.756358 0.791774 0.828153 0.865492 0.90379 0.943044 0.983249 1.0244 1.0665 1.10953 1.15349 1.19837 1.24417 1.29087 1.33846 1.38695 1.43631 1.48653 1.53761 1.58954 1.64229 1.69586 1.75023 1.8054 1.86134 1.91804 1.97549 2.03368 2.09258 2.15218 2.21248 2.27344 2.33506 2.39732 2.4602 2.52369 2.58776 2.65241 2.71762 2.78336 2.84963 2.9164 2.98367 3.0514 3.11959 3.18821 3.25726 3.32671 3.39655 3.46675 3.53732 3.60821 3.67943 3.75096 3.82277 3.89485 3.96719 4.03978 4.11258 4.1856 4.2588 4.33219 4.40574 4.47944 4.55328 4.62723 4.70129 4.77544 4.84967 4.92396 4.9983 5.07268 5.14709 5.22151 5.29592 5.37033 5.4447 5.51904 5.59333 5.66756 5.74172 5.8158 5.88978 5.96366 6.03742 6.11106 6.18457 6.25793 6.33113 6.40418 6.47705 6.54974 6.62224 6.69454 6.76664 6.83852 6.91018 6.98161 7.0528 7.12375 7.19445 7.26489 7.33507 7.40497 7.4746 7.54395 7.613 7.68176 7.75022 7.81838 7.88622 7.95375 8.02096 8.08784 8.1544 8.22062 8.2865 8.35204 8.41723 8.48208 8.54657 8.61071 8.67448 8.7379 8.80094 8.86362 8.92593 8.98786 9.04942 9.1106 9.1714
0 0 0 0 0 0 0 0 0 0 0 0 0 0 0 0 0 0 0 0 0 0 0 0 0 0 0 0 0 0 0 0 0 0 0 0 0 0 3.66521e-281 1.49984e-242 2.25256e-211 7.75808e-186 1.1792e-164 6.86165e-147 7.63239e-132 5.48046e-119 6.46944e-108 2.59905e-98 6.30404e-90 1.45737e-82 4.6365e-76 2.73515e-70 3.8192e-65 1.54398e-60 2.13639e-56 1.16386e-52 2.80862e-49 3.31735e-46 2.08778e-43 7.52885e-41 1.65597e-38 2.34466e-36 2.23934e-34 1.50263e-32 7.34057e-31 2.69339e-29 7.62931e-28 1.70927e-26 3.09454e-25 4.6144e-24 5.7642e-23 6.12418e-22 5.6096e-21 4.4841e-20 3.1625e-19 1.9874e-18 1.12281e-17 5.74908e-17 2.68744e-16 1.15455e-15 4.58615e-15 1.69372e-14 5.84496e-14 1.89352e-13 5.78286e-13 1.67141e-12 4.58814e-12 1.20014e-11 3.00037e-11 7.18925e-11 1.65529e-10 3.67097e-10 7.85896e-10 1.62748e-09 3.26632e-09 6.36443e-09 1.20596e-08 2.2256e-08 4.00608e-08 7.04252e-08 1.21064e-07 2.03743e-07 3.36052e-07 5.43787e-07 8.64102e-07 1.3496e-06 2.07354e-06 3.13641e-06 4.67401e-06 6.8673e-06 9.95425e-06 1.42439e-05 2.01325e-05 2.81229e-05 3.88454e-05 5.30826e-05 7.17961e-05 9.61562e-05 0.000127574 0.000167738 0.000218646 0.000282653 0.000362504 0.000461378 0.000582933 0.000731351 0.000911375 0.00112836 0.0013883 0.00169788 0.00206454 0.00249643 0.00300253 0.00359263 0.00427737 0.00506824 0.00597763 0.0070188 0.0082059 0.009554 0.011079 0.0127978 0.0147279 0.016888 0.0192972 0.0219756 0.0249441 0.0282242 0.0318379 0.0358079 0.0401576 0.0449107 0.0500912 0.0557237 0.0618329 0.068444 0.075582 0.0832721 0.0915397 0.10041 0.109908 0.120059 0.130887 0.142416 0.154672 0.167676 0.181452 0.196024 0.211411 0.227637 0.24472 0.262682 0.28154 0.301314 0.322019 0.343674 0.366292 0.389889 0.414478 0.440072 0.466682 0.494319 0.522992 0.552709 0.583479 0.615307 0.648198 0.682158 0.717189 0.753294 0.790473 0.828728 0.868057 0.908458 0.94993 0.992469 1.03607 1.08073 1.12643 1.17319 1.22097 1.26979 1.31962 1.37046 1.4223 1.47512 1.52892 1.58367 1.63937 1.69601 1.75357 1.81203 1.87138 1.9316 1.99268 2.05459 2.11733 2.18088 2.24522 2.31032 2.37618 2.44277 2.51007 2.57807 2.64675 2.71608 2.78606 2.85665 2.92784 2.99961 3.07195 3.14482 3.21821 3.29211 3.36649 3.44133 3.51662 3.59233 3.66844 3.74494 3.82181 3.89902 3.97657 4.05442 4.13257 4.21099 4.28966 4.36857 4.4477 4.52704 4.60656 4.68624 4.76608 4.84605 4.92614 5.00633 5.0866 5.16695 5.24735 5.32779 5.40825 5.48872 5.56919 5.64963 5.73005 5.81042 5.89072 5.97096 6.0511 6.13115 6.21109 6.2909 6.37058 6.45011 6.52948 6.60868 6.68771 6.76654 6.84517 6.92359 7.00179 7.07976 7.15749 7.23498 7.3122 7.38916 7.46585 7.54225 7.61836 7.69418 7.76969 7.84489 7.91977 7.99432 8.06855 8.14243 8.21597 8.28916 8.36199 8.43446 8.50657 8.5783 8.64966 8.72063 8.79122 8.86142 8.93122 9.00063 9.06963 9.13823 9.20642 9.2742 9.34156 9.4085 9.47503 9.54112 9.60679 9.67204 9.73685 9.80122 9.86516 9.92867 9.99173 10.0544 10.1165 10.1783
0 0 0 0 0 0 0 0 0 0 0 0 0 0 0 0 0 0 0 0 0 0 0 0 0 0 0 0 0 0 0 0 0 0 0 0 0 3.60655e-312 3.99009e-266 1.46823e-229 4.90998e-200 7.49028e-176 8.5772e-156 5.7041e-139 1.01023e-124 1.50866e-112 4.6043e-102 5.7202e-93 4.97858e-85 4.67774e-78 6.71852e-72 1.95644e-66 1.45553e-61 3.34801e-57 2.79e-53 9.61752e-50 1.53335e-46 1.24273e-43 5.54891e-41 1.46223e-38 2.41264e-36 2.62314e-34 1.96441e-32 1.05311e-30 4.17997e-29 1.26521e-27 2.99734e-26 5.68666e-25 8.81762e-24 1.13777e-22 1.24151e-21 1.16215e-20 9.45314e-20 6.75915e-19 4.29251e-18 2.44395e-17 1.25806e-16 5.89999e-16 2.53836e-15 1.00819e-14 3.71795e-14 1.2797e-13 4.13072e-13 1.2559e-12 3.61105e-12 9.85493e-12 2.56142e-11 6.36013e-11 1.51304e-10 3.45765e-10 7.60881e-10 1.61599e-09 3.31938e-09 6.60711e-09 1.27669e-08 2.39885e-08 4.38978e-08 7.8349e-08 1.36572e-07 2.32797e-07 3.88498e-07 6.35444e-07 1.01974e-06 1.6071e-06 2.48963e-06 3.79429e-06 5.69348e-06 8.41785e-06 1.22718e-05 1.76516e-05 2.5067e-05 3.51655e-05 4.87608e-05 6.68637e-05 9.07175e-05 0.000121836 0.000162045 0.000213527 0.000278869 0.000361111 0.000463797 0.000591029 0.000747519 0.000938643 0.00117049 0.00144993 0.00178462 0.00218312 0.00265486 0.00321024 0.00386061 0.00461837 0.00549692 0.00651071 0.00767526 0.00900716 0.010524 0.0122446 0.0141885 0.0163766 0.0188305 0.0215729 0.0246273 0.0280182 0.0317707 0.0359108 0.040465 0.0454605 0.0509252 0.056887 0.0633746 0.0704167 0.0780424 0.0862808 0.0951612 0.104713 0.114964 0.125944 0.137682 0.150205 0.163541 0.177717 0.19276 0.208696 0.22555 0.243345 0.262107 0.281856 0.302616 0.324406 0.347246 0.371155 0.39615 0.422247 0.449461 0.477807 0.507296 0.537941 0.569752 0.602737 0.636905 0.672261 0.708812 0.746561 0.785511 0.825664 0.86702 0.909579 0.953338 0.998295 1.04445 1.09178 1.14031 1.19 1.24086 1.29288 1.34605 1.40036 1.45578 1.51232 1.56996 1.62868 1.68848 1.74932 1.8112 1.8741 1.938 2.00289 2.06875 2.13555 2.20327 2.27191 2.34143 2.41181 2.48305 2.5551 2.62796 2.7016 2.776 2.85113 2.92698 3.00352 3.08072 3.15858 3.23706 3.31614 3.39579 3.47601 3.55676 3.63801 3.71976 3.80197 3.88463 3.96771 4.05118 4.13504 4.21925 4.3038 4.38866 4.47381 4.55923 4.6449 4.73081 4.81692 4.90323 4.9897 5.07633 5.16309 5.24996 5.33693 5.42398 5.51108 5.59822 5.68539 5.77257 5.85974 5.94688 6.03397 6.12101 6.20798 6.29486 6.38163 6.46829 6.55482 6.64119 6.72741 6.81346 6.89932 6.98498 7.07044 7.15567 7.24066 7.32541 7.4099 7.49413 7.57808 7.66174 7.7451 7.82815 7.91089 7.9933 8.07537 8.1571 8.23848 8.3195 8.40015 8.48043 8.56033 8.63983 8.71894 8.79765 8.87595 8.95384 9.0313 9.10834 9.18495 9.26112 9.33685 9.41214 9.48697 9.56135 9.63527 9.70873 9.78172 9.85425 9.9263 9.99787 10.069 10.1396 10.2097 10.2794 10.3485 10.4172 10.4853 10.553 10.6202 10.6869 10.753 10.8187 10.8839 10.9486 11.0127 11.0764 11.1396 11.2022 11.2644
0 0 0 0 0 0 0 0 0 0 0 0 0 0 0 0 0 0 0 0 0 0 0 0 0 0 0 0 0 0 0 0 0 0 0 0 0 4.87076e-295 1.68228e-251 6.33337e-217 5.2341e-189 3.85201e-166 3.56711e-147 2.87718e-131 8.53226e-118 2.7665e-106 2.26529e-96 8.98741e-88 2.88678e-80 1.12989e-73 7.48782e-68 1.09736e-62 4.42548e-58 5.88209e-54 2.99337e-50 6.61155e-47 7.04368e-44 3.95782e-41 1.26563e-38 2.45817e-36 3.06663e-34 2.57888e-32 1.52444e-30 6.56943e-29 2.1307e-27 5.3484e-26 1.0649e-24 1.71871e-23 2.29219e-22 2.56957e-21 2.45829e-20 2.03451e-19 1.4744e-18 9.45864e-18 5.4245e-17 2.80571e-16 1.3193e-15 5.68065e-15 2.2545e-14 8.29635e-14 2.84616e-13 9.14768e-13 2.76696e-12 7.90913e-12 2.14452e-11 5.53494e-11 1.36416e-10 3.22003e-10 7.29918e-10 1.59291e-09 3.35437e-09 6.83068e-09 1.34774e-08 2.58129e-08 4.80719e-08 8.71885e-08 1.54233e-07 2.66467e-07 4.50207e-07 7.44732e-07 1.20751e-06 1.92105e-06 3.00168e-06 4.61069e-06 6.96809e-06 1.03695e-05 1.52063e-05 2.19898e-05 3.1379e-05 4.42128e-05 6.15469e-05 8.46941e-05 0.000115271 0.000155245 0.000206991 0.000273346 0.000357671 0.000463913 0.000596669 0.000761251 0.000963753 0.00121112 0.0015112 0.00187281 0.00230581 0.00282113 0.00343084 0.00414816 0.00498755 0.00596468 0.00709648 0.00840116 0.0098982 0.0116083 0.0135536 0.0157571 0.0182434 0.0210379 0.0241675 0.0276598 0.0315435 0.0358483 0.0406046 0.0458436 0.0515973 0.0578981 0.0647789 0.072273 0.080414 0.0892357 0.0987718 0.109056 0.120122 0.132004 0.144734 0.158345 0.172868 0.188336 0.20478 0.222228 0.24071 0.260255 0.280889 0.302637 0.325526 0.349578 0.374816 0.401261 0.428932 0.457847 0.488024 0.519478 0.552223 0.586272 0.621634 0.658321 0.696339 0.735696 0.776397 0.818445 0.861842 0.90659 0.952686 1.00013 1.04892 1.09905 1.15051 1.2033 1.2574 1.31281 1.36952 1.42752 1.48679 1.54731 1.60908 1.67208 1.73628 1.80168 1.86825 1.93598 2.00485 2.07482 2.14589 2.21803 2.29122 2.36543 2.44065 2.51684 2.59399 2.67207 2.75105 2.8309 2.91162 2.99316 3.0755 3.15862 3.24248 3.32707 3.41236 3.49832 3.58492 3.67214 3.75995 3.84833 3.93724 4.02667 4.11659 4.20697 4.29779 4.38902 4.48064 4.57261 4.66493 4.75755 4.85047 4.94365 5.03707 5.13071 5.22454 5.31855 5.41271 5.507 5.60139 5.69587 5.79041 5.885 5.97962 6.07424 6.16884 6.26341 6.35793 6.45238 6.54673 6.64099 6.73512 6.82911 6.92294 7.01661 7.11008 7.20335 7.29641 7.38923 7.48181 7.57412 7.66617 7.75792 7.84938 7.94053 8.03135 8.12184 8.21198 8.30177 8.39119 8.48023 8.56888 8.65714 8.74499 8.83243 8.91944 9.00601 9.09215 9.17784 9.26308 9.34785 9.43215 9.51598 9.59933 9.68218 9.76454 9.84641 9.92776 10.0086 10.0889 10.1688 10.248 10.3268 10.405 10.4827 10.5599 10.6365 10.7126 10.7881 10.863 10.9375 11.0113 11.0846 11.1574 11.2295 11.3012 11.3722 11.4427 11.5126 11.582 11.6508 11.719 11.7866 11.8537 11.9202 11.9862 12.0515 12.1163 12.1806 12.2442 12.3073 12.3698 12.4318
0 0 0 0 0 0 0 0 0 0 0 0 0 0 0 0 0 0 0 0 0 0 0 0 0 0 0 0 0 0 0 0 0 0 0 0 0 2.16547e-278 2.7469e-237 1.20383e-204 2.72875e-178 1.05517e-156 8.482e-139 8.80574e-124 4.59823e-111 3.3794e-100 7.70453e-91 1.00806e-82 1.22898e-75 2.05386e-69 6.41852e-64 4.82644e-59 1.07346e-54 8.37289e-51 2.63845e-47 3.78112e-44 2.72249e-41 1.07158e-38 2.47731e-36 3.57695e-34 3.40061e-32 2.22799e-30 1.04653e-28 3.64769e-27 9.72246e-26 2.0346e-24 3.42141e-23 4.71901e-22 5.43618e-21 5.31534e-20 4.47498e-19 3.28577e-18 2.12836e-17 1.22881e-16 6.38227e-16 3.00701e-15 1.2949e-14 5.13144e-14 1.88291e-13 6.43351e-13 2.05738e-12 6.18661e-12 1.75677e-11 4.72922e-11 1.21124e-10 2.96115e-10 6.93086e-10 1.55744e-09 3.36857e-09 7.02931e-09 1.41826e-08 2.77239e-08 5.26035e-08 9.70488e-08 1.74373e-07 3.05582e-07 5.23047e-07 8.75548e-07 1.43506e-06 2.30567e-06 3.63513e-06 5.62943e-06 8.571e-06 1.28408e-05 1.89453e-05 2.75477e-05 3.95051e-05 5.59109e-05 7.81423e-05 0.000107915 0.00014734 0.000198992 0.000265975 0.000351996 0.000461443 0.000599466 0.000772053 0.000986116 0.00124957 0.00157142 0.00196181 0.00243213 0.00299508 0.00366469 0.0044564 0.00538713 0.00647527 0.00774071 0.00920489 0.0108908 0.0128228 0.0150269 0.0175306 0.0203628 0.0235536 0.0271346 0.0311385 0.0355993 0.0405519 0.0460323 0.0520771 0.058724 0.0660109 0.0739766 0.08266 0.0921002 0.102337 0.113409 0.125355 0.138215 0.152028 0.16683 0.182659 0.199553 0.217546 0.236673 0.256968 0.278463 0.30119 0.325178 0.350457 0.377052 0.40499 0.434294 0.464987 0.497088 0.530618 0.565593 0.602028 0.639937 0.679332 0.720223 0.762617 0.806523 0.851943 0.898881 0.947339 0.997315 1.04881 1.10181 1.15633 1.21234 1.26985 1.32883 1.38929 1.45121 1.51457 1.57936 1.64556 1.71316 1.78213 1.85245 1.92411 1.99708 2.07135 2.14687 2.22364 2.30163 2.3808 2.46114 2.54262 2.6252 2.70887 2.79359 2.87933 2.96606 3.05376 3.14239 3.23193 3.32233 3.41359 3.50565 3.5985 3.6921 3.78641 3.88142 3.97709 4.07339 4.17028 4.26775 4.36575 4.46426 4.56325 4.66268 4.76254 4.86279 4.9634 5.06435 5.16561 5.26714 5.36893 5.47094 5.57315 5.67553 5.77807 5.88072 5.98347 6.0863 6.18917 6.29207 6.39497 6.49786 6.6007 6.70348 6.80617 6.90876 7.01122 7.11353 7.21569 7.31765 7.41942 7.52096 7.62227 7.72332 7.8241 7.9246 8.02478 8.12466 8.22419 8.32338 8.42221 8.52066 8.61872 8.71638 8.81362 8.91044 9.00682 9.10275 9.19823 9.29323 9.38775 9.48178 9.57532 9.66834 9.76085 9.85284 9.94429 10.0352 10.1256 10.2154 10.3046 10.3933 10.4814 10.5689 10.6559 10.7422 10.828 10.9131 10.9977 11.0816 11.165 11.2477 11.3298 11.4113 11.4921 11.5724 11.652 11.7309 11.8092 11.8869 11.964 12.0404 12.1162 12.1913 12.2658 12.3397 12.4129 12.4855 12.5574 12.6287 12.6993 12.7693 12.8387 12.9074 12.9754 13.0429 13.1097 13.1758 13.2413 13.3062 13.3704 13.434 13.497 13.5593 13.621 13.6821
0 0 0 0 0 0 0 0 0 0 0 0 0 0 0 0 0 0 0 0 0 0 0 0 0 0 0 0 0 0 0 0 0 0 0 0 5.82964e-312 3.16926e-262 1.73708e-223 1.00828e-192 6.95734e-168 1.53958e-147 1.15317e-130 1.63525e-116 1.58125e-104 2.74989e-94 1.81147e-85 8.07168e-78 3.84147e-71 2.80958e-65 4.23167e-60 1.66458e-55 2.07732e-51 9.65645e-48 1.9106e-44 1.79894e-41 8.85409e-39 2.46652e-36 4.1613e-34 4.50529e-32 3.28988e-30 1.69147e-28 6.35559e-27 1.80278e-25 3.97133e-24 6.96513e-23 9.9408e-22 1.17706e-20 1.1762e-19 1.00708e-18 7.48898e-18 4.89546e-17 2.84361e-16 1.48205e-15 6.99131e-15 3.00863e-14 1.18954e-13 4.34886e-13 1.47874e-12 4.70137e-12 1.40433e-11 3.95851e-11 1.0572e-10 2.68497e-10 6.50637e-10 1.50903e-09 3.35929e-09 7.19651e-09 1.48719e-08 2.9713e-08 5.75113e-08 1.08046e-07 1.9737e-07 3.51134e-07 6.0932e-07 1.03278e-06 1.7121e-06 2.77933e-06 4.42316e-06 6.90825e-06 1.05993e-05 1.59903e-05 2.37406e-05 3.47159e-05 5.00379e-05 7.114e-05 9.98307e-05 0.000138364 0.000189517 0.000256673 0.000343912 0.000456107 0.000599015 0.000779388 0.00100507 0.00128508 0.00162976 0.00205082 0.00256143 0.00317637 0.003912 0.00478643 0.00581948 0.00703281 0.00844988 0.010096 0.0119983 0.0141858 0.0166892 0.0195412 0.0227758 0.026429 0.0305383 0.0351423 0.0402814 0.0459968 0.0523312 0.0593278 0.067031 0.0754856 0.084737 0.0948309 0.105813 0.11773 0.130626 0.144548 0.159541 0.175649 0.192914 0.211381 0.231091 0.252084 0.2744 0.298075 0.323147 0.34965 0.377617 0.407078 0.438064 0.470601 0.504714 0.540427 0.577761 0.616735 0.657365 0.699667 0.743653 0.789333 0.836716 0.885807 0.936611 0.989129 1.04336 1.09931 1.15696 1.21632 1.27736 1.3401 1.4045 1.47057 1.53827 1.60761 1.67855 1.75109 1.82519 1.90084 1.97801 2.05668 2.13682 2.2184 2.3014 2.38579 2.47153 2.5586 2.64696 2.73659 2.82745 2.9195 3.01272 3.10707 3.20251 3.29901 3.39653 3.49504 3.5945 3.69488 3.79614 3.89825 4.00116 4.10485 4.20928 4.31441 4.4202 4.52663 4.63365 4.74123 4.84934 4.95794 5.067 5.17649 5.28637 5.3966 5.50717 5.61802 5.72914 5.8405 5.95205 6.06378 6.17564 6.28762 6.39969 6.51181 6.62396 6.73611 6.84823 6.96031 7.07231 7.18421 7.29598 7.40761 7.51906 7.63032 7.74136 7.85217 7.96272 8.07298 8.18295 8.29261 8.40192 8.51088 8.61947 8.72767 8.83546 8.94283 9.04976 9.15624 9.26226 9.36779 9.47282 9.57735 9.68136 9.78483 9.88776 9.99014 10.0919 10.1932 10.2938 10.3939 10.4933 10.5921 10.6903 10.7879 10.8848 10.9811 11.0767 11.1717 11.266 11.3596 11.4526 11.5449 11.6365 11.7274 11.8176 11.9071 11.9959 12.0839 12.1713 12.258 12.3439 12.4292 12.5137 12.5975 12.6805 12.7629 12.8445 12.9254 13.0056 13.085 13.1637 13.2417 13.3189 13.3954 13.4712 13.5463 13.6206 13.6942 13.7671 13.8393 13.9107 13.9814 14.0514 14.1207 14.1893 14.2571 14.3242 14.3907 14.4564 14.5214 14.5857 14.6493 14.7122 14.7745 14.836 14.8968 14.957 15.0164
0 0 0 0 0 0 0 0 0 0 0 0 0 0 0 0 0 0 0 0 0 0 0 0 0 0 0 0 0 0 0 0 0 0 0 0 2.4722e-293 1.52691e-246 4.25428e-210 3.72124e-181 8.67525e-158 1.19654e-138 8.96396e-123 1.84257e-109 3.46972e-98 1.4906e-88 2.94429e-80 4.61392e-73 8.81602e-67 2.89233e-61 2.14579e-56 4.50172e-52 3.20708e-48 9.02316e-45 1.13664e-41 7.12015e-39 2.42287e-36 4.82652e-34 5.99862e-32 4.91178e-30 2.77671e-28 1.12846e-26 3.41448e-25 7.93055e-24 1.45212e-22 2.14573e-21 2.61192e-20 2.66713e-19 2.32173e-18 1.74769e-17 1.1522e-16 6.7287e-16 3.51632e-15 1.65944e-14 7.13033e-14 2.81026e-13 1.02275e-12 3.45784e-12 1.09203e-11 3.23755e-11 9.05156e-11 2.39635e-10 6.03023e-10 1.44736e-09 3.32393e-09 7.32525e-09 1.55327e-08 3.1768e-08 6.28111e-08 1.20308e-07 2.23666e-07 4.04325e-07 7.11874e-07 1.2226e-06 2.05113e-06 3.3659e-06 5.40938e-06 8.52367e-06 1.31827e-05 2.00315e-05 2.99335e-05 4.40267e-05 6.37885e-05 9.11105e-05 0.000128382 0.000178584 0.00024539 0.000333275 0.000447635 0.000594903 0.000782682 0.00101987 0.00131677 0.00168525 0.00213884 0.00269285 0.00336446 0.00417285 0.00513926 0.00628705 0.00764178 0.00923121 0.0110854 0.0132364 0.0157189 0.0185694 0.0218266 0.0255313 0.0297262 0.0344559 0.0397665 0.0457059 0.0523233 0.059669 0.0677945 0.0767522 0.086595 0.0973764 0.10915 0.12197 0.13589 0.150963 0.167242 0.18478 0.203626 0.223832 0.245447 0.268517 0.293088 0.319205 0.346909 0.376241 0.407239 0.439939 0.474374 0.510576 0.548572 0.588391 0.630054 0.673584 0.718998 0.766313 0.815542 0.866695 0.919781 0.974805 1.03177 1.09068 1.15152 1.2143 1.27901 1.34563 1.41416 1.48459 1.55689 1.63106 1.70706 1.78488 1.8645 1.94589 2.02902 2.11387 2.2004 2.28859 2.3784 2.4698 2.56275 2.65722 2.75318 2.85057 2.94938 3.04955 3.15105 3.25384 3.35788 3.46312 3.56953 3.67706 3.78567 3.89532 4.00597 4.11758 4.23009 4.34348 4.4577 4.5727 4.68845 4.80491 4.92202 5.03976 5.15808 5.27694 5.39631 5.51613 5.63638 5.75702 5.878 5.99929 6.12086 6.24266 6.36467 6.48684 6.60914 6.73155 6.85402 6.97652 7.09902 7.2215 7.34392 7.46624 7.58845 7.71051 7.8324 7.95408 8.07554 8.19674 8.31767 8.43829 8.55859 8.67853 8.7981 8.91728 9.03605 9.15437 9.27225 9.38965 9.50656 9.62295 9.73882 9.85414 9.96891 10.0831 10.1967 10.3097 10.4221 10.5338 10.6449 10.7553 10.8651 10.9742 11.0826 11.1903 11.2972 11.4035 11.509 11.6138 11.7179 11.8212 11.9237 12.0255 12.1265 12.2267 12.3262 12.4248 12.5227 12.6197 12.716 12.8114 12.906 12.9999 13.0929 13.1851 13.2764 13.367 13.4567 13.5456 13.6337 13.7209 13.8073 13.8929 13.9777 14.0616 14.1447 14.227 14.3084 14.3891 14.4689 14.5479 14.626 14.7033 14.7799 14.8556 14.9305 15.0045 15.0778 15.1503 15.2219 15.2928 15.3629 15.4321 15.5006 15.5683 15.6352 15.7013 15.7667 15.8312 15.895 15.958 16.0203 16.0818 16.1426 16.2026 16.2618 16.3203 16.3781 16.4352
0 0 0 0 0 0 0 0 0 0 0 0 0 0 0 0 0 0 0 0 0 0 0 0 0 0 0 0 0 0 0 0 0 0 0 0 2.80139e-275 2.4217e-231 4.03518e-197 6.05179e-170 5.29029e-148 4.95334e-130 3.98399e-115 1.25975e-102 4.85816e-92 5.38235e-83 3.30821e-75 1.8828e-68 1.48549e-62 2.24073e-57 8.36873e-53 9.54666e-49 3.95006e-45 6.83122e-42 5.5553e-39 2.34444e-36 5.57863e-34 8.02926e-32 7.42078e-30 4.63514e-28 2.0446e-26 6.6157e-25 1.62277e-23 3.10527e-22 4.75306e-21 5.94863e-20 6.20613e-19 5.49024e-18 4.18105e-17 2.77798e-16 1.6297e-15 8.53196e-15 4.02438e-14 1.72496e-13 6.77062e-13 2.45056e-12 8.23021e-12 2.57947e-11 7.58329e-11 2.10099e-10 5.50907e-10 1.37248e-09 3.26019e-09 7.40802e-09 1.615e-08 3.38716e-08 6.85146e-08 1.33972e-07 2.53778e-07 4.66609e-07 8.34254e-07 1.45284e-06 2.46822e-06 4.09661e-06 6.6515e-06 1.05781e-05 1.64965e-05 2.52544e-05 3.79911e-05 5.62124e-05 8.18778e-05 0.000117501 0.00016626 0.000232122 0.000319978 0.000435786 0.00058672 0.000781332 0.00102971 0.00134363 0.00173674 0.00222468 0.00282525 0.00355853 0.00444704 0.00551578 0.00679235 0.00830704 0.0100928 0.0121854 0.0146232 0.0174473 0.0207016 0.0244322 0.0286879 0.0335199 0.0389813 0.0451273 0.0520151 0.0597033 0.0682518 0.077722 0.088176 0.0996765 0.112287 0.12607 0.14109 0.157408 0.175089 0.194192 0.214779 0.236908 0.260637 0.286022 0.313116 0.341971 0.372637 0.40516 0.439585 0.475953 0.514303 0.554671 0.59709 0.641589 0.688195 0.736932 0.787819 0.840874 0.896111 0.953539 1.01317 1.075 1.13904 1.20528 1.27372 1.34435 1.41716 1.49214 1.56927 1.64853 1.72991 1.81337 1.8989 1.98646 2.07602 2.16756 2.26104 2.35643 2.45368 2.55276 2.65362 2.75624 2.86056 2.96654 3.07414 3.18331 3.294 3.40617 3.51977 3.63475 3.75106 3.86866 3.98749 4.10751 4.22866 4.35089 4.47417 4.59842 4.72362 4.8497 4.97662 5.10433 5.23277 5.36191 5.4917 5.62208 5.75301 5.88445 6.01635 6.14866 6.28134 6.41435 6.54764 6.68117 6.81491 6.9488 7.08281 7.2169 7.35103 7.48516 7.61927 7.7533 7.88723 8.02102 8.15464 8.28806 8.42124 8.55415 8.68677 8.81905 8.95099 9.08254 9.21368 9.34438 9.47462 9.60438 9.73363 9.86234 9.9905 10.1181 10.2451 10.3715 10.4972 10.6223 10.7467 10.8704 10.9934 11.1157 11.2373 11.3581 11.4781 11.5974 11.7159 11.8335 11.9504 12.0664 12.1816 12.296 12.4095 12.5222 12.6339 12.7448 12.8548 12.964 13.0722 13.1795 13.2859 13.3914 13.496 13.5996 13.7024 13.8042 13.905 14.005 14.104 14.202 14.2991 14.3953 14.4905 14.5848 14.6782 14.7706 14.862 14.9526 15.0421 15.1308 15.2185 15.3052 15.391 15.4759 15.5599 15.6429 15.725 15.8061 15.8864 15.9657 16.0441 16.1216 16.1982 16.2739 16.3486 16.4225 16.4955 16.5676 16.6388 16.7091 16.7786 16.8471 16.9148 16.9817 17.0477 17.1128 17.1771 17.2405 17.3031 17.3649 17.4259 17.486 17.5453 17.6038 17.6615 17.7184 17.7745 17.8298 17.8843 17.938
0 0 0 0 0 0 0 0 0 0 0 0 0 0 0 0 0 0 0 0 0 0 0 0 0 0 0 0 0 0 0 0 0 0 0 6.92666e-312 8.48227e-258 1.26438e-216 1.48228e-184 4.33679e-159 1.57774e-138 1.09223e-121 1.01239e-107 5.22596e-96 4.34042e-86 1.29465e-77 2.56962e-70 5.48485e-64 1.83777e-58 1.30637e-53 2.51032e-49 1.58753e-45 3.88139e-42 4.19022e-39 2.23062e-36 6.42197e-34 1.08077e-31 1.13555e-29 7.8781e-28 3.78611e-26 1.31346e-24 3.4083e-23 6.82268e-22 1.08225e-20 1.39268e-19 1.48407e-18 1.33353e-17 1.02669e-16 6.86916e-16 4.04443e-15 2.11914e-14 9.98037e-14 4.26289e-13 1.66462e-12 5.9857e-12 1.99492e-11 6.19871e-11 1.8053e-10 4.95181e-10 1.28484e-09 3.16616e-09 7.437e-09 1.67065e-08 3.60011e-08 7.46271e-08 1.49189e-07 2.8831e-07 5.39758e-07 9.80893e-07 1.7335e-06 2.98433e-06 5.01267e-06 8.22664e-06 1.32097e-05 2.07791e-05 3.20572e-05 4.85582e-05 7.22892e-05 0.000105869 0.00015266 0.000216921 0.00030397 0.000420361 0.000574076 0.000774719 0.00103372 0.00136454 0.00178288 0.00230685 0.0029572 0.00375746 0.0047341 0.00591667 0.00733791 0.00903383 0.0110437 0.0134103 0.0161796 0.0194008 0.0231264 0.0274121 0.0323164 0.0379006 0.0442286 0.0513667 0.0593833 0.0683487 0.0783345 0.0894139 0.101661 0.11515 0.129956 0.146154 0.163818 0.183023 0.20384 0.226343 0.2506 0.276679 0.304647 0.334568 0.366501 0.400506 0.436636 0.474945 0.51548 0.558287 0.603407 0.650876 0.70073 0.752998 0.807706 0.864876 0.924526 0.986671 1.05132 1.11848 1.18816 1.26034 1.33504 1.41223 1.49192 1.57407 1.65868 1.74572 1.83517 1.92699 2.02117 2.11766 2.21643 2.31745 2.42066 2.52603 2.63352 2.74308 2.85466 2.9682 3.08367 3.201 3.32015 3.44106 3.56367 3.68793 3.81378 3.94116 4.07002 4.20029 4.33192 4.46485 4.59903 4.73438 4.87085 5.00839 5.14693 5.28641 5.42679 5.568 5.70998 5.85268 5.99604 6.14001 6.28454 6.42956 6.57502 6.72089 6.86709 7.01359 7.16033 7.30726 7.45434 7.60152 7.74875 7.89599 8.0432 8.19033 8.33734 8.4842 8.63085 8.77726 8.9234 9.06923 9.21471 9.3598 9.50448 9.64871 9.79246 9.9357 10.0784 10.2205 10.3621 10.503 10.6432 10.7828 10.9217 11.0599 11.1973 11.3339 11.4698 11.6049 11.7391 11.8725 12.005 12.1367 12.2675 12.3974 12.5263 12.6543 12.7814 12.9075 13.0327 13.1568 13.28 13.4022 13.5233 13.6435 13.7626 13.8807 13.9978 14.1138 14.2288 14.3427 14.4555 14.5673 14.6781 14.7877 14.8963 15.0038 15.1102 15.2156 15.3199 15.4231 15.5252 15.6263 15.7262 15.8251 15.9229 16.0197 16.1153 16.2099 16.3034 16.3959 16.4872 16.5776 16.6668 16.755 16.8422 16.9283 17.0133 17.0974 17.1803 17.2623 17.3432 17.4231 17.502 17.5798 17.6567 17.7326 17.8074 17.8813 17.9542 18.0261 18.097 18.167 18.236 18.304 18.3711 18.4373 18.5025 18.5668 18.6302 18.6926 18.7542 18.8148 18.8745 18.9334 18.9914 19.0485 19.1047 19.16 19.2145 19.2682 19.321 19.373 19.4242 19.4745 19.524
0 0 0 0 0 0 0 0 0 0 0 0 0 0 0 0 0 0 0 0 0 0 0 0 0 0 0 0 0 0 0 0 0 0 0 1.81614e-291 6.86275e-241 2.17313e-202 2.10877e-172 1.36944e-148 2.30118e-129 1.28285e-113 1.47093e-100 1.31543e-89 2.47443e-80 2.07444e-72 1.37977e-65 1.14065e-59 1.66929e-54 5.73161e-50 5.79159e-46 2.07009e-42 3.04271e-39 2.08245e-36 7.35825e-34 1.46344e-31 1.76177e-29 1.3653e-27 7.17742e-26 2.67689e-24 7.36121e-23 1.54301e-21 2.53756e-20 3.35734e-19 3.65286e-18 3.33186e-17 2.59124e-16 1.74416e-15 1.02959e-14 5.39325e-14 2.53329e-13 1.07702e-12 4.17928e-12 1.49133e-11 4.92684e-11 1.51611e-10 4.3696e-10 1.18539e-09 3.04055e-09 7.40435e-09 1.71825e-08 3.81267e-08 8.11449e-08 1.66118e-07 3.27965e-07 6.25933e-07 1.15737e-06 2.0775e-06 3.62691e-06 6.16892e-06 1.02387e-05 1.66068e-05 2.63584e-05 4.09913e-05 6.25337e-05 9.36822e-05 0.000137962 0.00019991 0.000285272 0.000401228 0.000556627 0.000762231 0.00103098 0.00137826 0.00182212 0.0023836 0.00308691 0.00395968 0.00503314 0.00634233 0.00792621 0.00982777 0.0120941 0.0147764 0.01793 0.0216143 0.0258924 0.0308316 0.0365024 0.0429788 0.0503379 0.0586597 0.0680263 0.0785224 0.0902339 0.103248 0.117654 0.133541 0.150996 0.17011 0.19097 0.213662 0.238273 0.264885 0.293579 0.324435 0.357527 0.392927 0.430705 0.470924 0.513648 0.55893 0.606826 0.657381 0.71064 0.76664 0.825416 0.886997 0.951405 1.01866 1.08878 1.16177 1.23763 1.31637 1.39799 1.48246 1.56979 1.65994 1.75291 1.84866 1.94716 2.04839 2.1523 2.25886 2.36803 2.47974 2.59397 2.71066 2.82975 2.95118 3.07491 3.20087 3.329 3.45923 3.59151 3.72576 3.86192 3.99993 4.1397 4.28119 4.4243 4.56899 4.71517 4.86277 5.01173 5.16197 5.31343 5.46603 5.61971 5.7744 5.93002 6.08652 6.24382 6.40185 6.56056 6.71988 6.87974 7.04008 7.20084 7.36196 7.52338 7.68504 7.84689 8.00886 8.17091 8.33297 8.49501 8.65696 8.81877 8.9804 9.1418 9.30293 9.46373 9.62417 9.7842 9.94379 10.1029 10.2615 10.4195 10.5769 10.7336 10.8897 11.0451 11.1998 11.3537 11.5068 11.6591 11.8106 11.9612 12.1108 12.2596 12.4074 12.5543 12.7001 12.845 12.9888 13.1316 13.2734 13.414 13.5536 13.6921 13.8295 13.9657 14.1008 14.2347 14.3675 14.4991 14.6295 14.7588 14.8868 15.0137 15.1393 15.2637 15.3869 15.5089 15.6297 15.7492 15.8675 15.9845 16.1004 16.2149 16.3283 16.4404 16.5513 16.6609 16.7693 16.8764 16.9823 17.087 17.1905 17.2927 17.3937 17.4935 17.592 17.6894 17.7855 17.8804 17.9742 18.0667 18.1581 18.2482 18.3372 18.425 18.5116 18.5971 18.6814 18.7646 18.8466 18.9275 19.0072 19.0859 19.1634 19.2398 19.3151 19.3893 19.4625 19.5345 19.6055 19.6754 19.7443 19.8121 19.8789 19.9446 20.0094 20.0731 20.1358 20.1975 20.2582 20.3179 20.3767 20.4345 20.4913 20.5472 20.6022 20.6562 20.7093 20.7615 20.8127 20.8631 20.9126 20.9612 21.0089 21.0558 21.1018 21.147 21.1913
0 0 0 0 0 0 0 0 0 0 0 0 0 0 0 0 0 0 0 0 0 0 0 0 0 0 0 0 0 0 0 0 0 0 0 9.67431e-272 1.48365e-224 1.22955e-188 1.16187e-160 1.90548e-138 1.64144e-120 8.0257e-106 1.22193e-93 2.00904e-83 9.00122e-75 2.2142e-67 5.12163e-61 1.69344e-55 1.11326e-50 1.89244e-46 1.02769e-42 2.11668e-39 1.90293e-36 8.38513e-34 1.99414e-31 2.77433e-29 2.41643e-27 1.39554e-25 5.61165e-24 1.63824e-22 3.59924e-21 6.13861e-20 8.34913e-19 9.27033e-18 8.57673e-17 6.73155e-16 4.55338e-15 2.69174e-14 1.4079e-13 6.58732e-13 2.7841e-12 1.07222e-11 3.79222e-11 1.24037e-10 3.77564e-10 1.07566e-09 2.88291e-09 7.30249e-09 1.75558e-08 4.02107e-08 8.80524e-08 1.84926e-07 3.73568e-07 7.27792e-07 1.37077e-06 2.50154e-06 4.43227e-06 7.63905e-06 1.28292e-05 2.10284e-05 3.36897e-05 5.28286e-05 8.11845e-05 0.000122411 0.000181293 0.000263998 0.000378344 0.000534098 0.000743291 0.00102055 0.00138342 0.00185272 0.00245286 0.00321215 0.00416313 0.00534276 0.00679272 0.00855956 0.0106948 0.0132551 0.0163023 0.019903 0.0241293 0.0290576 0.0347694 0.0413503 0.04889 0.057482 0.067223 0.0782125 0.0905525 0.104347 0.119701 0.13672 0.155512 0.176181 0.198834 0.223574 0.250504 0.279723 0.311329 0.345415 0.382071 0.421384 0.463436 0.508303 0.556057 0.606766 0.660491 0.717287 0.777204 0.840286 0.906572 0.976092 1.04887 1.12494 1.20429 1.28695 1.37292 1.46218 1.55474 1.65057 1.74966 1.85199 1.95751 2.0662 2.17802 2.29293 2.41087 2.53179 2.65565 2.78237 2.91191 3.04419 3.17914 3.3167 3.4568 3.59936 3.7443 3.89155 4.04103 4.19266 4.34634 4.50202 4.65959 4.81898 4.9801 5.14287 5.30721 5.47303 5.64024 5.80876 5.97852 6.14943 6.3214 6.49435 6.66821 6.8429 7.01834 7.19444 7.37114 7.54836 7.72603 7.90408 8.08243 8.26101 8.43976 8.61862 8.79751 8.97637 9.15515 9.33378 9.5122 9.69036 9.8682 10.0457 10.2227 10.3993 10.5753 10.7508 10.9256 11.0998 11.2733 11.4461 11.618 11.7891 11.9594 12.1288 12.2972 12.4647 12.6311 12.7966 12.961 13.1243 13.2865 13.4476 13.6075 13.7663 13.9238 14.0801 14.2352 14.389 14.5416 14.6928 14.8428 14.9914 15.1387 15.2847 15.4293 15.5726 15.7144 15.8549 15.994 16.1317 16.268 16.4029 16.5364 16.6685 16.7991 16.9283 17.0561 17.1825 17.3074 17.4309 17.553 17.6736 17.7929 17.9107 18.027 18.142 18.2555 18.3677 18.4784 18.5877 18.6956 18.8021 18.9072 19.0109 19.1133 19.2143 19.3139 19.4121 19.509 19.6046 19.6988 19.7916 19.8832 19.9734 20.0623 20.1499 20.2363 20.3213 20.4051 20.4876 20.5688 20.6488 20.7276 20.8051 20.8814 20.9565 21.0304 21.1031 21.1746 21.245 21.3142 21.3822 21.4491 21.5149 21.5795 21.643 21.7055 21.7668 21.827 21.8862 21.9443 22.0014 22.0574 22.1124 22.1664 22.2193 22.2713 22.3222 22.3722 22.4212 22.4693 22.5164 22.5625 22.6078 22.652 22.6954 22.7379 22.7795 22.8202 22.86 22.899 22.9371
0 0 0 0 0 0 0 0 0 0 0 0 0 0 0 0 0 0 0 0 0 0 0 0 0 0 0 0 0 0 0 0 0 0 5.23839e-312 1.04697e-252 8.57065e-209 2.2901e-175 2.47923e-149 1.16831e-128 5.72608e-112 2.67446e-98 5.80383e-87 1.86178e-77 2.08935e-69 1.57434e-62 1.31423e-56 1.79479e-51 5.45109e-47 4.70224e-43 1.40258e-39 1.69714e-36 9.49451e-34 2.73555e-31 4.43987e-29 4.37543e-27 2.78875e-25 1.21268e-23 3.76519e-22 8.67818e-21 1.53532e-19 2.14606e-18 2.43013e-17 2.2784e-16 1.80267e-15 1.22388e-14 7.23573e-14 3.77381e-13 1.75638e-12 7.36938e-12 2.81293e-11 9.84744e-11 3.18476e-10 9.57742e-10 2.69389e-09 7.12465e-09 1.78021e-08 4.22059e-08 9.53175e-08 2.05784e-07 4.26084e-07 8.48605e-07 1.63009e-06 3.02751e-06 5.44886e-06 9.52301e-06 1.61926e-05 2.68347e-05 4.34124e-05 6.86617e-05 0.000106316 0.000161368 0.000240373 0.000351783 0.000506325 0.000717392 0.00100147 0.00137858 0.00187269 0.00251216 0.00333019 0.00436513 0.00566089 0.00726724 0.00923998 0.0116412 0.0145394 0.0180093 0.0221321 0.0269952 0.032692 0.0393215 0.0469883 0.0558016 0.0658753 0.0773271 0.090278 0.104852 0.121174 0.139372 0.159573 0.181904 0.206493 0.233465 0.262943 0.295048 0.329896 0.367601 0.408271 0.452009 0.498914 0.549077 0.602584 0.659515 0.719941 0.783927 0.851532 0.922805 0.99779 1.07652 1.15903 1.24533 1.33544 1.42936 1.52709 1.62862 1.73394 1.84302 1.95584 2.07236 2.19253 2.31632 2.44366 2.57451 2.70879 2.84645 2.9874 3.13159 3.27892 3.42931 3.58269 3.73896 3.89803 4.05981 4.2242 4.39112 4.56046 4.73211 4.906 5.082 5.26003 5.43998 5.62175 5.80523 5.99034 6.17696 6.365 6.55435 6.74493 6.93663 7.12935 7.323 7.5175 7.71273 7.90862 8.10508 8.30201 8.49933 8.69696 8.89481 9.09281 9.29088 9.48893 9.68689 9.8847 10.0823 10.2796 10.4765 10.6729 10.8689 11.0644 11.2592 11.4533 11.6468 11.8394 12.0312 12.2221 12.4121 12.6012 12.7892 12.9762 13.162 13.3467 13.5303 13.7126 13.8937 14.0735 14.252 14.4292 14.605 14.7795 14.9525 15.124 15.2942 15.4628 15.63 15.7956 15.9597 16.1223 16.2833 16.4427 16.6006 16.7568 16.9115 17.0645 17.2159 17.3657 17.5139 17.6604 17.8053 17.9485 18.0901 18.23 18.3682 18.5049 18.6398 18.7731 18.9048 19.0348 19.1631 19.2899 19.4149 19.5384 19.6602 19.7803 19.8989 20.0159 20.1312 20.2449 20.3571 20.4676 20.5766 20.684 20.7899 20.8941 20.9969 21.0981 21.1978 21.296 21.3926 21.4878 21.5815 21.6737 21.7644 21.8537 21.9416 22.028 22.113 22.1966 22.2788 22.3597 22.4391 22.5172 22.5939 22.6693 22.7434 22.8161 22.8876 22.9578 23.0267 23.0943 23.1607 23.2258 23.2897 23.3524 23.4139 23.4742 23.5333 23.5913 23.6481 23.7037 23.7582 23.8116 23.8639 23.9151 23.9653 24.0143 24.0623 24.1092 24.1551 24.2 24.2439 24.2867 24.3286 24.3695 24.4094 24.4484 24.4864 24.5235 24.5597 24.5949 24.6293 24.6628 24.6953 24.7271 24.7579
0 0 0 0 0 0 0 0 0 0 0 0 0 0 0 0 0 0 0 0 0 0 0 0 0 0 0 0 0 0 0 0 0 0 2.08657e-289 2.30191e-234 1.32295e-193 1.40415e-162 2.04883e-138 3.15644e-119 9.76898e-104 4.74715e-91 1.57614e-80 1.04687e-71 3.0946e-64 7.45678e-58 2.33131e-52 1.35795e-47 1.95971e-43 8.7927e-40 1.47227e-36 1.06704e-33 3.77931e-31 7.23066e-29 8.12114e-27 5.74064e-25 2.70804e-23 8.95863e-22 2.16799e-20 3.97913e-19 5.71369e-18 6.59301e-17 6.25725e-16 4.98427e-15 3.39169e-14 2.00243e-13 1.03981e-12 4.80648e-12 1.999e-11 7.55124e-11 2.6128e-10 8.3434e-10 2.47546e-09 6.86541e-09 1.78952e-08 4.40549e-08 1.02887e-07 2.2886e-07 4.86638e-07 9.92425e-07 1.94693e-06 3.68426e-06 6.74196e-06 1.19578e-05 2.05994e-05 3.45327e-05 5.64349e-05 9.00559e-05 0.000140532 0.000214751 0.000321774 0.000473295 0.000684155 0.000972881 0.00136225 0.00187986 0.0025587 0.0034377 0.00456224 0.00598462 0.00776445 0.00996898 0.0126733 0.0159606 0.0199219 0.0246565 0.0302711 0.0368802 0.0446052 0.0535743 0.0639213 0.0757859 0.0893119 0.104647 0.121943 0.141351 0.163026 0.187123 0.213794 0.243192 0.275466 0.310763 0.349224 0.390986 0.436181 0.484934 0.537363 0.593579 0.653685 0.717773 0.785931 0.858235 0.934751 1.01554 1.10065 1.19011 1.28396 1.38222 1.4849 1.59199 1.7035 1.8194 1.93967 2.06427 2.19317 2.32632 2.46366 2.60512 2.75065 2.90015 3.05356 3.21078 3.37172 3.53629 3.70439 3.87591 4.05075 4.22879 4.40992 4.59403 4.781 4.97072 5.16305 5.35788 5.55509 5.75456 5.95615 6.15976 6.36526 6.57252 6.78142 6.99185 7.20369 7.41681 7.63111 7.84646 8.06275 8.27988 8.49773 8.71619 8.93516 9.15454 9.37422 9.59411 9.81411 10.0341 10.2541 10.4738 10.6934 10.9125 11.1313 11.3496 11.5673 11.7844 12.0007 12.2162 12.4309 12.6447 12.8575 13.0693 13.28 13.4895 13.6978 13.9048 14.1106 14.315 14.518 14.7196 14.9197 15.1183 15.3154 15.5109 15.7048 15.897 16.0876 16.2765 16.4636 16.649 16.8327 17.0146 17.1946 17.3729 17.5493 17.7239 17.8966 18.0675 18.2364 18.4035 18.5687 18.7319 18.8933 19.0528 19.2103 19.3659 19.5196 19.6713 19.8212 19.9691 20.1151 20.2591 20.4013 20.5416 20.6799 20.8163 20.9509 21.0835 21.2143 21.3432 21.4702 21.5954 21.7187 21.8402 21.9599 22.0777 22.1937 22.3079 22.4204 22.531 22.64 22.7471 22.8525 22.9562 23.0582 23.1584 23.257 23.3539 23.4492 23.5428 23.6348 23.7251 23.8139 23.901 23.9866 24.0706 24.1531 24.2341 24.3135 24.3914 24.4679 24.5428 24.6164 24.6884 24.7591 24.8283 24.8961 24.9626 25.0276 25.0914 25.1537 25.2148 25.2746 25.333 25.3902 25.4461 25.5007 25.5542 25.6064 25.6573 25.7071 25.7557 25.8032 25.8495 25.8946 25.9386 25.9816 26.0234 26.0641 26.1038 26.1424 26.1799 26.2164 26.252 26.2865 26.32 26.3525 26.384 26.4147 26.4443 26.473 26.5009 26.5278 26.5538 26.5789 26.6032 26.6266 26.6491
0 0 0 0 0 0 0 0 0 0 0 0 0 0 0 0 0 0 0 0 0 0 0 0 0 0 0 0 0 0 0 0 0 0 1.16635e-267 1.02822e-216 5.45659e-179 2.83416e-150 6.55734e-128 3.75775e-110 8.15079e-96 4.48824e-84 2.44729e-74 3.57168e-66 2.92469e-59 2.35272e-53 2.85885e-48 7.33471e-44 5.17278e-40 1.2373e-36 1.18863e-33 5.26063e-31 1.20017e-28 1.5485e-26 1.22038e-24 6.26582e-23 2.21263e-21 5.62635e-20 1.07128e-18 1.57927e-17 1.85507e-16 1.7799e-15 1.42528e-14 9.70526e-14 5.71243e-13 2.94831e-12 1.35128e-11 5.56128e-11 2.07562e-10 7.08712e-10 2.23114e-09 6.52143e-09 1.78084e-08 4.56882e-08 1.10678e-07 2.54312e-07 5.56541e-07 1.16429e-06 2.33626e-06 4.51023e-06 8.40046e-06 1.51333e-05 2.64298e-05 4.4844e-05 7.4064e-05 0.000119282 0.000187636 0.000288726 0.000435196 0.000643383 0.000934015 0.00133294 0.0018719 0.00258925 0.00353073 0.00475014 0.00630995 0.00828188 0.0107473 0.0137975 0.017534 0.0220684 0.0275225 0.0340279 0.0417254 0.050765 0.0613046 0.0735095 0.0875516 0.103608 0.12186 0.142493 0.165693 0.191648 0.220545 0.25257 0.287904 0.326727 0.369213 0.415528 0.465833 0.520281 0.579015 0.642169 0.709867 0.782222 0.859336 0.9413 1.02819 1.12008 1.21702 1.31904 1.4262 1.53849 1.65593 1.77851 1.90622 2.03903 2.1769 2.31978 2.46762 2.62034 2.77788 2.94015 3.10706 3.2785 3.45438 3.63458 3.81898 4.00746 4.19989 4.39613 4.59607 4.79955 5.00643 5.21657 5.42983 5.64605 5.86509 6.0868 6.31104 6.53764 6.76646 6.99736 7.23018 7.46478 7.70102 7.93874 8.17781 8.41809 8.65944 8.90173 9.14482 9.38858 9.63289 9.87761 10.1226 10.3678 10.6131 10.8583 11.1034 11.3482 11.5926 11.8365 12.0799 12.3226 12.5646 12.8057 13.0459 13.2851 13.5232 13.7602 13.9959 14.2303 14.4634 14.695 14.9252 15.1538 15.3808 15.6061 15.8298 16.0517 16.2718 16.4901 16.7065 16.921 17.1335 17.3441 17.5527 17.7592 17.9637 18.166 18.3663 18.5645 18.7605 18.9543 19.146 19.3354 19.5227 19.7078 19.8906 20.0712 20.2495 20.4257 20.5995 20.7712 20.9405 21.1077 21.2726 21.4352 21.5956 21.7538 21.9097 22.0634 22.2148 22.3641 22.5112 22.656 22.7987 22.9392 23.0775 23.2137 23.3477 23.4796 23.6093 23.737 23.8626 23.9861 24.1075 24.2269 24.3442 24.4596 24.5729 24.6842 24.7936 24.901 25.0065 25.1101 25.2117 25.3115 25.4094 25.5054 25.5997 25.6921 25.7827 25.8715 25.9586 26.0439 26.1275 26.2094 26.2896 26.3681 26.445 26.5202 26.5938 26.6659 26.7363 26.8052 26.8725 26.9384 27.0027 27.0655 27.1268 27.1867 27.2452 27.3022 27.3578 27.4121 27.4649 27.5164 27.5666 27.6155 27.6631 27.7094 27.7544 27.7981 27.8407 27.882 27.9221 27.961 27.9988 28.0354 28.0708 28.1052 28.1384 28.1705 28.2016 28.2315 28.2605 28.2884 28.3153 28.3411 28.366 28.3899 28.4128 28.4348 28.4559 28.476 28.4952 28.5135 28.5309 28.5475 28.5632 28.578 28.592 28.6052
0 0 0 0 0 0 0 0 0 0 0 0 0 0 0 0 0 0 0 0 0 0 0 0 0 0 0 0 0 0 0 0 0 1.98606e-312 9.14929e-247 9.33105e-200 6.01377e-165 1.88315e-138 8.1279e-118 1.97127e-101 3.3259e-88 2.26029e-77 2.17264e-68 7.39393e-61 1.76376e-54 4.94491e-49 2.42351e-44 2.82819e-40 1.00249e-36 1.31027e-33 7.38078e-31 2.03373e-28 3.0406e-26 2.68684e-24 1.50663e-22 5.68948e-21 1.52115e-19 3.00402e-18 4.5428e-17 5.42536e-16 5.25452e-15 4.22258e-14 2.87198e-13 1.68209e-12 8.61256e-12 3.90645e-11 1.58803e-10 5.84551e-10 1.9662e-09 6.09237e-09 1.75155e-08 4.70244e-08 1.18574e-07 2.82268e-07 6.37314e-07 1.37051e-06 2.81763e-06 5.5571e-06 1.05467e-05 1.9316e-05 3.42261e-05 5.88104e-05 9.82053e-05 0.000159679 0.00025326 0.00039247 0.000595145 0.000884334 0.00128927 0.00184636 0.00260021 0.00360459 0.00492342 0.00663156 0.0088156 0.0115744 0.0150197 0.0192759 0.0244808 0.0307848 0.0383509 0.0473539 0.0579799 0.070425 0.0848944 0.101601 0.120765 0.142609 0.167362 0.195253 0.226511 0.261364 0.300036 0.342749 0.389715 0.441141 0.497224 0.558151 0.624098 0.695229 0.771695 0.853632 0.941163 1.0344 1.13342 1.23832 1.34916 1.46597 1.58879 1.71764 1.85251 1.99339 2.14026 2.29307 2.45176 2.61628 2.78653 2.96242 3.14386 3.33074 3.52292 3.72028 3.92269 4.12999 4.34204 4.55867 4.77973 5.00505 5.23445 5.46775 5.7048 5.94539 6.18935 6.43651 6.68667 6.93965 7.19527 7.45334 7.71369 7.97614 8.2405 8.5066 8.77427 9.04333 9.31362 9.58497 9.85722 10.1302 10.4038 10.6778 10.9521 11.2265 11.5009 11.7752 12.0492 12.3228 12.5959 12.8683 13.14 13.4108 13.6807 13.9494 14.217 14.4832 14.7482 15.0116 15.2735 15.5338 15.7924 16.0492 16.3042 16.5572 16.8083 17.0574 17.3043 17.5492 17.7918 18.0322 18.2704 18.5062 18.7397 18.9708 19.1994 19.4256 19.6494 19.8706 20.0893 20.3054 20.519 20.73 20.9385 21.1443 21.3475 21.548 21.746 21.9413 22.1339 22.324 22.5113 22.6961 22.8782 23.0576 23.2345 23.4087 23.5803 23.7492 23.9156 24.0794 24.2406 24.3992 24.5553 24.7089 24.8599 25.0084 25.1544 25.2979 25.439 25.5776 25.7137 25.8475 25.9789 26.1079 26.2345 26.3588 26.4808 26.6005 26.7179 26.8331 26.946 27.0568 27.1653 27.2717 27.3759 27.478 27.578 27.6759 27.7718 27.8656 27.9574 28.0472 28.1351 28.221 28.305 28.3871 28.4673 28.5456 28.6221 28.6968 28.7697 28.8409 28.9103 28.978 29.0439 29.1082 29.1709 29.2319 29.2912 29.349 29.4052 29.4599 29.513 29.5646 29.6148 29.6634 29.7106 29.7564 29.8007 29.8437 29.8853 29.9255 29.9644 30.002 30.0383 30.0733 30.107 30.1395 30.1708 30.2009 30.2298 30.2575 30.2841 30.3095 30.3338 30.357 30.3791 30.4002 30.4201 30.4391 30.457 30.4739 30.4899 30.5048 30.5188 30.5319 30.544 30.5552 30.5655 30.5749 30.5834 30.5911 30.5979 30.6039 30.609 30.6134 30.617 30.6197
0 0 0 0 0 0 0 0 0 0 0 0 0 0 0 0 0 0 0 0 0 0 0 0 0 0 0 0 0 0 0 0 0 4.10637e-287 1.00718e-226 1.72035e-183 1.77101e-151 4.11904e-127 3.90176e-108 4.55674e-93 6.63708e-81 6.06315e-71 1.10282e-62 9.28749e-56 6.78708e-50 6.9233e-45 1.42024e-40 7.78507e-37 1.42644e-33 1.0442e-30 3.52498e-28 6.16522e-26 6.14563e-24 3.77721e-22 1.52809e-20 4.29779e-19 8.79926e-18 1.36355e-16 1.65317e-15 1.61328e-14 1.29847e-13 8.80299e-13 5.1195e-12 2.59492e-11 1.16238e-10 4.65788e-10 1.68769e-09 5.58174e-09 1.69923e-08 4.79697e-08 1.26412e-07 3.12813e-07 7.30715e-07 1.61898e-06 3.41675e-06 6.89506e-06 1.33512e-05 2.48845e-05 4.47709e-05 7.79559e-05 0.000131677 0.000216228 0.000345867 0.000539855 0.000823629 0.00123006 0.00180081 0.00258765 0.00365385 0.00507545 0.00694245 0.0093598 0.0124483 0.0163451 0.0212041 0.027196 0.0345082 0.0433438 0.0539213 0.0664734 0.0812453 0.0984935 0.118484 0.14149 0.16779 0.197667 0.231403 0.269279 0.311576 0.358565 0.410513 0.467675 0.530296 0.598608 0.672829 0.753161 0.839789 0.932879 1.03258 1.13902 1.25231 1.37254 1.49978 1.63408 1.77547 1.92396 2.07953 2.24216 2.41182 2.58842 2.77189 2.96215 3.15907 3.36253 3.57239 3.78851 4.01073 4.23887 4.47275 4.71218 4.95697 5.20692 5.46181 5.72143 5.98557 6.254 6.5265 6.80284 7.08281 7.36617 7.65269 7.94215 8.23433 8.529 8.82595 9.12495 9.42578 9.72825 10.0321 10.3372 10.6433 10.9503 11.2578 11.5658 11.8741 12.1824 12.4906 12.7986 13.1062 13.4132 13.7195 14.0249 14.3293 14.6326 14.9345 15.2351 15.5342 15.8317 16.1274 16.4212 16.7132 17.0031 17.2909 17.5764 17.8597 18.1406 18.4191 18.6951 18.9686 19.2394 19.5075 19.7729 20.0356 20.2954 20.5523 20.8064 21.0575 21.3057 21.5509 21.7931 22.0322 22.2683 22.5013 22.7313 22.9581 23.1818 23.4024 23.6199 23.8343 24.0456 24.2537 24.4587 24.6606 24.8594 25.0551 25.2477 25.4372 25.6236 25.807 25.9873 26.1646 26.3389 26.5102 26.6785 26.8438 27.0062 27.1656 27.3222 27.4759 27.6267 27.7747 27.9199 28.0623 28.2019 28.3388 28.4729 28.6044 28.7332 28.8594 28.983 29.104 29.2224 29.3383 29.4517 29.5627 29.6712 29.7772 29.8809 29.9822 30.0812 30.1779 30.2723 30.3644 30.4544 30.5421 30.6276 30.7111 30.7924 30.8716 30.9487 31.0239 31.097 31.1681 31.2373 31.3046 31.3699 31.4334 31.4951 31.5549 31.6129 31.6692 31.7237 31.7765 31.8276 31.8771 31.9248 31.971 32.0156 32.0586 32.1 32.1399 32.1783 32.2153 32.2507 32.2848 32.3174 32.3486 32.3785 32.407 32.4342 32.46 32.4846 32.5079 32.53 32.5508 32.5705 32.5889 32.6062 32.6223 32.6373 32.6511 32.6639 32.6756 32.6863 32.6959 32.7044 32.712 32.7186 32.7242 32.7288 32.7325 32.7353 32.7371 32.7381 32.7382 32.7374 32.7358 32.7333 32.73 32.7259 32.7211 32.7154 32.709 32.7018 32.6939 32.6852
0 0 0 0 0 0 0 0 0 0 0 0 0 0 0 0 0 0 0 0 0 0 0 0 0 0 0 0 0 0 0 0 0 7.10675e-263 1.55591e-207 6.44384e-168 1.39361e-138 2.96591e-116 7.25392e-99 4.64143e-85 6.47744e-74 8.66319e-65 3.2006e-57 7.0785e-51 1.66652e-45 6.45708e-41 5.75364e-37 1.52983e-33 1.49023e-30 6.26242e-28 1.29482e-25 1.46555e-23 9.90974e-22 4.30229e-20 1.27328e-18 2.70082e-17 4.28282e-16 5.26173e-15 5.16284e-14 4.15239e-13 2.79937e-12 1.6127e-11 8.07303e-11 3.56316e-10 1.40434e-09 4.99792e-09 1.622e-08 4.84192e-08 1.33974e-07 3.4595e-07 8.38748e-07 1.91967e-06 4.16772e-06 8.62062e-06 1.70546e-05 3.23845e-05 5.92118e-05 0.000104545 0.000178713 0.000296481 0.00047837 0.000752159 0.00115456 0.00173299 0.00254743 0.0036723 0.00519818 0.00723356 0.00990618 0.0133643 0.0177774 0.0233369 0.0302559 0.0387693 0.0491324 0.0616204 0.0765263 0.0941592 0.114842 0.13891 0.166704 0.198575 0.234873 0.27595 0.322154 0.373826 0.431299 0.494894 0.564918 0.641662 0.725397 0.816374 0.914823 1.02095 1.13493 1.25694 1.38708 1.52548 1.6722 1.82731 1.99082 2.16275 2.34305 2.53169 2.7286 2.93368 3.14682 3.36789 3.59673 3.83318 4.07705 4.32813 4.58622 4.8511 5.12252 5.40023 5.68399 5.97353 6.26859 6.56889 6.87415 7.1841 7.49846 7.81693 8.13925 8.46513 8.79428 9.12644 9.46132 9.79865 10.1382 10.4796 10.8227 11.1672 11.5129 11.8594 12.2067 12.5544 12.9023 13.2502 13.5979 13.9452 14.2919 14.6378 14.9828 15.3265 15.6689 16.0099 16.3492 16.6867 17.0222 17.3557 17.687 18.016 18.3425 18.6665 18.9878 19.3064 19.6221 19.9349 20.2447 20.5514 20.8549 21.1552 21.4523 21.746 22.0363 22.3232 22.6066 22.8864 23.1627 23.4355 23.7046 23.9701 24.2319 24.4901 24.7446 24.9953 25.2424 25.4858 25.7254 25.9614 26.1936 26.4221 26.6469 26.8681 27.0855 27.2993 27.5094 27.7159 27.9187 28.118 28.3136 28.5057 28.6943 28.8794 29.0609 29.239 29.4137 29.5849 29.7527 29.9172 30.0784 30.2363 30.3909 30.5423 30.6905 30.8355 30.9774 31.1162 31.2519 31.3846 31.5142 31.641 31.7647 31.8856 32.0037 32.1189 32.2313 32.3409 32.4478 32.5521 32.6536 32.7526 32.849 32.9428 33.0341 33.123 33.2093 33.2933 33.3749 33.4542 33.5311 33.6057 33.6782 33.7484 33.8164 33.8822 33.946 34.0076 34.0673 34.1248 34.1804 34.2341 34.2858 34.3356 34.3835 34.4296 34.4739 34.5164 34.5571 34.5961 34.6334 34.669 34.703 34.7354 34.7662 34.7954 34.8231 34.8492 34.8739 34.8971 34.9189 34.9392 34.9582 34.9758 34.992 35.0069 35.0206 35.0329 35.044 35.0539 35.0625 35.07 35.0763 35.0814 35.0855 35.0884 35.0902 35.091 35.0907 35.0894 35.087 35.0837 35.0794 35.0741 35.068 35.0608 35.0528 35.0439 35.0341 35.0235 35.012 34.9997 34.9866 34.9727 34.958 34.9425 34.9264 34.9094 34.8918 34.8734 34.8544 34.8347 34.8143 34.7932
0 0 0 0 0 0 0 0 0 0 0 0 0 0 0 0 0 0 0 0 0 0 0 0 0 0 0 0 0 0 0 0 2.48179e-313 1.02951e-239 3.37307e-189 4.90362e-153 2.9303e-126 7.03025e-106 5.22294e-90 2.08323e-77 3.09164e-67 6.59329e-59 5.31094e-52 3.27344e-46 2.61107e-41 4.01169e-37 1.61133e-33 2.14611e-30 1.14307e-27 2.82641e-25 3.65812e-23 2.7318e-21 1.27482e-19 3.97033e-18 8.71629e-17 1.41197e-15 1.75397e-14 1.72614e-13 1.38367e-12 9.25111e-12 5.26521e-11 2.59624e-10 1.12619e-09 4.35493e-09 1.5188e-08 4.82599e-08 1.40971e-07 3.81562e-07 9.63674e-07 2.2852e-06 5.1162e-06 1.08679e-05 2.2001e-05 4.26144e-05 7.92568e-05 0.000141997 0.000245779 0.000412071 0.000670808 0.00106258 0.00164103 0.00247539 0.00365305 0.00528204 0.0074934 0.0104432 0.0143144 0.0193178 0.0256928 0.0337077 0.0436591 0.0558707 0.0706917 0.0884946 0.109672 0.134634 0.163805 0.197617 0.23651 0.280926 0.331301 0.388068 0.451648 0.522447 0.600854 0.687235 0.781934 0.885267 0.997521 1.11895 1.24979 1.39021 1.54039 1.70044 1.87045 2.05047 2.24052 2.44059 2.65064 2.87058 3.10031 3.3397 3.58858 3.84678 4.11407 4.39024 4.67502 4.96816 5.26936 5.57834 5.89477 6.21834 6.54872 6.88557 7.22854 7.57729 7.93146 8.2907 8.65466 9.02297 9.3953 9.77128 10.1506 10.5328 10.9177 11.3049 11.694 12.0848 12.477 12.8701 13.264 13.6584 14.0529 14.4474 14.8414 15.2349 15.6274 16.0189 16.4091 16.7977 17.1846 17.5696 17.9524 18.3329 18.7109 19.0863 19.4589 19.8286 20.1951 20.5585 20.9185 21.2751 21.6282 21.9776 22.3233 22.6651 23.003 23.337 23.6669 23.9927 24.3144 24.6318 24.945 25.2539 25.5585 25.8587 26.1545 26.446 26.733 27.0156 27.2938 27.5675 27.8367 28.1016 28.3619 28.6179 28.8694 29.1165 29.3592 29.5976 29.8316 30.0612 30.2865 30.5076 30.7243 30.9369 31.1452 31.3494 31.5494 31.7453 31.9372 32.125 32.3088 32.4887 32.6646 32.8367 33.0049 33.1693 33.33 33.487 33.6402 33.7899 33.936 34.0785 34.2175 34.353 34.4852 34.614 34.7394 34.8616 34.9805 35.0963 35.2089 35.3183 35.4248 35.5282 35.6286 35.7261 35.8207 35.9124 36.0014 36.0876 36.1711 36.2519 36.33 36.4056 36.4786 36.549 36.617 36.6826 36.7458 36.8066 36.8651 36.9213 36.9753 37.027 37.0766 37.124 37.1694 37.2127 37.2539 37.2932 37.3305 37.3659 37.3994 37.431 37.4608 37.4888 37.515 37.5396 37.5624 37.5835 37.603 37.6209 37.6372 37.6519 37.6652 37.6769 37.6871 37.696 37.7034 37.7094 37.714 37.7173 37.7193 37.72 37.7195 37.7177 37.7147 37.7105 37.7051 37.6986 37.691 37.6822 37.6724 37.6615 37.6496 37.6366 37.6227 37.6078 37.5919 37.5751 37.5574 37.5387 37.5192 37.4988 37.4776 37.4555 37.4326 37.4089 37.3845 37.3593 37.3333 37.3066 37.2792 37.2511 37.2222 37.1928 37.1626 37.1319 37.1005 37.0684 37.0358 37.0026 36.9688 36.9345
0 0 0 0 0 0 0 0 0 0 0 0 0 0 0 0 0 0 0 0 0 0 0 0 0 0 0 0 0 0 0 0 1.52058e-284 1.24834e-217 1.02619e-171 7.58109e-139 1.64637e-114 5.48573e-96 1.45643e-81 4.12014e-70 7.21662e-61 2.67283e-53 5.03876e-47 9.18519e-42 2.61043e-37 1.6603e-33 3.11955e-30 2.14926e-27 6.43748e-25 9.59983e-23 7.94886e-21 3.99298e-19 1.30834e-17 2.9686e-16 4.90198e-15 6.14088e-14 6.044e-13 4.81411e-12 3.18238e-11 1.78401e-10 8.6397e-10 3.67289e-09 1.38978e-08 4.73764e-08 1.47039e-07 4.19352e-07 1.10798e-06 2.73158e-06 6.3239e-06 1.38261e-05 2.86904e-05 5.67609e-05 0.000107493 0.000195567 0.000342925 0.00058125 0.000954838 0.00152383 0.00236767 0.00358873 0.00531582 0.00770756 0.0109554 0.0152861 0.0209634 0.0282893 0.0376041 0.0492856 0.0637476 0.0814375 0.102833 0.128437 0.158776 0.19439 0.235833 0.283661 0.33843 0.400692 0.470984 0.549825 0.637714 0.735119 0.842479 0.960197 1.08864 1.22812 1.37893 1.54131 1.71543 1.90145 2.09946 2.30952 2.53162 2.76575 3.01181 3.26969 3.53923 3.82024 4.1125 4.41573 4.72966 5.05397 5.38832 5.73235 6.08568 6.44792 6.81866 7.19747 7.58393 7.97759 8.37801 8.78475 9.19735 9.61536 10.0383 10.4658 10.8974 11.3326 11.771 12.2122 12.6558 13.1014 13.5485 13.9968 14.4459 14.8955 15.3452 15.7946 16.2434 16.6914 17.1382 17.5834 18.027 18.4684 18.9076 19.3443 19.7782 20.2092 20.6369 21.0613 21.4822 21.8992 22.3124 22.7216 23.1265 23.5272 23.9233 24.315 24.7019 25.0841 25.4615 25.8339 26.2013 26.5637 26.9209 27.273 27.6198 27.9614 28.2977 28.6287 28.9544 29.2747 29.5897 29.8993 30.2036 30.5025 30.796 31.0842 31.3671 31.6447 31.917 32.184 32.4458 32.7023 32.9538 33.2 33.4412 33.6773 33.9084 34.1345 34.3556 34.5719 34.7833 34.9899 35.1918 35.389 35.5815 35.7695 35.9529 36.1318 36.3062 36.4763 36.6421 36.8036 36.9608 37.1139 37.2629 37.4079 37.5489 37.6859 37.819 37.9484 38.0739 38.1958 38.3139 38.4285 38.5396 38.6471 38.7512 38.8519 38.9493 39.0434 39.1343 39.222 39.3066 39.3881 39.4667 39.5422 39.6148 39.6846 39.7515 39.8157 39.8772 39.936 39.9921 40.0457 40.0967 40.1453 40.1914 40.2351 40.2765 40.3155 40.3523 40.3868 40.4192 40.4494 40.4775 40.5035 40.5275 40.5496 40.5696 40.5878 40.6041 40.6185 40.6311 40.642 40.6511 40.6585 40.6643 40.6684 40.6709 40.6719 40.6713 40.6692 40.6656 40.6606 40.6541 40.6463 40.6371 40.6266 40.6148 40.6017 40.5873 40.5717 40.5549 40.537 40.5179 40.4976 40.4763 40.4539 40.4304 40.4059 40.3804 40.3539 40.3265 40.2981 40.2688 40.2385 40.2074 40.1755 40.1427 40.109 40.0746 40.0394 40.0034 39.9666 39.9291 39.8909 39.8521 39.8125 39.7722 39.7313 39.6898 39.6477 39.6049 39.5616 39.5176 39.4731 39.4281 39.3826 39.3365 39.2899 39.2428 39.1952 39.1472 39.0987
0 0 0 0 0 0 0 0 0 0 0 0 0 0 0 0 0 0 0 0 0 0 0 0 0 0 0 0 0 0 0 0 3.67279e-257 1.26703e-196 4.38116e-155 2.38117e-125 2.47169e-103 1.40912e-86 1.57287e-73 3.59068e-63 8.23829e-55 5.77148e-48 2.7333e-42 1.56384e-37 1.66528e-33 4.57733e-30 4.17505e-27 1.53657e-24 2.66183e-22 2.45373e-20 1.32846e-18 4.57659e-17 1.07123e-15 1.79836e-14 2.26487e-13 2.22185e-12 1.75241e-11 1.14142e-10 6.28124e-10 2.97787e-09 1.23683e-08 4.56604e-08 1.51722e-07 4.58752e-07 1.2743e-06 3.27919e-06 7.87508e-06 1.77649e-05 3.78602e-05 7.66192e-05 0.000147911 0.000273484 0.000486084 0.000833208 0.00138143 0.00222121 0.00347188 0.00528682 0.00785828 0.0114218 0.0162601 0.0227053 0.0311411 0.0420028 0.0557763 0.0729957 0.0942397 0.120127 0.151309 0.188466 0.232295 0.283507 0.342814 0.410924 0.488531 0.576308 0.6749 0.784915 0.906919 1.04143 1.18893 1.34981 1.52444 1.71311 1.91605 2.13344 2.36537 2.6119 2.87302 3.14865 3.43867 3.74289 4.06109 4.39298 4.73825 5.09654 5.46744 5.85052 6.24534 6.65139 7.06817 7.49516 7.93181 8.37757 8.83186 9.29413 9.76379 10.2403 10.723 11.2114 11.7049 12.2029 12.705 13.2104 13.7188 14.2296 14.7422 15.2562 15.7712 16.2866 16.8019 17.3169 17.831 18.3438 18.855 19.3643 19.8711 20.3753 20.8765 21.3744 21.8687 22.3592 22.8456 23.3276 23.8051 24.2778 24.7456 25.2082 25.6655 26.1174 26.5636 27.0042 27.4388 27.8676 28.2903 28.7068 29.1172 29.5212 29.919 30.3103 30.6953 31.0737 31.4457 31.8112 32.1702 32.5227 32.8686 33.208 33.541 33.8674 34.1874 34.501 34.8081 35.1089 35.4033 35.6915 35.9734 36.2491 36.5186 36.7821 37.0395 37.2909 37.5363 37.7759 38.0097 38.2378 38.4602 38.6769 38.8881 39.0939 39.2942 39.4892 39.6789 39.8634 40.0428 40.2172 40.3866 40.551 40.7106 40.8655 41.0156 41.1612 41.3022 41.4387 41.5708 41.6985 41.822 41.9413 42.0565 42.1677 42.2748 42.378 42.4774 42.573 42.6648 42.7531 42.8377 42.9188 42.9964 43.0707 43.1416 43.2093 43.2737 43.335 43.3932 43.4484 43.5005 43.5498 43.5962 43.6398 43.6807 43.7188 43.7543 43.7872 43.8176 43.8455 43.8709 43.894 43.9147 43.9331 43.9493 43.9632 43.975 43.9847 43.9924 43.998 44.0016 44.0033 44.003 44.001 43.9971 43.9914 43.984 43.9748 43.964 43.9516 43.9376 43.922 43.9049 43.8863 43.8663 43.8448 43.822 43.7977 43.7722 43.7453 43.7172 43.6878 43.6572 43.6255 43.5925 43.5585 43.5233 43.4871 43.4498 43.4115 43.3722 43.3319 43.2906 43.2485 43.2054 43.1614 43.1166 43.0709 43.0244 42.9772 42.9291 42.8803 42.8307 42.7804 42.7294 42.6778 42.6254 42.5725 42.5188 42.4646 42.4098 42.3544 42.2984 42.2419 42.1849 42.1273 42.0693 42.0107 41.9517 41.8922 41.8323 41.7719 41.7111 41.6499 41.5884 41.5264 41.4641 41.4014 41.3383 41.275
0 0 0 0 0 0 0 0 0 0 0 0 0 0 0 0 0 0 0 0 0 0 0 0 0 0 0 0 0 0 0 4.62445e-315 3.49726e-231 1.07642e-176 2.6249e-139 1.51947e-112 9.91533e-93 1.19155e-77 6.5785e-66 1.37889e-56 4.59938e-49 6.63816e-43 8.47742e-38 1.61553e-33 6.77871e-30 8.40634e-27 3.86273e-24 7.8423e-22 8.08106e-20 4.71982e-18 1.70762e-16 4.11324e-15 6.99741e-14 8.82674e-13 8.597e-12 6.68769e-11 4.27522e-10 2.30074e-09 1.06393e-08 4.30252e-08 1.54471e-07 4.98819e-07 1.46526e-06 3.95393e-06 9.88593e-06 2.30754e-05 5.06175e-05 0.000104957 0.000206788 0.000388904 0.00070103 0.00121561 0.0020344 0.00329558 0.00518118 0.00792423 0.0118154 0.0172087 0.0245253 0.0342568 0.0469651 0.0632813 0.0839021 0.109584 0.141138 0.179416 0.225306 0.279717 0.343571 0.417786 0.503268 0.600899 0.711525 0.835944 0.974901 1.12908 1.29908 1.48545 1.68864 1.90903 2.1469 2.40245 2.6758 2.96699 3.27597 3.60261 3.94672 4.30802 4.68618 5.08079 5.49141 5.91752 6.35858 6.81398 7.28311 7.76529 8.25986 8.76609 9.28327 9.81067 10.3475 10.8931 11.4467 12.0075 12.5748 13.1478 13.7259 14.3084 14.8945 15.4835 16.0748 16.6678 17.2619 17.8564 18.4507 19.0444 19.6368 20.2275 20.816 21.4018 21.9845 22.5637 23.1389 23.7098 24.276 24.8372 25.3932 25.9435 26.488 27.0264 27.5584 28.0839 28.6026 29.1144 29.6191 30.1166 30.6067 31.0893 31.5644 32.0318 32.4914 32.9432 33.3871 33.8231 34.2512 34.6712 35.0833 35.4874 35.8836 36.2717 36.6519 37.0241 37.3884 37.7449 38.0935 38.4343 38.7674 39.0929 39.4107 39.721 40.0238 40.3192 40.6072 40.888 41.1616 41.4281 41.6876 41.9402 42.1859 42.4249 42.6572 42.883 43.1023 43.3151 43.5217 43.7221 43.9163 44.1046 44.2869 44.4634 44.6342 44.7993 44.9589 45.113 45.2618 45.4053 45.5436 45.6769 45.8051 45.9285 46.047 46.1608 46.27 46.3746 46.4747 46.5705 46.6619 46.7491 46.8323 46.9113 46.9864 47.0575 47.1249 47.1885 47.2485 47.3048 47.3577 47.4071 47.4531 47.4958 47.5353 47.5716 47.6049 47.635 47.6623 47.6866 47.708 47.7267 47.7427 47.756 47.7667 47.7749 47.7805 47.7838 47.7847 47.7832 47.7795 47.7735 47.7654 47.7551 47.7428 47.7285 47.7122 47.694 47.6738 47.6519 47.6281 47.6026 47.5754 47.5465 47.516 47.4839 47.4502 47.4151 47.3784 47.3403 47.3008 47.26 47.2178 47.1743 47.1296 47.0836 47.0364 46.988 46.9385 46.8879 46.8362 46.7834 46.7297 46.6749 46.6192 46.5625 46.5049 46.4464 46.387 46.3268 46.2658 46.2039 46.1413 46.078 46.0139 45.9491 45.8836 45.8175 45.7507 45.6833 45.6153 45.5467 45.4775 45.4077 45.3375 45.2667 45.1954 45.1236 45.0514 44.9787 44.9056 44.832 44.758 44.6837 44.609 44.5339 44.4584 44.3827 44.3066 44.2301 44.1534 44.0764 43.9992 43.9216 43.8438 43.7658 43.6875 43.6091 43.5304 43.4515
0 0 0 0 0 0 0 0 0 0 0 0 0 0 0 0 0 0 0 0 0 0 0 0 0 0 0 0 0 0 0 1.11583e-281 1.31282e-206 7.65465e-158 2.20697e-124 1.96986e-100 1.06284e-82 3.31686e-69 1.0656e-58 2.33331e-50 1.2558e-43 4.06681e-38 1.50332e-33 1.01265e-29 1.76072e-26 1.02842e-23 2.47053e-21 2.85734e-19 1.80127e-17 6.83219e-16 1.68823e-14 2.89884e-13 3.64652e-12 3.51012e-11 2.68092e-10 1.67462e-09 8.77587e-09 3.94256e-08 1.54653e-07 5.38081e-07 1.68311e-06 4.78868e-06 1.25182e-05 3.0333e-05 6.86544e-05 0.000146126 0.000294217 0.000563324 0.00103041 0.00180805 0.00305455 0.00498469 0.00788048 0.0121013 0.0180923 0.0263917 0.0376342 0.0525526 0.0719754 0.0968219 0.128094 0.166864 0.214262 0.271461 0.339659 0.420061 0.513864 0.622236 0.746302 0.887128 1.04571 1.22294 1.41964 1.63652 1.87417 2.13307 2.41358 2.71594 3.04029 3.38663 3.75486 4.14477 4.55606 4.98831 5.44103 5.91366 6.40553 6.91595 7.44413 7.98925 8.55045 9.12683 9.71745 10.3214 10.9376 11.5653 12.2032 12.8506 13.5064 14.1697 14.8395 15.5148 16.1948 16.8786 17.5653 18.254 18.9439 19.6343 20.3245 21.0135 21.7009 22.3859 23.0679 23.7463 24.4205 25.09 25.7543 26.413 27.0655 27.7116 28.3507 28.9826 29.6068 30.2232 30.8315 31.4313 32.0225 32.6048 33.1781 33.7422 34.297 34.8423 35.378 35.9041 36.4204 36.9269 37.4236 37.9104 38.3874 38.8544 39.3115 39.7588 40.1962 40.6238 41.0416 41.4498 41.8482 42.2371 42.6164 42.9863 43.3468 43.6981 44.0402 44.3732 44.6972 45.0124 45.3188 45.6165 45.9057 46.1865 46.459 46.7233 46.9795 47.2278 47.4682 47.701 47.9261 48.1438 48.3542 48.5574 48.7535 48.9427 49.125 49.3005 49.4695 49.6321 49.7883 49.9382 50.0821 50.2199 50.3519 50.4781 50.5987 50.7137 50.8233 50.9276 51.0267 51.1207 51.2098 51.2939 51.3733 51.4479 51.518 51.5837 51.6449 51.7019 51.7546 51.8033 51.848 51.8887 51.9256 51.9588 51.9883 52.0143 52.0367 52.0558 52.0715 52.084 52.0933 52.0995 52.1026 52.1028 52.1002 52.0947 52.0865 52.0755 52.062 52.046 52.0274 52.0064 51.9831 51.9575 51.9296 51.8995 51.8673 51.833 51.7967 51.7584 51.7182 51.6762 51.6323 51.5866 51.5392 51.4902 51.4395 51.3872 51.3334 51.278 51.2212 51.163 51.1034 51.0425 50.9802 50.9167 50.8519 50.786 50.7189 50.6507 50.5813 50.511 50.4396 50.3671 50.2938 50.2194 50.1442 50.0681 49.9912 49.9134 49.8348 49.7554 49.6753 49.5945 49.513 49.4308 49.348 49.2645 49.1804 49.0957 49.0105 48.9247 48.8384 48.7517 48.6644 48.5766 48.4884 48.3998 48.3108 48.2214 48.1316 48.0414 47.9509 47.86 47.7689 47.6774 47.5857 47.4937 47.4014 47.3089 47.2162 47.1233 47.0301 46.9368 46.8432 46.7495 46.6557 46.5617 46.4675 46.3733 46.2789 46.1844 46.0898 45.9952 45.9005 45.8057 45.7108 45.6159
0 0 0 0 0 0 0 0 0 0 0 0 0 0 0 0 0 0 0 0 0 0 0 0 0 0 0 0 0 0 0 3.33149e-250 1.94278e-183 4.55632e-140 2.604e-110 5.18828e-89 3.04423e-73 3.03943e-61 6.68479e-52 1.73981e-44 1.67687e-38 1.32711e-33 1.52424e-29 3.85146e-26 2.9182e-23 8.38107e-21 1.09232e-18 7.43204e-17 2.94788e-15 7.44267e-14 1.28372e-12 1.602e-11 1.51603e-10 1.13095e-09 6.86834e-09 3.48845e-08 1.51576e-07 5.74356e-07 1.92919e-06 5.82477e-06 1.59995e-05 4.03979e-05 9.461e-05 0.000207127 0.000426801 0.000832726 0.00154652 0.00274667 0.00468425 0.00769918 0.0122358 0.0188565 0.0282529 0.0412524 0.0588204 0.0820579 0.112193 0.150569 0.198625 0.257879 0.329899 0.416281 0.518621 0.63849 0.777406 0.936813 1.11805 1.32236 1.55082 1.8044 2.08387 2.38987 2.72287 3.08316 3.47086 3.88596 4.32826 4.79741 5.29296 5.81429 6.36067 6.93128 7.52518 8.14136 8.77874 9.43617 10.1124 10.8063 11.5166 12.2419 12.9809 13.7324 14.4951 15.2676 16.0487 16.8371 17.6316 18.4311 19.2343 20.0401 20.8475 21.6553 22.4627 23.2686 24.0721 24.8724 25.6686 26.46 27.2458 28.0253 28.798 29.5631 30.3202 31.0687 31.8082 32.5381 33.2582 33.9681 34.6673 35.3557 36.0329 36.6987 37.3529 37.9954 38.6259 39.2444 39.8507 40.4448 41.0266 41.596 42.1531 42.6977 43.23 43.7499 44.2575 44.7529 45.236 45.7071 46.166 46.6131 47.0482 47.4717 47.8835 48.2838 48.6727 49.0504 49.4171 49.7727 50.1176 50.4518 50.7756 51.089 51.3922 51.6854 51.9688 52.2425 52.5066 52.7614 53.007 53.2436 53.4713 53.6904 53.9009 54.103 54.297 54.4829 54.6609 54.8312 54.9939 55.1492 55.2973 55.4383 55.5723 55.6996 55.8202 55.9342 56.042 56.1435 56.2389 56.3284 56.4121 56.4902 56.5626 56.6297 56.6915 56.7482 56.7998 56.8465 56.8883 56.9256 56.9582 56.9864 57.0103 57.0299 57.0454 57.0568 57.0644 57.0681 57.0681 57.0645 57.0573 57.0466 57.0327 57.0154 56.995 56.9714 56.9449 56.9154 56.8831 56.848 56.8102 56.7697 56.7267 56.6812 56.6333 56.5831 56.5305 56.4758 56.4189 56.3599 56.2989 56.2359 56.171 56.1042 56.0356 55.9653 55.8933 55.8196 55.7443 55.6675 55.5892 55.5095 55.4283 55.3458 55.2619 55.1768 55.0905 55.0029 54.9142 54.8244 54.7335 54.6416 54.5487 54.4548 54.3599 54.2642 54.1676 54.0701 53.9719 53.8728 53.773 53.6726 53.5714 53.4695 53.367 53.2639 53.1603 53.056 52.9512 52.8459 52.7402 52.6339 52.5272 52.4201 52.3126 52.2047 52.0965 51.9879 51.879 51.7697 51.6602 51.5504 51.4404 51.3301 51.2196 51.1089 50.998 50.8869 50.7757 50.6643 50.5528 50.4412 50.3294 50.2176 50.1057 49.9937 49.8816 49.7696 49.6574 49.5453 49.4331 49.3209 49.2088 49.0966 48.9845 48.8724 48.7604 48.6484 48.5365 48.4246 48.3128 48.2011 48.0895 47.978 47.8666 47.7553
0 0 0 0 0 0 0 0 0 0 0 0 0 0 0 0 0 0 0 0 0 0 0 0 0 0 0 0 0 0 0 1.23055e-220 1.13341e-161 2.27013e-123 4.31169e-97 2.77622e-78 2.32989e-64 9.16872e-54 1.6241e-45 5.7164e-39 1.09506e-33 2.30676e-29 8.83618e-26 8.88814e-23 3.0862e-20 4.54985e-18 3.33865e-16 1.38001e-14 3.54213e-13 6.10145e-12 7.50769e-11 6.94222e-10 5.02838e-09 2.95232e-08 1.44561e-07 6.04543e-07 2.20283e-06 7.11335e-06 2.06523e-05 5.4578e-05 0.000132687 0.000299483 0.00063255 0.00125891 0.00237513 0.00427043 0.00735135 0.0121662 0.0194273 0.0300291 0.0450598 0.065806 0.0937491 0.130553 0.178045 0.238186 0.31304 0.404736 0.515427 0.647252 0.802293 0.982535 1.18984 1.4259 1.69223 1.99013 2.32069 2.68474 3.08289 3.51552 3.98274 4.48445 5.02032 5.58982 6.19222 6.8266 7.49189 8.18689 8.91024 9.6605 10.4361 11.2355 12.0569 12.8987 13.7592 14.6364 15.5288 16.4346 17.3519 18.2791 19.2146 20.1567 21.1038 22.0545 23.0071 23.9604 24.9129 25.8633 26.8105 27.7534 28.6907 29.6214 30.5447 31.4596 32.3653 33.2609 34.1459 35.0195 35.8811 36.7302 37.5663 38.3889 39.1977 39.9923 40.7724 41.5377 42.288 43.0232 43.7429 44.4472 45.136 45.8091 46.4665 47.1083 47.7344 48.3448 48.9397 49.5191 50.083 50.6317 51.1651 51.6834 52.1869 52.6755 53.1496 53.6093 54.0547 54.486 54.9035 55.3074 55.6978 56.075 56.4391 56.7904 57.1292 57.4556 57.7699 58.0722 58.3629 58.6421 58.91 59.1669 59.4131 59.6486 59.8739 60.089 60.2941 60.4896 60.6756 60.8524 61.02 61.1789 61.329 61.4707 61.6042 61.7296 61.8472 61.9571 62.0594 62.1545 62.2425 62.3235 62.3978 62.4654 62.5266 62.5816 62.6305 62.6734 62.7105 62.7419 62.7679 62.7886 62.804 62.8144 62.8199 62.8205 62.8166 62.8081 62.7951 62.7779 62.7566 62.7312 62.7019 62.6688 62.6319 62.5915 62.5476 62.5003 62.4497 62.3959 62.339 62.2791 62.2163 62.1506 62.0823 62.0112 61.9377 61.8616 61.7831 61.7022 61.6191 61.5339 61.4464 61.357 61.2656 61.1722 61.077 60.98 60.8813 60.7809 60.6789 60.5754 60.4704 60.3639 60.256 60.1468 60.0362 59.9245 59.8115 59.6974 59.5822 59.4659 59.3486 59.2303 59.1111 58.991 58.87 58.7482 58.6256 58.5023 58.3782 58.2535 58.1281 58.002 57.8754 57.7482 57.6205 57.4923 57.3636 57.2345 57.1049 56.975 56.8446 56.714 56.583 56.4516 56.3201 56.1882 56.0561 55.9238 55.7913 55.6586 55.5258 55.3928 55.2597 55.1264 54.9931 54.8597 54.7263 54.5928 54.4593 54.3258 54.1922 54.0587 53.9252 53.7918 53.6583 53.525 53.3917 53.2586 53.1255 52.9925 52.8596 52.7269 52.5943 52.4619 52.3296 52.1975 52.0655 51.9338 51.8022 51.6708 51.5397 51.4087 51.278 51.1475 51.0172 50.8872 50.7574 50.6279 50.4986 50.3696 50.2409 50.1124 49.9842 49.8563
0 0 0 0 0 0 0 0 0 0 0 0 0 0 0 0 0 0 0 0 0 0 0 0 0 0 0 0 0 0 1.3867e-278 5.62321e-193 2.60673e-141 9.46741e-108 1.00188e-84 3.01806e-68 4.76474e-56 9.10491e-47 1.52817e-39 8.27622e-34 3.49732e-29 2.13572e-25 2.9288e-22 1.24456e-19 2.08265e-17 1.64537e-15 7.05432e-14 1.82929e-12 3.12494e-11 3.7642e-10 3.37707e-09 2.35902e-08 1.33057e-07 6.24426e-07 2.49968e-06 8.71565e-06 2.69366e-05 7.48959e-05 0.000189729 0.000442653 0.000960012 0.00195099 0.00374125 0.00681059 0.0118319 0.0197077 0.0316009 0.0489557 0.0735072 0.107277 0.152553 0.21186 0.287915 0.383572 0.501763 0.645436 0.817489 1.02071 1.25771 1.5309 1.8424 2.19406 2.58737 3.02351 3.50329 4.02716 4.59524 5.20729 5.86278 6.56084 7.30036 8.07996 8.89803 9.7528 10.6423 11.5644 12.5169 13.4976 14.504 15.5338 16.5845 17.6537 18.7391 19.8383 20.9489 22.0687 23.1955 24.3271 25.4616 26.5969 27.7313 28.8629 29.9901 31.1113 32.225 33.3299 34.4246 35.508 36.5789 37.6363 38.6794 39.7073 40.7192 41.7144 42.6923 43.6524 44.5942 45.5173 46.4214 47.306 48.1712 49.0165 49.8419 50.6472 51.4325 52.1976 52.9427 53.6677 54.3727 55.0578 55.7232 56.3689 56.9953 57.6023 58.1904 58.7596 59.3103 59.8426 60.3569 60.8534 61.3323 61.7941 62.2388 62.667 63.0788 63.4745 63.8545 64.2191 64.5686 64.9033 65.2235 65.5295 65.8216 66.1002 66.3655 66.6178 66.8575 67.0848 67.3 67.5035 67.6955 67.8763 68.0461 68.2053 68.3541 68.4928 68.6217 68.7409 68.8509 68.9517 69.0437 69.127 69.202 69.2689 69.3278 69.3791 69.4228 69.4593 69.4888 69.5113 69.5272 69.5367 69.5399 69.5369 69.5281 69.5135 69.4934 69.4678 69.4371 69.4012 69.3604 69.3149 69.2648 69.2102 69.1512 69.0881 69.0209 68.9498 68.8749 68.7963 68.7141 68.6286 68.5397 68.4475 68.3523 68.2541 68.153 68.0491 67.9426 67.8334 67.7217 67.6076 67.4912 67.3725 67.2517 67.1288 67.0039 66.877 66.7484 66.6179 66.4857 66.3519 66.2166 66.0797 65.9414 65.8017 65.6606 65.5184 65.3749 65.2302 65.0844 64.9376 64.7898 64.641 64.4914 64.3408 64.1895 64.0374 63.8845 63.731 63.5768 63.422 63.2666 63.1107 62.9543 62.7975 62.6401 62.4824 62.3243 62.1659 62.0072 61.8482 61.6889 61.5294 61.3697 61.2098 61.0497 60.8896 60.7293 60.5689 60.4085 60.2481 60.0876 59.9271 59.7666 59.6062 59.4458 59.2855 59.1253 58.9652 58.8052 58.6453 58.4856 58.3261 58.1667 58.0075 57.8485 57.6898 57.5313 57.373 57.2149 57.0572 56.8997 56.7424 56.5855 56.4289 56.2726 56.1166 55.9609 55.8056 55.6506 55.4959 55.3417 55.1878 55.0342 54.8811 54.7283 54.5759 54.4239 54.2723 54.1212 53.9704 53.8201 53.6701 53.5206 53.3716 53.2229 53.0747 52.927 52.7797 52.6328 52.4864 52.3405 52.195 52.05 51.9054
0 0 0 0 0 0 0 0 0 0 0 0 0 0 0 0 0 0 0 0 0 0 0 0 0 0 0 0 0 0 1.41911e-241 3.17899e-167 2.36346e-122 3.3049e-93 3.26694e-73 6.6657e-59 2.60371e-48 2.97641e-40 5.56876e-34 5.27995e-29 5.4625e-25 1.05325e-21 5.55042e-19 1.05741e-16 8.96795e-15 3.96367e-13 1.03039e-11 1.73106e-10 2.02414e-09 1.74762e-08 1.16834e-07 6.28583e-07 2.80889e-06 1.07004e-05 3.551e-05 0.000104532 0.000277148 0.000670398 0.00149581 0.00310754 0.00605973 0.0111689 0.019575 0.0327953 0.0527629 0.081846 0.122844 0.178958 0.253741 0.351021 0.474816 0.629237 0.81838 1.04623 1.31654 1.6328 1.99808 2.41505 2.88588 3.41221 3.99519 4.63539 5.3329 6.08727 6.89761 7.76256 8.68037 9.64895 10.6659 11.7285 12.8339 13.979 15.1605 16.3753 17.6199 18.891 20.1851 21.499 22.8293 24.1728 25.5265 26.8873 28.2523 29.6188 30.9841 32.3458 33.7015 35.049 36.3864 37.7116 39.0229 40.3188 41.5977 42.8583 44.0994 45.3199 46.5188 47.6952 48.8483 49.9776 51.0825 52.1624 53.217 54.246 55.2491 56.2262 57.1772 58.102 59.0006 59.8731 60.7195 61.5401 62.335 63.1045 63.8487 64.5679 65.2625 65.9328 66.5791 67.2018 67.8012 68.3778 68.9319 69.4639 69.9743 70.4636 70.932 71.3801 71.8083 72.217 72.6067 72.9778 73.3307 73.6659 73.9837 74.2847 74.5693 74.8378 75.0907 75.3283 75.5512 75.7596 75.954 76.1348 76.3023 76.4569 76.5989 76.7288 76.8469 76.9535 77.049 77.1336 77.2078 77.2717 77.3258 77.3704 77.4056 77.4319 77.4495 77.4586 77.4596 77.4526 77.438 77.416 77.3868 77.3507 77.3079 77.2586 77.2031 77.1415 77.074 77.0009 76.9224 76.8385 76.7497 76.6559 76.5573 76.4542 76.3468 76.2351 76.1193 75.9996 75.876 75.7489 75.6183 75.4843 75.347 75.2066 75.0633 74.9171 74.7681 74.6165 74.4624 74.3058 74.1469 73.9858 73.8226 73.6573 73.4901 73.321 73.1502 72.9777 72.8035 72.6279 72.4508 72.2723 72.0925 71.9115 71.7293 71.546 71.3616 71.1763 70.99 70.8029 70.615 70.4263 70.2369 70.0468 69.8561 69.6649 69.4731 69.2809 69.0883 68.8952 68.7019 68.5082 68.3142 68.12 67.9256 67.731 67.5363 67.3415 67.1466 66.9517 66.7568 66.5619 66.367 66.1722 65.9774 65.7828 65.5884 65.3941 65.1999 65.006 64.8123 64.6189 64.4257 64.2327 64.0401 63.8478 63.6558 63.4642 63.2729 63.082 62.8915 62.7014 62.5117 62.3225 62.1337 61.9453 61.7574 61.5699 61.383 61.1965 61.0105 60.8251 60.6401 60.4557 60.2719 60.0885 59.9057 59.7235 59.5418 59.3607 59.1802 59.0002 58.8209 58.6421 58.4639 58.2863 58.1093 57.9329 57.7572 57.582 57.4075 57.2336 57.0603 56.8876 56.7156 56.5442 56.3734 56.2033 56.0338 55.8649 55.6967 55.5291 55.3622 55.1959 55.0302 54.8652 54.7009 54.5372 54.3741 54.2117 54.0499 53.8888
0 0 0 0 0 0 0 0 0 0 0 0 0 0 0 0 0 0 0 0 0 0 0 0 0 0 0 0 0 0 2.63369e-207 2.2234e-143 8.44785e-105 9.65678e-80 1.49496e-62 2.99093e-50 3.80184e-41 3.20303e-34 7.85916e-29 1.48429e-24 4.1726e-21 2.76672e-18 6.01415e-16 5.45115e-14 2.46406e-12 6.36061e-11 1.04043e-09 1.16941e-08 9.62635e-08 6.10601e-07 3.10885e-06 1.31338e-05 4.73066e-05 0.000148564 0.000414426 0.00104299 0.00239934 0.00510151 0.0101203 0.0188832 0.0333701 0.0561865 0.0906048 0.140564 0.210624 0.305882 0.431848 0.594294 0.799088 1.05202 1.35864 1.72409 2.15297 2.64926 3.21617 3.85615 4.57083 5.361 6.22667 7.16706 8.18067 9.26536 10.4184 11.6365 12.916 14.2528 15.6425 17.0807 18.5626 20.0834 21.6382 23.2223 24.8309 26.4593 28.103 29.7576 31.4189 33.083 34.7459 36.4043 38.0546 39.6939 41.3191 42.9276 44.517 46.085 47.6296 49.149 50.6415 52.1057 53.5403 54.9442 56.3165 57.6564 58.9632 60.2363 61.4754 62.6802 63.8505 64.9861 66.087 67.1534 68.1853 69.183 70.1466 71.0766 71.9733 72.837 73.6683 74.4676 75.2354 75.9723 76.6787 77.3553 78.0027 78.6214 79.2121 79.7754 80.3119 80.8222 81.3069 81.7668 82.2023 82.6142 83.003 83.3694 83.714 84.0373 84.34 84.6227 84.8858 85.1301 85.356 85.5642 85.755 85.9291 86.0871 86.2293 86.3562 86.4685 86.5665 86.6507 86.7215 86.7794 86.8249 86.8583 86.88 86.8905 86.8901 86.8792 86.8581 86.8273 86.7871 86.7378 86.6797 86.6131 86.5384 86.4559 86.3658 86.2684 86.1641 86.053 85.9354 85.8116 85.6818 85.5463 85.4053 85.2589 85.1075 84.9512 84.7903 84.6248 84.4551 84.2812 84.1034 83.9219 83.7367 83.5481 83.3563 83.1613 82.9633 82.7625 82.559 82.3529 82.1443 81.9334 81.7204 81.5052 81.288 81.069 80.8482 80.6258 80.4018 80.1763 79.9494 79.7212 79.4918 79.2613 79.0298 78.7972 78.5638 78.3295 78.0945 77.8588 77.6225 77.3856 77.1481 76.9103 76.672 76.4335 76.1946 75.9555 75.7162 75.4767 75.2372 74.9976 74.758 74.5184 74.2789 74.0395 73.8002 73.5611 73.3222 73.0835 72.8452 72.6071 72.3693 72.1319 71.8949 71.6583 71.4221 71.1863 70.9511 70.7163 70.482 70.2483 70.0152 69.7826 69.5506 69.3192 69.0884 68.8583 68.6288 68.4 68.1719 67.9445 67.7177 67.4917 67.2664 67.0419 66.8181 66.595 66.3727 66.1512 65.9305 65.7105 65.4914 65.273 65.0555 64.8388 64.6229 64.4078 64.1936 63.9801 63.7676 63.5558 63.3449 63.1349 62.9257 62.7174 62.5099 62.3033 62.0975 61.8926 61.6886 61.4855 61.2832 61.0817 60.8812 60.6815 60.4827 60.2847 60.0877 59.8914 59.6961 59.5016 59.308 59.1153 58.9234 58.7324 58.5423 58.353 58.1646 57.977 57.7904 57.6045 57.4195 57.2354 57.0521 56.8697 56.6881 56.5074 56.3275 56.1484 55.9702 55.7928
0 0 0 0 0 0 0 0 0 0 0 0 0 0 0 0 0 0 0 0 0 0 0 0 0 0 0 0 0 1.05588e-275 8.86399e-176 1.92383e-121 1.19038e-88 2.36185e-67 9.60019e-53 2.72652e-42 1.48334e-34 1.13469e-28 4.29561e-24 1.83863e-20 1.55876e-17 3.87118e-15 3.72593e-13 1.70512e-11 4.3201e-10 6.79936e-09 7.26254e-08 5.63964e-07 3.36128e-06 1.60547e-05 6.36247e-05 0.000215188 0.000635619 0.0016712 0.00397353 0.00865733 0.0174776 0.0330031 0.0587603 0.0993216 0.160321 0.248385 0.370992 0.536253 0.752649 1.02874 1.37287 1.79287 2.29584 2.88789 3.57402 4.35798 5.24223 6.22793 7.31494 8.50195 9.78647 11.165 12.6333 14.186 15.8176 17.5217 19.2917 21.1207 23.0017 24.9277 26.8915 28.8862 30.9051 32.9416 34.9895 37.0427 39.0956 41.143 43.1799 45.2016 47.204 49.1831 51.1356 53.0581 54.9478 56.8023 58.6192 60.3966 62.1329 63.8267 65.4767 67.082 68.6418 70.1556 71.623 73.0437 74.4178 75.7451 77.0259 78.2605 79.4491 80.5924 81.6908 82.7449 83.7554 84.7231 85.6485 86.5327 87.3763 88.1803 88.9455 89.6728 90.3631 91.0174 91.6365 92.2215 92.7731 93.2923 93.7801 94.2374 94.665 95.0638 95.4347 95.7786 96.0963 96.3887 96.6565 96.9006 97.1218 97.3208 97.4983 97.6552 97.7921 97.9098 98.0088 98.0899 98.1537 98.2009 98.232 98.2476 98.2484 98.2349 98.2076 98.167 98.1137 98.0482 97.9709 97.8823 97.7828 97.673 97.5531 97.4237 97.2851 97.1377 96.9819 96.818 96.6464 96.4674 96.2814 96.0886 95.8893 95.6839 95.4727 95.2558 95.0336 94.8063 94.5742 94.3374 94.0963 93.8511 93.6019 93.349 93.0925 92.8327 92.5697 92.3037 92.035 91.7635 91.4896 91.2134 90.9349 90.6544 90.372 90.0879 89.802 89.5147 89.2259 88.9358 88.6446 88.3522 88.0589 87.7647 87.4697 87.174 86.8777 86.5808 86.2835 85.9859 85.6879 85.3897 85.0913 84.7928 84.4943 84.1959 83.8975 83.5992 83.3012 83.0034 82.7059 82.4087 82.1119 81.8155 81.5197 81.2243 80.9295 80.6352 80.3416 80.0487 79.7564 79.4648 79.174 78.884 78.5947 78.3063 78.0187 77.732 77.4462 77.1613 76.8773 76.5943 76.3123 76.0312 75.7512 75.4721 75.1941 74.9171 74.6412 74.3664 74.0926 73.8199 73.5484 73.2779 73.0085 72.7403 72.4732 72.2073 71.9425 71.6788 71.4163 71.155 70.8948 70.6358 70.378 70.1213 69.8659 69.6116 69.3585 69.1066 68.8558 68.6063 68.3579 68.1108 67.8648 67.62 67.3764 67.134 66.8928 66.6528 66.4139 66.1763 65.9398 65.7045 65.4703 65.2374 65.0056 64.775 64.5456 64.3173 64.0902 63.8642 63.6394 63.4158 63.1933 62.9719 62.7517 62.5326 62.3147 62.0978 61.8821 61.6676 61.4541 61.2417 61.0305 60.8203 60.6113 60.4033 60.1965 59.9907 59.786 59.5823 59.3798 59.1783 58.9778 58.7784 58.5801 58.3828 58.1865 57.9913 57.797 57.6039
0 0 0 0 0 0 0 0 0 0 0 0 0 0 0 0 0 0 0 0 0 0 0 0 0 0 0 0 0 8.16623e-231 5.41016e-147 2.05938e-101 6.61261e-74 4.83524e-56 8.65148e-44 5.04959e-35 1.54646e-28 1.32327e-23 9.09292e-20 1.0036e-16 2.84782e-14 2.88514e-12 1.3198e-10 3.23625e-09 4.83303e-08 4.84179e-07 3.5045e-06 1.94161e-05 8.6173e-05 0.000317675 0.0010015 0.00276466 0.00681337 0.0152315 0.0312996 0.0597816 0.107122 0.18151 0.292786 0.452187 0.671968 0.964916 1.34382 1.82096 2.40759 3.11353 3.94684 4.91359 6.01774 7.2611 8.64337 10.1623 11.8137 13.592 15.49 17.4995 19.6113 21.8156 24.1022 26.4604 28.8797 31.3493 33.859 36.3985 38.9583 41.5291 44.1022 46.6694 49.2231 51.7564 54.2629 56.7368 59.1728 61.5663 63.9132 66.2098 68.4531 70.6404 72.7695 74.8384 76.8458 78.7905 80.6717 82.4888 84.2416 85.9301 87.5544 89.1148 90.6119 92.0464 93.419 94.7307 95.9825 97.1754 98.3107 99.3896 100.413 101.383 102.3 103.167 103.983 104.751 105.472 106.148 106.779 107.368 107.915 108.422 108.89 109.321 109.715 110.075 110.401 110.695 110.957 111.189 111.393 111.568 111.717 111.839 111.937 112.011 112.063 112.092 112.1 112.088 112.057 112.008 111.94 111.856 111.755 111.639 111.507 111.362 111.203 111.031 110.847 110.651 110.443 110.225 109.997 109.759 109.512 109.256 108.991 108.719 108.439 108.152 107.859 107.559 107.253 106.941 106.623 106.301 105.974 105.643 105.307 104.967 104.624 104.277 103.927 103.574 103.218 102.86 102.499 102.136 101.771 101.404 101.036 100.666 100.294 99.9219 99.5484 99.1739 98.7987 98.4227 98.0463 97.6694 97.2922 96.9148 96.5373 96.1597 95.7822 95.4049 95.0278 94.6511 94.2747 93.8988 93.5235 93.1488 92.7747 92.4014 92.0288 91.6572 91.2864 90.9165 90.5476 90.1798 89.8131 89.4474 89.083 88.7197 88.3577 87.9969 87.6374 87.2792 86.9224 86.567 86.2129 85.8603 85.5092 85.1594 84.8112 84.4645 84.1193 83.7756 83.4335 83.0929 82.7539 82.4165 82.0807 81.7465 81.4139 81.0829 80.7535 80.4258 80.0997 79.7753 79.4525 79.1314 78.8119 78.494 78.1779 77.8634 77.5505 77.2393 76.9298 76.622 76.3158 76.0112 75.7083 75.4071 75.1075 74.8096 74.5133 74.2186 73.9256 73.6343 73.3445 73.0564 72.7699 72.485 72.2018 71.9201 71.64 71.3616 71.0847 70.8094 70.5356 70.2635 69.9929 69.7238 69.4563 69.1904 68.926 68.6631 68.4017 68.1418 67.8835 67.6266 67.3712 67.1173 66.8649 66.614 66.3645 66.1164 65.8698 65.6247 65.3809 65.1386 64.8977 64.6581 64.42 64.1833 63.9479 63.7139 63.4813 63.25 63.0201 62.7915 62.5642 62.3382 62.1136 61.8902 61.6682 61.4474 61.2279 61.0097 60.7928 60.5771 60.3626 60.1494 59.9374 59.7266 59.5171 59.3087
0 0 0 0 0 0 0 0 0 0 0 0 0 0 0 0 0 0 0 0 0 0 0 0 0 0 0 0 0 3.35229e-190 5.98836e-121 2.72728e-83 1.44811e-60 8.28571e-46 1.09411e-35 1.89997e-28 4.30808e-23 5.08004e-19 7.45441e-16 2.41387e-13 2.54451e-11 1.14534e-09 2.67296e-08 3.72691e-07 3.45008e-06 2.29674e-05 0.000116903 0.000477201 0.00162203 0.00473041 0.0121247 0.0278525 0.0582661 0.112474 0.20255 0.343423 0.552444 0.848671 1.25196 1.78197 2.45717 3.294 4.3061 5.50387 6.89412 8.47999 10.261 12.2334 14.3903 16.722 19.2169 21.8614 24.6405 27.5386 30.5392 33.6258 36.7821 39.9918 43.2394 46.5102 49.7902 53.0662 56.3261 59.559 62.7546 65.9041 68.9993 72.0331 74.9993 77.8927 80.7086 83.4435 86.0941 88.6582 91.1338 93.5198 95.8154 98.0201 100.134 102.158 104.092 105.937 107.695 109.366 110.953 112.458 113.881 115.225 116.492 117.684 118.804 119.852 120.832 121.746 122.595 123.383 124.11 124.78 125.394 125.954 126.463 126.922 127.334 127.7 128.022 128.302 128.541 128.742 128.905 129.033 129.128 129.189 129.22 129.221 129.194 129.14 129.061 128.956 128.829 128.679 128.508 128.317 128.107 127.879 127.634 127.372 127.094 126.802 126.496 126.177 125.846 125.502 125.148 124.783 124.409 124.025 123.632 123.231 122.822 122.407 121.984 121.555 121.121 120.681 120.236 119.786 119.332 118.874 118.412 117.947 117.479 117.008 116.535 116.06 115.582 115.103 114.622 114.14 113.657 113.173 112.688 112.203 111.717 111.232 110.746 110.26 109.775 109.289 108.805 108.321 107.837 107.355 106.873 106.393 105.913 105.435 104.958 104.483 104.009 103.536 103.065 102.596 102.128 101.662 101.198 100.736 100.276 99.8174 99.361 98.9066 98.4543 98.0041 97.5559 97.11 96.6662 96.2246 95.7852 95.3481 94.9132 94.4806 94.0503 93.6223 93.1966 92.7732 92.3522 91.9335 91.5172 91.1033 90.6917 90.2824 89.8756 89.4711 89.069 88.6693 88.272 87.877 87.4844 87.0942 86.7063 86.3208 85.9377 85.5569 85.1785 84.8024 84.4287 84.0573 83.6882 83.3214 82.9569 82.5947 82.2348 81.8772 81.5219 81.1688 80.818 80.4694 80.123 79.7788 79.4369 79.0971 78.7596 78.4242 78.0909 77.7598 77.4309 77.104 76.7793 76.4567 76.1361 75.8177 75.5012 75.1869 74.8746 74.5642 74.2559 73.9496 73.6453 73.343 73.0426 72.7441 72.4476 72.153 71.8603 71.5695 71.2806 70.9935 70.7083 70.4249 70.1433 69.8636 69.5857 69.3095 69.0351 68.7625 68.4916 68.2225 67.9551 67.6894 67.4254 67.1631 66.9024 66.6434 66.3861 66.1304 65.8763 65.6238 65.373 65.1237 64.876 64.6298 64.3852 64.1422 63.9007 63.6606 63.4221 63.1851 62.9496 62.7155 62.4829 62.2518 62.0221 61.7938 61.5669 61.3414 61.1173 60.8946
0 0 0 0 0 0 0 0 0 0 0 0 0 0 0 0 0 0 0 0 0 0 0 0 0 0 0 0 3.8025e-275 7.30424e-154 1.20205e-97 4.46833e-67 1.25019e-48 1.18847e-36 1.94175e-28 1.45238e-22 3.20683e-18 6.42004e-15 2.36676e-12 2.55833e-10 1.11187e-08 2.42186e-07 3.09521e-06 2.60421e-05 0.000157152 0.000725745 0.00269582 0.00837274 0.0224166 0.0530089 0.112899 0.220031 0.39752 0.672921 1.07686 1.64123 2.39721 3.3734 4.59416 6.0784 7.83882 9.88161 12.2065 14.8071 17.6718 20.7842 24.1243 27.6692 31.3941 35.2727 39.2787 43.3854 47.5671 51.799 56.0574 60.3204 64.5677 68.7809 72.9432 77.0399 81.0578 84.9856 88.8135 92.5334 96.1384 99.6232 102.983 106.216 109.319 112.29 115.13 117.838 120.416 122.864 125.184 127.379 129.451 131.402 133.236 134.956 136.565 138.066 139.463 140.76 141.959 143.065 144.081 145.01 145.856 146.621 147.311 147.927 148.473 148.952 149.367 149.72 150.016 150.255 150.442 150.579 150.667 150.71 150.709 150.668 150.587 150.469 150.316 150.13 149.913 149.666 149.39 149.089 148.762 148.411 148.039 147.645 147.231 146.8 146.35 145.885 145.404 144.909 144.401 143.88 143.348 142.804 142.251 141.689 141.118 140.539 139.953 139.36 138.762 138.157 137.548 136.934 136.316 135.695 135.07 134.443 133.813 133.181 132.547 131.912 131.276 130.639 130.002 129.365 128.727 128.09 127.453 126.817 126.182 125.548 124.915 124.283 123.653 123.025 122.399 121.774 121.152 120.532 119.914 119.298 118.686 118.075 117.468 116.863 116.261 115.662 115.066 114.473 113.883 113.296 112.713 112.132 111.555 110.981 110.411 109.843 109.279 108.719 108.162 107.608 107.058 106.511 105.968 105.428 104.892 104.359 103.83 103.304 102.782 102.263 101.748 101.236 100.728 100.223 99.7215 99.2235 98.729 98.238 97.7503 97.2661 96.7853 96.3079 95.8338 95.3631 94.8958 94.4318 93.9711 93.5136 93.0595 92.6086 92.161 91.7166 91.2754 90.8373 90.4025 89.9707 89.5421 89.1166 88.6942 88.2749 87.8585 87.4452 87.0349 86.6276 86.2233 85.8218 85.4233 85.0277 84.635 84.2451 83.858 83.4737 83.0922 82.7135 82.3375 81.9643 81.5937 81.2258 80.8606 80.498 80.138 79.7806 79.4258 79.0736 78.7238 78.3766 78.0319 77.6896 77.3498 77.0124 76.6774 76.3448 76.0145 75.6866 75.361 75.0378 74.7168 74.3981 74.0816 73.7674 73.4554 73.1455 72.8379 72.5324 72.229 71.9278 71.6286 71.3315 71.0365 70.7436 70.4526 70.1637 69.8767 69.5918 69.3088 69.0277 68.7486 68.4714 68.196 67.9226 67.651 67.3812 67.1133 66.8471 66.5828 66.3203 66.0595 65.8005 65.5432 65.2876 65.0337 64.7815 64.531 64.2822 64.035 63.7894 63.5455 63.3031 63.0624 62.8232 62.5856 62.3495
0 0 0 0 0 0 0 0 0 0 0 0 0 0 0 0 0 0 0 0 0 0 0 0 0 0 0 0 2.93847e-218 8.44738e-122 4.37573e-77 9.05694e-53 4.25495e-38 1.4269e-28 4.83601e-22 2.25556e-17 6.37847e-14 2.6709e-11 2.91021e-09 1.19478e-07 2.37609e-06 2.72778e-05 0.000204927 0.00110414 0.00456769 0.0152765 0.0429751 0.104872 0.227459 0.447028 0.808554 1.36301 2.16367 3.26192 4.70346 6.52507 8.75253 11.3995 14.4676 17.9467 21.8169 26.0496 30.6098 35.4574 40.5497 45.8424 51.291 56.8521 62.4842 68.1482 73.8081 79.4312 84.9879 90.4525 95.8021 101.018 106.083 110.984 115.71 120.254 124.608 128.769 132.734 136.502 140.073 143.449 146.632 149.625 152.433 155.059 157.509 159.788 161.901 163.854 165.653 167.303 168.811 170.182 171.423 172.539 173.536 174.419 175.194 175.866 176.44 176.921 177.314 177.623 177.854 178.01 178.095 178.113 178.068 177.964 177.804 177.592 177.329 177.021 176.668 176.275 175.843 175.375 174.874 174.341 173.778 173.189 172.574 171.935 171.275 170.594 169.894 169.177 168.444 167.697 166.936 166.162 165.378 164.583 163.779 162.967 162.148 161.322 160.49 159.653 158.812 157.967 157.119 156.269 155.417 154.563 153.708 152.853 151.998 151.143 150.289 149.436 148.585 147.735 146.887 146.042 145.199 144.358 143.521 142.687 141.857 141.03 140.207 139.387 138.572 137.761 136.955 136.152 135.355 134.562 133.773 132.99 132.211 131.437 130.668 129.904 129.146 128.392 127.644 126.901 126.163 125.43 124.703 123.98 123.264 122.552 121.846 121.145 120.449 119.759 119.073 118.394 117.719 117.05 116.386 115.727 115.073 114.424 113.781 113.143 112.51 111.882 111.259 110.641 110.028 109.42 108.817 108.219 107.625 107.037 106.453 105.874 105.3 104.731 104.166 103.606 103.05 102.499 101.953 101.411 100.873 100.34 99.8114 99.287 98.7669 98.251 97.7394 97.232 96.7287 96.2296 95.7345 95.2435 94.7565 94.2735 93.7944 93.3192 92.8478 92.3803 91.9166 91.4566 91.0004 90.5479 90.099 89.6537 89.212 88.7738 88.3392 87.9081 87.4804 87.0561 86.6352 86.2176 85.8034 85.3925 84.9848 84.5803 84.179 83.7809 83.3859 82.994 82.6052 82.2194 81.8367 81.4569 81.08 80.7061 80.3351 79.9669 79.6016 79.2391 78.8794 78.5224 78.1682 77.8167 77.4678 77.1216 76.778 76.437 76.0986 75.7627 75.4294 75.0985 74.7702 74.4442 74.1208 73.7997 73.481 73.1646 72.8506 72.5389 72.2295 71.9223 71.6174 71.3147 71.0143 70.716 70.4198 70.1258 69.834 69.5442 69.2565 68.9709 68.6873 68.4057 68.1261 67.8485 67.5729 67.2992 67.0275 66.7576 66.4897 66.2236 65.9594 65.697 65.4364 65.1777 64.9207 64.6655 64.4121 64.1604 63.9104 63.6621
0 0 0 0 0 0 0 0 0 0 0 0 0 0 0 0 0 0 0 0 0 0 0 0 0 0 0 0 5.90339e-169 5.18541e-94 2.88866e-59 2.27112e-40 5.70896e-29 1.43398e-21 1.69021e-16 7.11664e-13 3.39004e-10 3.65788e-08 1.38588e-06 2.45873e-05 0.000248331 0.0016365 0.00775748 0.0284048 0.0847139 0.214207 0.473595 0.93774 1.69456 2.83698 4.45373 6.62088 9.39533 12.811 16.8775 21.5814 26.8888 32.7489 39.0985 45.8657 52.9741 60.3456 67.9037 75.5752 83.2916 90.9906 98.6163 106.12 113.458 120.596 127.504 134.159 140.54 146.636 152.435 157.933 163.126 168.014 172.6 176.887 180.883 184.593 188.025 191.19 194.096 196.753 199.172 201.363 203.335 205.101 206.669 208.05 209.254 210.29 211.168 211.896 212.483 212.937 213.267 213.48 213.582 213.582 213.486 213.299 213.028 212.679 212.257 211.766 211.212 210.599 209.932 209.214 208.45 207.642 206.795 205.911 204.993 204.045 203.068 202.066 201.041 199.994 198.929 197.846 196.748 195.636 194.513 193.379 192.236 191.085 189.927 188.765 187.597 186.427 185.254 184.079 182.904 181.729 180.555 179.382 178.211 177.042 175.877 174.715 173.558 172.405 171.256 170.113 168.976 167.844 166.719 165.599 164.487 163.381 162.283 161.191 160.107 159.031 157.962 156.9 155.847 154.802 153.764 152.735 151.714 150.701 149.696 148.7 147.712 146.732 145.76 144.797 143.842 142.895 141.957 141.027 140.105 139.191 138.286 137.389 136.499 135.618 134.745 133.88 133.023 132.174 131.332 130.498 129.673 128.854 128.044 127.24 126.445 125.657 124.876 124.102 123.336 122.577 121.825 121.08 120.342 119.611 118.887 118.169 117.459 116.755 116.057 115.366 114.682 114.004 113.332 112.666 112.007 111.354 110.707 110.066 109.431 108.801 108.178 107.56 106.948 106.342 105.741 105.145 104.556 103.971 103.392 102.818 102.249 101.686 101.127 100.574 100.026 99.4821 98.9435 98.4097 97.8807 97.3564 96.8368 96.3218 95.8113 95.3054 94.8039 94.3068 93.8141 93.3257 92.8416 92.3616 91.8859 91.4142 90.9467 90.4832 90.0236 89.5681 89.1164 88.6685 88.2245 87.7843 87.3478 86.9149 86.4858 86.0602 85.6382 85.2198 84.8048 84.3933 83.9852 83.5804 83.1791 82.781 82.3862 81.9946 81.6062 81.221 80.8389 80.4599 80.084 79.7111 79.3412 78.9743 78.6103 78.2492 77.891 77.5356 77.183 76.8333 76.4862 76.1419 75.8003 75.4613 75.125 74.7913 74.4602 74.1316 73.8056 73.4821 73.161 72.8424 72.5262 72.2125 71.9011 71.592 71.2853 70.9809 70.6787 70.3789 70.0812 69.7858 69.4925 69.2015 68.9125 68.6257 68.341 68.0584 67.7778 67.4993 67.2228 66.9483 66.6758 66.4052 66.1366 65.8699 65.6051 65.3422 65.0812 64.822
0 0 0 0 0 0 0 0 0 0 0 0 0 0 0 0 0 0 0 0 0 0 0 0 0 0 0 6.3628e-289 3.08324e-127 1.6895e-70 3.45826e-44 7.04563e-30 3.0197e-21 1.20625e-15 8.29003e-12 4.56181e-09 4.81439e-07 1.64912e-05 0.000255598 0.00222957 0.0126928 0.0522956 0.167901 0.443384 1.00253 2.00083 3.60794 5.98592 9.26904 13.5492 18.8685 25.219 32.5478 40.7651 49.7543 59.3816 69.5053 79.983 90.6775 101.461 112.218 122.846 133.257 143.379 153.151 162.525 171.466 179.947 187.952 195.469 202.498 209.039 215.099 220.688 225.82 230.51 234.774 238.631 242.098 245.195 247.941 250.355 252.456 254.262 255.791 257.061 258.087 258.887 259.475 259.866 260.073 260.111 259.99 259.723 259.321 258.794 258.151 257.403 256.558 255.623 254.606 253.514 252.355 251.133 249.855 248.526 247.15 245.734 244.28 242.794 241.278 239.736 238.172 236.588 234.987 233.372 231.746 230.109 228.465 226.816 225.162 223.506 221.85 220.194 218.54 216.888 215.241 213.599 211.964 210.334 208.713 207.1 205.495 203.9 202.315 200.741 199.177 197.625 196.085 194.556 193.039 191.535 190.044 188.565 187.099 185.647 184.207 182.781 181.369 179.969 178.584 177.211 175.853 174.507 173.175 171.857 170.552 169.26 167.982 166.717 165.465 164.226 163.001 161.788 160.588 159.401 158.226 157.064 155.914 154.777 153.652 152.539 151.438 150.349 149.272 148.206 147.152 146.109 145.078 144.057 143.048 142.049 141.062 140.085 139.118 138.162 137.216 136.281 135.355 134.439 133.534 132.637 131.751 130.874 130.006 129.147 128.298 127.457 126.625 125.803 124.988 124.183 123.385 122.596 121.816 121.043 120.278 119.522 118.773 118.032 117.298 116.572 115.854 115.142 114.438 113.742 113.052 112.369 111.693 111.024 110.361 109.705 109.056 108.413 107.776 107.146 106.522 105.904 105.292 104.686 104.086 103.491 102.903 102.32 101.743 101.171 100.605 100.044 99.4881 98.9378 98.3927 97.8527 97.3177 96.7878 96.2628 95.7426 95.2273 94.7168 94.2109 93.7097 93.213 92.7209 92.2333 91.7501 91.2713 90.7967 90.3265 89.8604 89.3985 88.9407 88.487 88.0372 87.5915 87.1496 86.7116 86.2775 85.8471 85.4205 84.9975 84.5782 84.1625 83.7504 83.3418 82.9366 82.5349 82.1367 81.7417 81.3501 80.9618 80.5767 80.1948 79.8161 79.4406 79.0681 78.6987 78.3324 77.969 77.6086 77.2511 76.8966 76.5449 76.196 75.8499 75.5066 75.1661 74.8283 74.4931 74.1606 73.8307 73.5034 73.1787 72.8565 72.5369 72.2197 71.905 71.5927 71.2828 70.9753 70.6701 70.3673 70.0668 69.7686 69.4726 69.1788 68.8873 68.598 68.3108 68.0257 67.7428 67.462 67.1833 66.9066 66.6319 66.3593 66.0886 65.8199
0 0 0 0 0 0 0 0 0 0 0 0 0 0 0 0 0 0 0 0 0 0 0 0 0 0 0 2.81733e-212 4.18638e-93 2.92177e-51 7.50819e-32 2.70409e-21 6.29672e-15 8.4934e-11 5.706e-08 5.94077e-06 0.000182695 0.00244751 0.0182566 0.0890881 0.31728 0.890145 2.07778 4.19941 7.57046 12.4496 19.001 27.2777 37.225 48.6972 61.4818 75.3249 89.9541 105.098 120.5 135.926 151.173 166.069 180.474 194.275 207.39 219.758 231.341 242.119 252.084 261.241 269.606 277.201 284.053 290.194 295.657 300.479 304.697 308.347 311.465 314.087 316.248 317.981 319.317 320.288 320.921 321.244 321.282 321.059 320.597 319.917 319.039 317.98 316.757 315.387 313.882 312.258 310.525 308.695 306.78 304.787 302.728 300.608 298.437 296.221 293.967 291.68 289.365 287.028 284.673 282.305 279.926 277.541 275.152 272.763 270.375 267.992 265.616 263.248 260.89 258.544 256.211 253.893 251.59 249.304 247.035 244.785 242.555 240.343 238.153 235.983 233.834 231.707 229.601 227.518 225.457 223.418 221.402 219.408 217.437 215.489 213.563 211.66 209.779 207.921 206.085 204.271 202.479 200.709 198.961 197.234 195.529 193.845 192.181 190.539 188.917 187.315 185.733 184.172 182.629 181.106 179.603 178.118 176.652 175.204 173.774 172.363 170.969 169.592 168.233 166.891 165.565 164.256 162.963 161.687 160.426 159.181 157.951 156.736 155.536 154.351 153.18 152.024 150.882 149.753 148.639 147.537 146.449 145.375 144.312 143.263 142.226 141.202 140.189 139.189 138.2 137.223 136.257 135.303 134.359 133.427 132.505 131.594 130.693 129.803 128.923 128.053 127.192 126.342 125.5 124.669 123.846 123.033 122.229 121.433 120.647 119.869 119.099 118.338 117.585 116.84 116.103 115.375 114.654 113.94 113.234 112.536 111.845 111.161 110.485 109.815 109.153 108.497 107.848 107.206 106.57 105.941 105.318 104.702 104.092 103.488 102.89 102.297 101.711 101.131 100.556 99.9873 99.424 98.8661 98.3137 97.7666 97.2248 96.6883 96.1569 95.6306 95.1093 94.593 94.0815 93.5749 93.0731 92.5759 92.0834 91.5955 91.1121 90.6332 90.1587 89.6885 89.2227 88.7611 88.3037 87.8504 87.4012 86.9561 86.5149 86.0777 85.6444 85.2149 84.7892 84.3673 83.949 83.5345 83.1235 82.7161 82.3123 81.9119 81.515 81.1215 80.7313 80.3445 79.9609 79.5806 79.2035 78.8296 78.4588 78.0911 77.7265 77.3649 77.0063 76.6506 76.2979 75.948 75.601 75.2568 74.9155 74.5768 74.2409 73.9077 73.5772 73.2493 72.924 72.6013 72.2812 71.9636 71.6484 71.3358 71.0255 70.7177 70.4123 70.1093 69.8085 69.5101 69.214 68.9201 68.6285 68.3391 68.0519 67.7668 67.4839 67.2031 66.9245 66.6478
0 0 0 0 0 0 0 0 0 0 0 0 0 0 0 0 0 0 0 0 0 0 0 0 0 0 0 1.15756e-152 1.47774e-66 2.68194e-36 2.95617e-22 1.28394e-14 5.17618e-10 5.00576e-07 5.51149e-05 0.00157178 0.018525 0.119577 0.505025 1.56859 3.87871 8.07053 14.7014 24.1333 36.478 51.6021 69.1759 88.7383 109.763 131.714 154.083 176.419 198.34 219.533 239.758 258.839 276.657 293.138 308.249 321.989 334.38 345.461 355.287 363.92 371.428 377.883 383.357 387.922 391.649 394.604 396.854 398.459 399.477 399.962 399.965 399.532 398.708 397.53 396.038 394.263 392.237 389.989 387.544 384.925 382.155 379.252 376.234 373.119 369.919 366.649 363.32 359.943 356.529 353.085 349.62 346.141 342.655 339.167 335.682 332.206 328.742 325.294 321.865 318.458 315.076 311.721 308.395 305.1 301.837 298.607 295.412 292.253 289.13 286.044 282.995 279.984 277.012 274.078 271.182 268.325 265.507 262.727 259.985 257.282 254.616 251.988 249.398 246.844 244.328 241.847 239.403 236.994 234.62 232.281 229.976 227.704 225.466 223.261 221.088 218.948 216.838 214.759 212.711 210.693 208.704 206.745 204.814 202.911 201.035 199.187 197.365 195.57 193.801 192.057 190.338 188.643 186.973 185.326 183.703 182.102 180.524 178.969 177.435 175.922 174.43 172.959 171.508 170.077 168.665 167.273 165.9 164.545 163.209 161.89 160.589 159.306 158.039 156.79 155.556 154.339 153.138 151.952 150.782 149.627 148.486 147.36 146.249 145.152 144.068 142.998 141.942 140.899 139.868 138.851 137.846 136.853 135.873 134.904 133.948 133.002 132.069 131.146 130.234 129.334 128.443 127.564 126.694 125.835 124.986 124.147 123.317 122.497 121.686 120.884 120.092 119.309 118.534 117.768 117.01 116.262 115.521 114.788 114.064 113.347 112.639 111.938 111.244 110.558 109.879 109.208 108.544 107.887 107.236 106.593 105.956 105.326 104.702 104.085 103.475 102.87 102.272 101.68 101.094 100.513 99.939 99.3703 98.8074 98.25 97.6982 97.1518 96.6108 96.0751 95.5446 95.0192 94.499 93.9838 93.4735 92.9682 92.4676 91.9718 91.4807 90.9942 90.5124 90.035 89.5621 89.0935 88.6294 88.1695 87.7138 87.2623 86.8149 86.3716 85.9323 85.497 85.0656 84.6381 84.2144 83.7944 83.3782 82.9657 82.5568 82.1515 81.7497 81.3514 80.9566 80.5652 80.1772 79.7926 79.4112 79.033 78.6581 78.2864 77.9178 77.5523 77.1899 76.8305 76.4741 76.1207 75.7701 75.4225 75.0778 74.7358 74.3967 74.0603 73.7266 73.3957 73.0674 72.7417 72.4187 72.0982 71.7803 71.4649 71.152 70.8416 70.5336 70.228 69.9248 69.6239 69.3254 69.0292 68.7353 68.4436 68.1541 67.8669 67.5819 67.299
0 0 0 0 0 0 0 0 0 0 0 0 0 0 0 0 0 0 0 0 0 0 0 0 0 0 0 4.41325e-110 1.35607e-47 1.30666e-25 2.11076e-15 7.54207e-10 1.67745e-06 0.000246948 0.00747079 0.0844859 0.501924 1.92318 5.41049 12.1699 23.1894 38.9752 59.474 84.1524 112.156 142.478 174.099 206.083 237.63 268.098 297.003 324.005 348.889 371.537 391.915 410.049 426.007 439.891 451.82 461.927 470.35 477.226 482.691 486.876 489.904 491.891 492.945 493.167 492.649 491.473 489.718 487.452 484.739 481.636 478.193 474.457 470.469 466.267 461.883 457.348 452.688 447.927 443.086 438.184 433.236 428.259 423.265 418.266 413.271 408.29 403.331 398.401 393.505 388.648 383.836 379.072 374.36 369.701 365.099 360.556 356.072 351.65 347.29 342.994 338.76 334.591 330.486 326.445 322.467 318.553 314.703 310.915 307.189 303.525 299.922 296.379 292.896 289.471 286.104 282.794 279.54 276.342 273.198 270.107 267.068 264.082 261.145 258.259 255.422 252.632 249.889 247.193 244.542 241.935 239.372 236.852 234.373 231.935 229.538 227.18 224.861 222.579 220.335 218.127 215.955 213.817 211.714 209.645 207.608 205.603 203.631 201.689 199.777 197.895 196.042 194.218 192.422 190.653 188.911 187.196 185.506 183.842 182.202 180.587 178.996 177.428 175.883 174.36 172.86 171.382 169.924 168.488 167.072 165.676 164.299 162.942 161.604 160.285 158.983 157.7 156.434 155.186 153.954 152.74 151.541 150.359 149.192 148.04 146.904 145.783 144.677 143.584 142.506 141.442 140.392 139.355 138.331 137.32 136.322 135.336 134.362 133.401 132.452 131.514 130.588 129.673 128.769 127.876 126.993 126.122 125.26 124.409 123.568 122.737 121.915 121.103 120.301 119.508 118.724 117.949 117.182 116.425 115.676 114.935 114.203 113.478 112.762 112.054 111.354 110.661 109.976 109.298 108.628 107.964 107.308 106.659 106.017 105.382 104.753 104.131 103.515 102.906 102.303 101.707 101.116 100.532 99.9535 99.381 98.8142 98.2532 97.6977 97.1479 96.6035 96.0645 95.5309 95.0025 94.4793 93.9612 93.4481 92.94 92.4369 91.9385 91.445 90.9561 90.4719 89.9923 89.5172 89.0465 88.5803 88.1184 87.6608 87.2075 86.7583 86.3132 85.8723 85.4353 85.0023 84.5732 84.1481 83.7267 83.3091 82.8952 82.485 82.0784 81.6754 81.276 80.88 80.4876 80.0985 79.7128 79.3304 78.9513 78.5755 78.2029 77.8334 77.4671 77.1039 76.7437 76.3866 76.0325 75.6813 75.333 74.9876 74.6451 74.3053 73.9684 73.6342 73.3027 72.9739 72.6478 72.3243 72.0034 71.6851 71.3693 71.056 70.7453 70.4369 70.131 69.8275 69.5264 69.2276 68.9311 68.6369 68.345 68.0554 67.768
0 0 0 0 0 0 0 0 0 0 0 0 0 0 0 0 0 0 0 0 0 0 0 0 0 0 0 1.56131e-84 3.23513e-36 3.37904e-19 2.73316e-11 5.48098e-07 0.000214305 0.0101973 0.14211 0.922612 3.63384 10.1823 22.4487 41.6056 67.8034 100.258 137.565 178.048 220.038 262.057 302.902 341.666 377.718 410.667 440.316 466.612 489.613 509.453 526.313 540.405 551.954 561.188 568.334 573.605 577.204 579.32 580.127 579.783 578.432 576.203 573.213 569.566 565.356 560.665 555.566 550.125 544.4 538.441 532.294 525.997 519.585 513.089 506.535 499.946 493.344 486.744 480.163 473.613 467.107 460.653 454.26 447.935 441.684 435.512 429.423 423.42 417.507 411.684 405.953 400.316 394.774 389.326 383.973 378.714 373.55 368.478 363.5 358.613 353.817 349.111 344.493 339.962 335.516 331.155 326.876 322.679 318.562 314.523 310.56 306.673 302.86 299.119 295.449 291.847 288.314 284.847 281.445 278.107 274.83 271.614 268.458 265.36 262.318 259.332 256.401 253.522 250.695 247.92 245.193 242.515 239.885 237.301 234.762 232.267 229.816 227.407 225.04 222.713 220.425 218.176 215.966 213.792 211.654 209.552 207.485 205.451 203.451 201.483 199.547 197.642 195.767 193.922 192.107 190.32 188.561 186.829 185.124 183.445 181.792 180.164 178.561 176.982 175.427 173.895 172.385 170.898 169.433 167.989 166.566 165.164 163.782 162.419 161.076 159.752 158.446 157.159 155.89 154.638 153.404 152.187 150.986 149.801 148.633 147.48 146.343 145.22 144.113 143.02 141.942 140.877 139.827 138.79 137.766 136.756 135.758 134.773 133.8 132.84 131.891 130.955 130.029 129.116 128.213 127.322 126.441 125.571 124.711 123.862 123.023 122.193 121.374 120.564 119.764 118.972 118.19 117.418 116.653 115.898 115.151 114.413 113.683 112.961 112.248 111.542 110.844 110.154 109.471 108.796 108.128 107.467 106.814 106.167 105.528 104.895 104.269 103.649 103.036 102.43 101.829 101.235 100.648 100.066 99.4899 98.92 98.3558 97.7973 97.2445 96.6972 96.1554 95.619 95.0879 94.5621 94.0414 93.5259 93.0154 92.5098 92.0091 91.5133 91.0222 90.5358 90.0541 89.5769 89.1043 88.6361 88.1723 87.7128 87.2577 86.8067 86.3599 85.9172 85.4786 85.044 84.6134 84.1866 83.7637 83.3446 82.9293 82.5177 82.1098 81.7054 81.3047 80.9075 80.5137 80.1234 79.7365 79.353 78.9728 78.5958 78.2221 77.8516 77.4843 77.12 76.7589 76.4008 76.0457 75.6936 75.3444 74.9981 74.6547 74.3141 73.9764 73.6414 73.3091 72.9796 72.6527 72.3285 72.0069 71.6879 71.3714 71.0574 70.746 70.437 70.1305 69.8264 69.5247 69.2253 68.9283 68.6335 68.3411 68.0509
0 0 0 0 0 0 0 0 0 0 0 0 0 0 0 0 0 0 0 0 0 0 0 0 0 0 5.03726e-309 5.12545e-76 2.00645e-32 4.63806e-17 6.4181e-10 4.92773e-06 0.00107935 0.0352462 0.379354 2.0469 7.02979 17.7468 36.0724 62.6769 96.9554 137.372 181.929 228.574 275.458 321.079 364.31 404.378 440.815 473.394 502.071 526.935 548.162 565.985 580.668 592.489 601.725 608.644 613.502 616.537 617.967 617.993 616.796 614.537 611.363 607.404 602.775 597.577 591.902 585.829 579.427 572.758 565.876 558.828 551.655 544.392 537.071 529.719 522.358 515.01 507.691 500.417 493.199 486.049 478.976 471.987 465.088 458.286 451.583 444.984 438.49 432.105 425.828 419.662 413.605 407.659 401.823 396.096 390.478 384.968 379.564 374.265 369.07 363.976 358.984 354.09 349.293 344.591 339.982 335.465 331.038 326.699 322.446 318.276 314.19 310.184 306.256 302.406 298.631 294.929 291.3 287.74 284.249 280.825 277.467 274.173 270.941 267.77 264.658 261.605 258.609 255.668 252.781 249.947 247.165 244.433 241.751 239.117 236.529 233.988 231.492 229.04 226.63 224.262 221.936 219.649 217.402 215.192 213.02 210.885 208.785 206.721 204.69 202.693 200.729 198.796 196.895 195.025 193.184 191.373 189.59 187.835 186.108 184.408 182.734 181.086 179.463 177.865 176.291 174.741 173.214 171.709 170.227 168.767 167.329 165.911 164.514 163.137 161.78 160.442 159.123 157.823 156.541 155.277 154.03 152.801 151.589 150.393 149.213 148.05 146.902 145.77 144.653 143.55 142.462 141.389 140.329 139.283 138.251 137.232 136.226 135.233 134.253 133.285 132.329 131.385 130.452 129.532 128.622 127.724 126.837 125.96 125.095 124.239 123.394 122.559 121.734 120.918 120.112 119.316 118.529 117.75 116.981 116.221 115.469 114.726 113.992 113.265 112.547 111.837 111.135 110.44 109.754 109.074 108.402 107.738 107.08 106.43 105.787 105.151 104.521 103.898 103.282 102.672 102.068 101.471 100.88 100.295 99.7162 99.1432 98.5761 98.0148 97.4591 96.9091 96.3645 95.8254 95.2917 94.7633 94.24 93.722 93.209 92.701 92.198 91.6998 91.2064 90.7178 90.2338 89.7545 89.2797 88.8093 88.3435 87.8819 87.4248 86.9718 86.5231 86.0785 85.638 85.2015 84.769 84.3405 83.9158 83.495 83.078 82.6647 82.2551 81.8491 81.4467 81.0479 80.6526 80.2608 79.8724 79.4873 79.1057 78.7273 78.3521 77.9802 77.6115 77.2459 76.8834 76.524 76.1676 75.8141 75.4637 75.1162 74.7715 74.4298 74.0908 73.7546 73.4212 73.0905 72.7625 72.4372 72.1145 71.7944 71.4768 71.1618 70.8493 70.5393 70.2318 69.9267 69.624 69.3236 69.0256 68.73 68.4366 68.1455
0 0 0 0 0 0 0 0 0 0 0 0 0 0 0 0 0 0 0 0 0 0 0 0 0 0 0 1.56131e-84 3.23513e-36 3.37904e-19 2.73316e-11 5.48098e-07 0.000214305 0.0101973 0.14211 0.922612 3.63384 10.1823 22.4487 41.6056 67.8034 100.258 137.565 178.048 220.038 262.057 302.902 341.666 377.718 410.667 440.316 466.612 489.613 509.453 526.313 540.405 551.954 561.188 568.334 573.605 577.204 579.32 580.127 579.783 578.432 576.203 573.213 569.566 565.356 560.665 555.566 550.125 544.4 538.441 532.294 525.997 519.585 513.089 506.535 499.946 493.344 486.744 480.163 473.613 467.107 460.653 454.26 447.935 441.684 435.512 429.423 423.42 417.507 411.684 405.953 400.316 394.774 389.326 383.973 378.714 373.55 368.478 363.5 358.613 353.817 349.111 344.493 339.962 335.516 331.155 326.876 322.679 318.562 314.523 310.56 306.673 302.86 299.119 295.449 291.847 288.314 284.847 281.445 278.107 274.83 271.614 268.458 265.36 262.318 259.332 256.401 253.522 250.695 247.92 245.193 242.515 239.885 237.301 234.762 232.267 229.816 227.407 225.04 222.713 220.425 218.176 215.966 213.792 211.654 209.552 207.485 205.451 203.451 201.483 199.547 197.642 195.767 193.922 192.107 190.32 188.561 186.829 185.124 183.445 181.792 180.164 178.561 176.982 175.427 173.895 172.385 170.898 169.433 167.989 166.566 165.164 163.782 162.419 161.076 159.752 158.446 157.159 155.89 154.638 153.404 152.187 150.986 149.801 148.633 147.48 146.343 145.22 144.113 143.02 141.942 140.877 139.827 138.79 137.766 136.756 135.758 134.773 133.8 132.84 131.891 130.955 130.029 129.116 128.213 127.322 126.441 125.571 124.711 123.862 123.023 122.193 121.374 120.564 119.764 118.972 118.19 117.418 116.653 115.898 115.151 114.413 113.683 112.961 112.248 111.542 110.844 110.154 109.471 108.796 108.128 107.467 106.814 106.167 105.528 104.895 104.269 103.649 103.036 102.43 101.829 101.235 100.648 100.066 99.4899 98.92 98.3558 97.7973 97.2445 96.6972 96.1554 95.619 95.0879 94.5621 94.0414 93.5259 93.0154 92.5098 92.0091 91.5133 91.0222 90.5358 90.0541 89.5769 89.1043 88.6361 88.1723 87.7128 87.2577 86.8067 86.3599 85.9172 85.4786 85.044 84.6134 84.1866 83.7637 83.3446 82.9293 82.5177 82.1098 81.7054 81.3047 80.9075 80.5137 80.1234 79.7365 79.353 78.9728 78.5958 78.2221 77.8516 77.4843 77.12 76.7589 76.4008 76.0457 75.6936 75.3444 74.9981 74.6547 74.3141 73.9764 73.6414 73.3091 72.9796 72.6527 72.3285 72.0069 71.6879 71.3714 71.0574 70.746 70.437 70.1305 69.8264 69.5247 69.2253 68.9283 68.6335 68.3411 68.0509
0 0 0 0 0 0 0 0 0 0 0 0 0 0 0 0 0 0 0 0 0 0 0 0 0 0 0 4.41325e-110 1.35607e-47 1.30666e-25 2.11076e-15 7.54207e-10 1.67745e-06 0.000246948 0.00747079 0.0844859 0.501924 1.92318 5.41049 12.1699 23.1894 38.9752 59.474 84.1524 112.156 142.478 174.099 206.083 237.63 268.098 297.003 324.005 348.889 371.537 391.915 410.049 426.007 439.891 451.82 461.927 470.35 477.226 482.691 486.876 489.904 491.891 492.945 493.167 492.649 491.473 489.718 487.452 484.739 481.636 478.193 474.457 470.469 466.267 461.883 457.348 452.688 447.927 443.086 438.184 433.236 428.259 423.265 418.266 413.271 408.29 403.331 398.401 393.505 388.648 383.836 379.072 374.36 369.701 365.099 360.556 356.072 351.65 347.29 342.994 338.76 334.591 330.486 326.445 322.467 318.553 314.703 310.915 307.189 303.525 299.922 296.379 292.896 289.471 286.104 282.794 279.54 276.342 273.198 270.107 267.068 264.082 261.145 258.259 255.422 252.632 249.889 247.193 244.542 241.935 239.372 236.852 234.373 231.935 229.538 227.18 224.861 222.579 220.335 218.127 215.955 213.817 211.714 209.645 207.608 205.603 203.631 201.689 199.777 197.895 196.042 194.218 192.422 190.653 188.911 187.196 185.506 183.842 182.202 180.587 178.996 177.428 175.883 174.36 172.86 171.382 169.924 168.488 167.072 165.676 164.299 162.942 161.604 160.285 158.983 157.7 156.434 155.186 153.954 152.74 151.541 150.359 149.192 148.04 146.904 145.783 144.677 143.584 142.506 141.442 140.392 139.355 138.331 137.32 136.322 135.336 134.362 133.401 132.452 131.514 130.588 129.673 128.769 127.876 126.993 126.122 125.26 124.409 123.568 122.737 121.915 121.103 120.301 119.508 118.724 117.949 117.182 116.425 115.676 114.935 114.203 113.478 112.762 112.054 111.354 110.661 109.976 109.298 108.628 107.964 107.308 106.659 106.017 105.382 104.753 104.131 103.515 102.906 102.303 101.707 101.116 100.532 99.9535 99.381 98.8142 98.2532 97.6977 97.1479 96.6035 96.0645 95.5309 95.0025 94.4793 93.9612 93.4481 92.94 92.4369 91.9385 91.445 90.9561 90.4719 89.9923 89.5172 89.0465 88.5803 88.1184 87.6608 87.2075 86.7583 86.3132 85.8723 85.4353 85.0023 84.5732 84.1481 83.7267 83.3091 82.8952 82.485 82.0784 81.6754 81.276 80.88 80.4876 80.0985 79.7128 79.3304 78.9513 78.5755 78.2029 77.8334 77.4671 77.1039 76.7437 76.3866 76.0325 75.6813 75.333 74.9876 74.6451 74.3053 73.9684 73.6342 73.3027 72.9739 72.6478 72.3243 72.0034 71.6851 71.3693 71.056 70.7453 70.4369 70.131 69.8275 69.5264 69.2276 68.9311 68.6369 68.345 68.0554 67.768
0 0 0 0 0 0 0 0 0 0 0 0 0 0 0 0 0 0 0 0 0 0 0 0 0 0 0 1.15756e-152 1.47774e-66 2.68194e-36 2.95617e-22 1.28394e-14 5.17618e-10 5.00576e-07 5.51149e-05 0.00157178 0.018525 0.119577 0.505025 1.56859 3.87871 8.07053 14.7014 24.1333 36.478 51.6021 69.1759 88.7383 109.763 131.714 154.083 176.419 198.34 219.533 239.758 258.839 276.657 293.138 308.249 321.989 334.38 345.461 355.287 363.92 371.428 377.883 383.357 387.922 391.649 394.604 396.854 398.459 399.477 399.962 399.965 399.532 398.708 397.53 396.038 394.263 392.237 389.989 387.544 384.925 382.155 379.252 376.234 373.119 369.919 366.649 363.32 359.943 356.529 353.085 349.62 346.141 342.655 339.167 335.682 332.206 328.742 325.294 321.865 318.458 315.076 311.721 308.395 305.1 301.837 298.607 295.412 292.253 289.13 286.044 282.995 279.984 277.012 274.078 271.182 268.325 265.507 262.727 259.985 257.282 254.616 251.988 249.398 246.844 244.328 241.847 239.403 236.994 234.62 232.281 229.976 227.704 225.466 223.261 221.088 218.948 216.838 214.759 212.711 210.693 208.704 206.745 204.814 202.911 201.035 199.187 197.365 195.57 193.801 192.057 190.338 188.643 186.973 185.326 183.703 182.102 180.524 178.969 177.435 175.922 174.43 172.959 171.508 170.077 168.665 167.273 165.9 164.545 163.209 161.89 160.589 159.306 158.039 156.79 155.556 154.339 153.138 151.952 150.782 149.627 148.486 147.36 146.249 145.152 144.068 142.998 141.942 140.899 139.868 138.851 137.846 136.853 135.873 134.904 133.948 133.002 132.069 131.146 130.234 129.334 128.443 127.564 126.694 125.835 124.986 124.147 123.317 122.497 121.686 120.884 120.092 119.309 118.534 117.768 117.01 116.262 115.521 114.788 114.064 113.347 112.639 111.938 111.244 110.558 109.879 109.208 108.544 107.887 107.236 106.593 105.956 105.326 104.702 104.085 103.475 102.87 102.272 101.68 101.094 100.513 99.939 99.3703 98.8074 98.25 97.6982 97.1518 96.6108 96.0751 95.5446 95.0192 94.499 93.9838 93.4735 92.9682 92.4676 91.9718 91.4807 90.9942 90.5124 90.035 89.5621 89.0935 88.6294 88.1695 87.7138 87.2623 86.8149 86.3716 85.9323 85.497 85.0656 84.6381 84.2144 83.7944 83.3782 82.9657 82.5568 82.1515 81.7497 81.3514 80.9566 80.5652 80.1772 79.7926 79.4112 79.033 78.6581 78.2864 77.9178 77.5523 77.1899 76.8305 76.4741 76.1207 75.7701 75.4225 75.0778 74.7358 74.3967 74.0603 73.7266 73.3957 73.0674 72.7417 72.4187 72.0982 71.7803 71.4649 71.152 70.8416 70.5336 70.228 69.9248 69.6239 69.3254 69.0292 68.7353 68.4436 68.1541 67.8669 67.5819 67.299
0 0 0 0 0 0 0 0 0 0 0 0 0 0 0 0 0 0 0 0 0 0 0 0 0 0 0 2.81733e-212 4.18638e-93 2.92177e-51 7.50819e-32 2.70409e-21 6.29672e-15 8.4934e-11 5.706e-08 5.94077e-06 0.000182695 0.00244751 0.0182566 0.0890881 0.31728 0.890145 2.07778 4.19941 7.57046 12.4496 19.001 27.2777 37.225 48.6972 61.4818 75.3249 89.9541 105.098 120.5 135.926 151.173 166.069 180.474 194.275 207.39 219.758 231.341 242.119 252.084 261.241 269.606 277.201 284.053 290.194 295.657 300.479 304.697 308.347 311.465 314.087 316.248 317.981 319.317 320.288 320.921 321.244 321.282 321.059 320.597 319.917 319.039 317.98 316.757 315.387 313.882 312.258 310.525 308.695 306.78 304.787 302.728 300.608 298.437 296.221 293.967 291.68 289.365 287.028 284.673 282.305 279.926 277.541 275.152 272.763 270.375 267.992 265.616 263.248 260.89 258.544 256.211 253.893 251.59 249.304 247.035 244.785 242.555 240.343 238.153 235.983 233.834 231.707 229.601 227.518 225.457 223.418 221.402 219.408 217.437 215.489 213.563 211.66 209.779 207.921 206.085 204.271 202.479 200.709 198.961 197.234 195.529 193.845 192.181 190.539 188.917 187.315 185.733 184.172 182.629 181.106 179.603 178.118 176.652 175.204 173.774 172.363 170.969 169.592 168.233 166.891 165.565 164.256 162.963 161.687 160.426 159.181 157.951 156.736 155.536 154.351 153.18 152.024 150.882 149.753 148.639 147.537 146.449 145.375 144.312 143.263 142.226 141.202 140.189 139.189 138.2 137.223 136.257 135.303 134.359 133.427 132.505 131.594 130.693 129.803 128.923 128.053 127.192 126.342 125.5 124.669 123.846 123.033 122.229 121.433 120.647 119.869 119.099 118.338 117.585 116.84 116.103 115.375 114.654 113.94 113.234 112.536 111.845 111.161 110.485 109.815 109.153 108.497 107.848 107.206 106.57 105.941 105.318 104.702 104.092 103.488 102.89 102.297 101.711 101.131 100.556 99.9873 99.424 98.8661 98.3137 97.7666 97.2248 96.6883 96.1569 95.6306 95.1093 94.593 94.0815 93.5749 93.0731 92.5759 92.0834 91.5955 91.1121 90.6332 90.1587 89.6885 89.2227 88.7611 88.3037 87.8504 87.4012 86.9561 86.5149 86.0777 85.6444 85.2149 84.7892 84.3673 83.949 83.5345 83.1235 82.7161 82.3123 81.9119 81.515 81.1215 80.7313 80.3445 79.9609 79.5806 79.2035 78.8296 78.4588 78.0911 77.7265 77.3649 77.0063 76.6506 76.2979 75.948 75.601 75.2568 74.9155 74.5768 74.2409 73.9077 73.5772 73.2493 72.924 72.6013 72.2812 71.9636 71.6484 71.3358 71.0255 70.7177 70.4123 70.1093 69.8085 69.5101 69.214 68.9201 68.6285 68.3391 68.0519 67.7668 67.4839 67.2031 66.9245 66.6478
0 0 0 0 0 0 0 0 0 0 0 0 0 0 0 0 0 0 0 0 0 0 0 0 0 0 0 6.3628e-289 3.08324e-127 1.6895e-70 3.45826e-44 7.04563e-30 3.0197e-21 1.20625e-15 8.29003e-12 4.56181e-09 4.81439e-07 1.64912e-05 0.000255598 0.00222957 0.0126928 0.0522956 0.167901 0.443384 1.00253 2.00083 3.60794 5.98592 9.26904 13.5492 18.8685 25.219 32.5478 40.7651 49.7543 59.3816 69.5053 79.983 90.6775 101.461 112.218 122.846 133.257 143.379 153.151 162.525 171.466 179.947 187.952 195.469 202.498 209.039 215.099 220.688 225.82 230.51 234.774 238.631 242.098 245.195 247.941 250.355 252.456 254.262 255.791 257.061 258.087 258.887 259.475 259.866 260.073 260.111 259.99 259.723 259.321 258.794 258.151 257.403 256.558 255.623 254.606 253.514 252.355 251.133 249.855 248.526 247.15 245.734 244.28 242.794 241.278 239.736 238.172 236.588 234.987 233.372 231.746 230.109 228.465 226.816 225.162 223.506 221.85 220.194 218.54 216.888 215.241 213.599 211.964 210.334 208.713 207.1 205.495 203.9 202.315 200.741 199.177 197.625 196.085 194.556 193.039 191.535 190.044 188.565 187.099 185.647 184.207 182.781 181.369 179.969 178.584 177.211 175.853 174.507 173.175 171.857 170.552 169.26 167.982 166.717 165.465 164.226 163.001 161.788 160.588 159.401 158.226 157.064 155.914 154.777 153.652 152.539 151.438 150.349 149.272 148.206 147.152 146.109 145.078 144.057 143.048 142.049 141.062 140.085 139.118 138.162 137.216 136.281 135.355 134.439 133.534 132.637 131.751 130.874 130.006 129.147 128.298 127.457 126.625 125.803 124.988 124.183 123.385 122.596 121.816 121.043 120.278 119.522 118.773 118.032 117.298 116.572 115.854 115.142 114.438 113.742 113.052 112.369 111.693 111.024 110.361 109.705 109.056 108.413 107.776 107.146 106.522 105.904 105.292 104.686 104.086 103.491 102.903 102.32 101.743 101.171 100.605 100.044 99.4881 98.9378 98.3927 97.8527 97.3177 96.7878 96.2628 95.7426 95.2273 94.7168 94.2109 93.7097 93.213 92.7209 92.2333 91.7501 91.2713 90.7967 90.3265 89.8604 89.3985 88.9407 88.487 88.0372 87.5915 87.1496 86.7116 86.2775 85.8471 85.4205 84.9975 84.5782 84.1625 83.7504 83.3418 82.9366 82.5349 82.1367 81.7417 81.3501 80.9618 80.5767 80.1948 79.8161 79.4406 79.0681 78.6987 78.3324 77.969 77.6086 77.2511 76.8966 76.5449 76.196 75.8499 75.5066 75.1661 74.8283 74.4931 74.1606 73.8307 73.5034 73.1787 72.8565 72.5369 72.2197 71.905 71.5927 71.2828 70.9753 70.6701 70.3673 70.0668 69.7686 69.4726 69.1788 68.8873 68.598 68.3108 68.0257 67.7428 67.462 67.1833 66.9066 66.6319 66.3593 66.0886 65.8199
0 0 0 0 0 0 0 0 0 0 0 0 0 0 0 0 0 0 0 0 0 0 0 0 0 0 0 0 5.90339e-169 5.18541e-94 2.88866e-59 2.27112e-40 5.70896e-29 1.43398e-21 1.69021e-16 7.11664e-13 3.39004e-10 3.65788e-08 1.38588e-06 2.45873e-05 0.000248331 0.0016365 0.00775748 0.0284048 0.0847139 0.214207 0.473595 0.93774 1.69456 2.83698 4.45373 6.62088 9.39533 12.811 16.8775 21.5814 26.8888 32.7489 39.0985 45.8657 52.9741 60.3456 67.9037 75.5752 83.2916 90.9906 98.6163 106.12 113.458 120.596 127.504 134.159 140.54 146.636 152.435 157.933 163.126 168.014 172.6 176.887 180.883 184.593 188.025 191.19 194.096 196.753 199.172 201.363 203.335 205.101 206.669 208.05 209.254 210.29 211.168 211.896 212.483 212.937 213.267 213.48 213.582 213.582 213.486 213.299 213.028 212.679 212.257 211.766 211.212 210.599 209.932 209.214 208.45 207.642 206.795 205.911 204.993 204.045 203.068 202.066 201.041 199.994 198.929 197.846 196.748 195.636 194.513 193.379 192.236 191.085 189.927 188.765 187.597 186.427 185.254 184.079 182.904 181.729 180.555 179.382 178.211 177.042 175.877 174.715 173.558 172.405 171.256 170.113 168.976 167.844 166.719 165.599 164.487 163.381 162.283 161.191 160.107 159.031 157.962 156.9 155.847 154.802 153.764 152.735 151.714 150.701 149.696 148.7 147.712 146.732 145.76 144.797 143.842 142.895 141.957 141.027 140.105 139.191 138.286 137.389 136.499 135.618 134.745 133.88 133.023 132.174 131.332 130.498 129.673 128.854 128.044 127.24 126.445 125.657 124.876 124.102 123.336 122.577 121.825 121.08 120.342 119.611 118.887 118.169 117.459 116.755 116.057 115.366 114.682 114.004 113.332 112.666 112.007 111.354 110.707 110.066 109.431 108.801 108.178 107.56 106.948 106.342 105.741 105.145 104.556 103.971 103.392 102.818 102.249 101.686 101.127 100.574 100.026 99.4821 98.9435 98.4097 97.8807 97.3564 96.8368 96.3218 95.8113 95.3054 94.8039 94.3068 93.8141 93.3257 92.8416 92.3616 91.8859 91.4142 90.9467 90.4832 90.0236 89.5681 89.1164 88.6685 88.2245 87.7843 87.3478 86.9149 86.4858 86.0602 85.6382 85.2198 84.8048 84.3933 83.9852 83.5804 83.1791 82.781 82.3862 81.9946 81.6062 81.221 80.8389 80.4599 80.084 79.7111 79.3412 78.9743 78.6103 78.2492 77.891 77.5356 77.183 76.8333 76.4862 76.1419 75.8003 75.4613 75.125 74.7913 74.4602 74.1316 73.8056 73.4821 73.161 72.8424 72.5262 72.2125 71.9011 71.592 71.2853 70.9809 70.6787 70.3789 70.0812 69.7858 69.4925 69.2015 68.9125 68.6257 68.341 68.0584 67.7778 67.4993 67.2228 66.9483 66.6758 66.4052 66.1366 65.8699 65.6051 65.3422 65.0812 64.822
0 0 0 0 0 0 0 0 0 0 0 0 0 0 0 0 0 0 0 0 0 0 0 0 0 0 0 0 2.93847e-218 8.44738e-122 4.37573e-77 9.05694e-53 4.25495e-38 1.4269e-28 4.83601e-22 2.25556e-17 6.37847e-14 2.6709e-11 2.91021e-09 1.19478e-07 2.37609e-06 2.72778e-05 0.000204927 0.00110414 0.00456769 0.0152765 0.0429751 0.104872 0.227459 0.447028 0.808554 1.36301 2.16367 3.26192 4.70346 6.52507 8.75253 11.3995 14.4676 17.9467 21.8169 26.0496 30.6098 35.4574 40.5497 45.8424 51.291 56.8521 62.4842 68.1482 73.8081 79.4312 84.9879 90.4525 95.8021 101.018 106.083 110.984 115.71 120.254 124.608 128.769 132.734 136.502 140.073 143.449 146.632 149.625 152.433 155.059 157.509 159.788 161.901 163.854 165.653 167.303 168.811 170.182 171.423 172.539 173.536 174.419 175.194 175.866 176.44 176.921 177.314 177.623 177.854 178.01 178.095 178.113 178.068 177.964 177.804 177.592 177.329 177.021 176.668 176.275 175.843 175.375 174.874 174.341 173.778 173.189 172.574 171.935 171.275 170.594 169.894 169.177 168.444 167.697 166.936 166.162 165.378 164.583 163.779 162.967 162.148 161.322 160.49 159.653 158.812 157.967 157.119 156.269 155.417 154.563 153.708 152.853 151.998 151.143 150.289 149.436 148.585 147.735 146.887 146.042 145.199 144.358 143.521 142.687 141.857 141.03 140.207 139.387 138.572 137.761 136.955 136.152 135.355 134.562 133.773 132.99 132.211 131.437 130.668 129.904 129.146 128.392 127.644 126.901 126.163 125.43 124.703 123.98 123.264 122.552 121.846 121.145 120.449 119.759 119.073 118.394 117.719 117.05 116.386 115.727 115.073 114.424 113.781 113.143 112.51 111.882 111.259 110.641 110.028 109.42 108.817 108.219 107.625 107.037 106.453 105.874 105.3 104.731 104.166 103.606 103.05 102.499 101.953 101.411 100.873 100.34 99.8114 99.287 98.7669 98.251 97.7394 97.232 96.7287 96.2296 95.7345 95.2435 94.7565 94.2735 93.7944 93.3192 92.8478 92.3803 91.9166 91.4566 91.0004 90.5479 90.099 89.6537 89.212 88.7738 88.3392 87.9081 87.4804 87.0561 86.6352 86.2176 85.8034 85.3925 84.9848 84.5803 84.179 83.7809 83.3859 82.994 82.6052 82.2194 81.8367 81.4569 81.08 80.7061 80.3351 79.9669 79.6016 79.2391 78.8794 78.5224 78.1682 77.8167 77.4678 77.1216 76.778 76.437 76.0986 75.7627 75.4294 75.0985 74.7702 74.4442 74.1208 73.7997 73.481 73.1646 72.8506 72.5389 72.2295 71.9223 71.6174 71.3147 71.0143 70.716 70.4198 70.1258 69.834 69.5442 69.2565 68.9709 68.6873 68.4057 68.1261 67.8485 67.5729 67.2992 67.0275 66.7576 66.4897 66.2236 65.9594 65.697 65.4364 65.1777 64.9207 64.6655 64.4121 64.1604 63.9104 63.6621
0 0 0 0 0 0 0 0 0 0 0 0 0 0 0 0 0 0 0 0 0 0 0 0 0 0 0 0 3.8025e-275 7.30424e-154 1.20205e-97 4.46833e-67 1.25019e-48 1.18847e-36 1.94175e-28 1.45238e-22 3.20683e-18 6.42004e-15 2.36676e-12 2.55833e-10 1.11187e-08 2.42186e-07 3.09521e-06 2.60421e-05 0.000157152 0.000725745 0.00269582 0.00837274 0.0224166 0.0530089 0.112899 0.220031 0.39752 0.672921 1.07686 1.64123 2.39721 3.3734 4.59416 6.0784 7.83882 9.88161 12.2065 14.8071 17.6718 20.7842 24.1243 27.6692 31.3941 35.2727 39.2787 43.3854 47.5671 51.799 56.0574 60.3204 64.5677 68.7809 72.9432 77.0399 81.0578 84.9856 88.8135 92.5334 96.1384 99.6232 102.983 106.216 109.319 112.29 115.13 117.838 120.416 122.864 125.184 127.379 129.451 131.402 133.236 134.956 136.565 138.066 139.463 140.76 141.959 143.065 144.081 145.01 145.856 146.621 147.311 147.927 148.473 148.952 149.367 149.72 150.016 150.255 150.442 150.579 150.667 150.71 150.709 150.668 150.587 150.469 150.316 150.13 149.913 149.666 149.39 149.089 148.762 148.411 148.039 147.645 147.231 146.8 146.35 145.885 145.404 144.909 144.401 143.88 143.348 142.804 142.251 141.689 141.118 140.539 139.953 139.36 138.762 138.157 137.548 136.934 136.316 135.695 135.07 134.443 133.813 133.181 132.547 131.912 131.276 130.639 130.002 129.365 128.727 128.09 127.453 126.817 126.182 125.548 124.915 124.283 123.653 123.025 122.399 121.774 121.152 120.532 119.914 119.298 118.686 118.075 117.468 116.863 116.261 115.662 115.066 114.473 113.883 113.296 112.713 112.132 111.555 110.981 110.411 109.843 109.279 108.719 108.162 107.608 107.058 106.511 105.968 105.428 104.892 104.359 103.83 103.304 102.782 102.263 101.748 101.236 100.728 100.223 99.7215 99.2235 98.729 98.238 97.7503 97.2661 96.7853 96.3079 95.8338 95.3631 94.8958 94.4318 93.9711 93.5136 93.0595 92.6086 92.161 91.7166 91.2754 90.8373 90.4025 89.9707 89.5421 89.1166 88.6942 88.2749 87.8585 87.4452 87.0349 86.6276 86.2233 85.8218 85.4233 85.0277 84.635 84.2451 83.858 83.4737 83.0922 82.7135 82.3375 81.9643 81.5937 81.2258 80.8606 80.498 80.138 79.7806 79.4258 79.0736 78.7238 78.3766 78.0319 77.6896 77.3498 77.0124 76.6774 76.3448 76.0145 75.6866 75.361 75.0378 74.7168 74.3981 74.0816 73.7674 73.4554 73.1455 72.8379 72.5324 72.229 71.9278 71.6286 71.3315 71.0365 70.7436 70.4526 70.1637 69.8767 69.5918 69.3088 69.0277 68.7486 68.4714 68.196 67.9226 67.651 67.3812 67.1133 66.8471 66.5828 66.3203 66.0595 65.8005 65.5432 65.2876 65.0337 64.7815 64.531 64.2822 64.035 63.7894 63.5455 63.3031 63.0624 62.8232 62.5856 62.3495
0 0 0 0 0 0 0 0 0 0 0 0 0 0 0 0 0 0 0 0 0 0 0 0 0 0 0 0 0 3.35229e-190 5.98836e-121 2.72728e-83 1.44811e-60 8.28571e-46 1.09411e-35 1.89997e-28 4.30808e-23 5.08004e-19 7.45441e-16 2.41387e-13 2.54451e-11 1.14534e-09 2.67296e-08 3.72691e-07 3.45008e-06 2.29674e-05 0.000116903 0.000477201 0.00162203 0.00473041 0.0121247 0.0278525 0.0582661 0.112474 0.20255 0.343423 0.552444 0.848671 1.25196 1.78197 2.45717 3.294 4.3061 5.50387 6.89412 8.47999 10.261 12.2334 14.3903 16.722 19.2169 21.8614 24.6405 27.5386 30.5392 33.6258 36.7821 39.9918 43.2394 46.5102 49.7902 53.0662 56.3261 59.559 62.7546 65.9041 68.9993 72.0331 74.9993 77.8927 80.7086 83.4435 86.0941 88.6582 91.1338 93.5198 95.8154 98.0201 100.134 102.158 104.092 105.937 107.695 109.366 110.953 112.458 113.881 115.225 116.492 117.684 118.804 119.852 120.832 121.746 122.595 123.383 124.11 124.78 125.394 125.954 126.463 126.922 127.334 127.7 128.022 128.302 128.541 128.742 128.905 129.033 129.128 129.189 129.22 129.221 129.194 129.14 129.061 128.956 128.829 128.679 128.508 128.317 128.107 127.879 127.634 127.372 127.094 126.802 126.496 126.177 125.846 125.502 125.148 124.783 124.409 124.025 123.632 123.231 122.822 122.407 121.984 121.555 121.121 120.681 120.236 119.786 119.332 118.874 118.412 117.947 117.479 117.008 116.535 116.06 115.582 115.103 114.622 114.14 113.657 113.173 112.688 112.203 111.717 111.232 110.746 110.26 109.775 109.289 108.805 108.321 107.837 107.355 106.873 106.393 105.913 105.435 104.958 104.483 104.009 103.536 103.065 102.596 102.128 101.662 101.198 100.736 100.276 99.8174 99.361 98.9066 98.4543 98.0041 97.5559 97.11 96.6662 96.2246 95.7852 95.3481 94.9132 94.4806 94.0503 93.6223 93.1966 92.7732 92.3522 91.9335 91.5172 91.1033 90.6917 90.2824 89.8756 89.4711 89.069 88.6693 88.272 87.877 87.4844 87.0942 86.7063 86.3208 85.9377 85.5569 85.1785 84.8024 84.4287 84.0573 83.6882 83.3214 82.9569 82.5947 82.2348 81.8772 81.5219 81.1688 80.818 80.4694 80.123 79.7788 79.4369 79.0971 78.7596 78.4242 78.0909 77.7598 77.4309 77.104 76.7793 76.4567 76.1361 75.8177 75.5012 75.1869 74.8746 74.5642 74.2559 73.9496 73.6453 73.343 73.0426 72.7441 72.4476 72.153 71.8603 71.5695 71.2806 70.9935 70.7083 70.4249 70.1433 69.8636 69.5857 69.3095 69.0351 68.7625 68.4916 68.2225 67.9551 67.6894 67.4254 67.1631 66.9024 66.6434 66.3861 66.1304 65.8763 65.6238 65.373 65.1237 64.876 64.6298 64.3852 64.1422 63.9007 63.6606 63.4221 63.1851 62.9496 62.7155 62.4829 62.2518 62.0221 61.7938 61.5669 61.3414 61.1173 60.8946
0 0 0 0 0 0 0 0 0 0 0 0 0 0 0 0 0 0 0 0 0 0 0 0 0 0 0 0 0 8.16623e-231 5.41016e-147 2.05938e-101 6.61261e-74 4.83524e-56 8.65148e-44 5.04959e-35 1.54646e-28 1.32327e-23 9.09292e-20 1.0036e-16 2.84782e-14 2.88514e-12 1.3198e-10 3.23625e-09 4.83303e-08 4.84179e-07 3.5045e-06 1.94161e-05 8.6173e-05 0.000317675 0.0010015 0.00276466 0.00681337 0.0152315 0.0312996 0.0597816 0.107122 0.18151 0.292786 0.452187 0.671968 0.964916 1.34382 1.82096 2.40759 3.11353 3.94684 4.91359 6.01774 7.2611 8.64337 10.1623 11.8137 13.592 15.49 17.4995 19.6113 21.8156 24.1022 26.4604 28.8797 31.3493 33.859 36.3985 38.9583 41.5291 44.1022 46.6694 49.2231 51.7564 54.2629 56.7368 59.1728 61.5663 63.9132 66.2098 68.4531 70.6404 72.7695 74.8384 76.8458 78.7905 80.6717 82.4888 84.2416 85.9301 87.5544 89.1148 90.6119 92.0464 93.419 94.7307 95.9825 97.1754 98.3107 99.3896 100.413 101.383 102.3 103.167 103.983 104.751 105.472 106.148 106.779 107.368 107.915 108.422 108.89 109.321 109.715 110.075 110.401 110.695 110.957 111.189 111.393 111.568 111.717 111.839 111.937 112.011 112.063 112.092 112.1 112.088 112.057 112.008 111.94 111.856 111.755 111.639 111.507 111.362 111.203 111.031 110.847 110.651 110.443 110.225 109.997 109.759 109.512 109.256 108.991 108.719 108.439 108.152 107.859 107.559 107.253 106.941 106.623 106.301 105.974 105.643 105.307 104.967 104.624 104.277 103.927 103.574 103.218 102.86 102.499 102.136 101.771 101.404 101.036 100.666 100.294 99.9219 99.5484 99.1739 98.7987 98.4227 98.0463 97.6694 97.2922 96.9148 96.5373 96.1597 95.7822 95.4049 95.0278 94.6511 94.2747 93.8988 93.5235 93.1488 92.7747 92.4014 92.0288 91.6572 91.2864 90.9165 90.5476 90.1798 89.8131 89.4474 89.083 88.7197 88.3577 87.9969 87.6374 87.2792 86.9224 86.567 86.2129 85.8603 85.5092 85.1594 84.8112 84.4645 84.1193 83.7756 83.4335 83.0929 82.7539 82.4165 82.0807 81.7465 81.4139 81.0829 80.7535 80.4258 80.0997 79.7753 79.4525 79.1314 78.8119 78.494 78.1779 77.8634 77.5505 77.2393 76.9298 76.622 76.3158 76.0112 75.7083 75.4071 75.1075 74.8096 74.5133 74.2186 73.9256 73.6343 73.3445 73.0564 72.7699 72.485 72.2018 71.9201 71.64 71.3616 71.0847 70.8094 70.5356 70.2635 69.9929 69.7238 69.4563 69.1904 68.926 68.6631 68.4017 68.1418 67.8835 67.6266 67.3712 67.1173 66.8649 66.614 66.3645 66.1164 65.8698 65.6247 65.3809 65.1386 64.8977 64.6581 64.42 64.1833 63.9479 63.7139 63.4813 63.25 63.0201 62.7915 62.5642 62.3382 62.1136 61.8902 61.6682 61.4474 61.2279 61.0097 60.7928 60.5771 60.3626 60.1494 59.9374 59.7266 59.5171 59.3087
0 0 0 0 0 0 0 0 0 0 0 0 0 0 0 0 0 0 0 0 0 0 0 0 0 0 0 0 0 1.05588e-275 8.86399e-176 1.92383e-121 1.19038e-88 2.36185e-67 9.60019e-53 2.72652e-42 1.48334e-34 1.13469e-28 4.29561e-24 1.83863e-20 1.55876e-17 3.87118e-15 3.72593e-13 1.70512e-11 4.3201e-10 6.79936e-09 7.26254e-08 5.63964e-07 3.36128e-06 1.60547e-05 6.36247e-05 0.000215188 0.000635619 0.0016712 0.00397353 0.00865733 0.0174776 0.0330031 0.0587603 0.0993216 0.160321 0.248385 0.370992 0.536253 0.752649 1.02874 1.37287 1.79287 2.29584 2.88789 3.57402 4.35798 5.24223 6.22793 7.31494 8.50195 9.78647 11.165 12.6333 14.186 15.8176 17.5217 19.2917 21.1207 23.0017 24.9277 26.8915 28.8862 30.9051 32.9416 34.9895 37.0427 39.0956 41.143 43.1799 45.2016 47.204 49.1831 51.1356 53.0581 54.9478 56.8023 58.6192 60.3966 62.1329 63.8267 65.4767 67.082 68.6418 70.1556 71.623 73.0437 74.4178 75.7451 77.0259 78.2605 79.4491 80.5924 81.6908 82.7449 83.7554 84.7231 85.6485 86.5327 87.3763 88.1803 88.9455 89.6728 90.3631 91.0174 91.6365 92.2215 92.7731 93.2923 93.7801 94.2374 94.665 95.0638 95.4347 95.7786 96.0963 96.3887 96.6565 96.9006 97.1218 97.3208 97.4983 97.6552 97.7921 97.9098 98.0088 98.0899 98.1537 98.2009 98.232 98.2476 98.2484 98.2349 98.2076 98.167 98.1137 98.0482 97.9709 97.8823 97.7828 97.673 97.5531 97.4237 97.2851 97.1377 96.9819 96.818 96.6464 96.4674 96.2814 96.0886 95.8893 95.6839 95.4727 95.2558 95.0336 94.8063 94.5742 94.3374 94.0963 93.8511 93.6019 93.349 93.0925 92.8327 92.5697 92.3037 92.035 91.7635 91.4896 91.2134 90.9349 90.6544 90.372 90.0879 89.802 89.5147 89.2259 88.9358 88.6446 88.3522 88.0589 87.7647 87.4697 87.174 86.8777 86.5808 86.2835 85.9859 85.6879 85.3897 85.0913 84.7928 84.4943 84.1959 83.8975 83.5992 83.3012 83.0034 82.7059 82.4087 82.1119 81.8155 81.5197 81.2243 80.9295 80.6352 80.3416 80.0487 79.7564 79.4648 79.174 78.884 78.5947 78.3063 78.0187 77.732 77.4462 77.1613 76.8773 76.5943 76.3123 76.0312 75.7512 75.4721 75.1941 74.9171 74.6412 74.3664 74.0926 73.8199 73.5484 73.2779 73.0085 72.7403 72.4732 72.2073 71.9425 71.6788 71.4163 71.155 70.8948 70.6358 70.378 70.1213 69.8659 69.6116 69.3585 69.1066 68.8558 68.6063 68.3579 68.1108 67.8648 67.62 67.3764 67.134 66.8928 66.6528 66.4139 66.1763 65.9398 65.7045 65.4703 65.2374 65.0056 64.775 64.5456 64.3173 64.0902 63.8642 63.6394 63.4158 63.1933 62.9719 62.7517 62.5326 62.3147 62.0978 61.8821 61.6676 61.4541 61.2417 61.0305 60.8203 60.6113 60.4033 60.1965 59.9907 59.786 59.5823 59.3798 59.1783 58.9778 58.7784 58.5801 58.3828 58.1865 57.9913 57.797 57.6039
0 0 0 0 0 0 0 0 0 0 0 0 0 0 0 0 0 0 0 0 0 0 0 0 0 0 0 0 0 0 2.63369e-207 2.2234e-143 8.44785e-105 9.65678e-80 1.49496e-62 2.99093e-50 3.80184e-41 3.20303e-34 7.85916e-29 1.48429e-24 4.1726e-21 2.76672e-18 6.01415e-16 5.45115e-14 2.46406e-12 6.36061e-11 1.04043e-09 1.16941e-08 9.62635e-08 6.10601e-07 3.10885e-06 1.31338e-05 4.73066e-05 0.000148564 0.000414426 0.00104299 0.00239934 0.00510151 0.0101203 0.0188832 0.0333701 0.0561865 0.0906048 0.140564 0.210624 0.305882 0.431848 0.594294 0.799088 1.05202 1.35864 1.72409 2.15297 2.64926 3.21617 3.85615 4.57083 5.361 6.22667 7.16706 8.18067 9.26536 10.4184 11.6365 12.916 14.2528 15.6425 17.0807 18.5626 20.0834 21.6382 23.2223 24.8309 26.4593 28.103 29.7576 31.4189 33.083 34.7459 36.4043 38.0546 39.6939 41.3191 42.9276 44.517 46.085 47.6296 49.149 50.6415 52.1057 53.5403 54.9442 56.3165 57.6564 58.9632 60.2363 61.4754 62.6802 63.8505 64.9861 66.087 67.1534 68.1853 69.183 70.1466 71.0766 71.9733 72.837 73.6683 74.4676 75.2354 75.9723 76.6787 77.3553 78.0027 78.6214 79.2121 79.7754 80.3119 80.8222 81.3069 81.7668 82.2023 82.6142 83.003 83.3694 83.714 84.0373 84.34 84.6227 84.8858 85.1301 85.356 85.5642 85.755 85.9291 86.0871 86.2293 86.3562 86.4685 86.5665 86.6507 86.7215 86.7794 86.8249 86.8583 86.88 86.8905 86.8901 86.8792 86.8581 86.8273 86.7871 86.7378 86.6797 86.6131 86.5384 86.4559 86.3658 86.2684 86.1641 86.053 85.9354 85.8116 85.6818 85.5463 85.4053 85.2589 85.1075 84.9512 84.7903 84.6248 84.4551 84.2812 84.1034 83.9219 83.7367 83.5481 83.3563 83.1613 82.9633 82.7625 82.559 82.3529 82.1443 81.9334 81.7204 81.5052 81.288 81.069 80.8482 80.6258 80.4018 80.1763 79.9494 79.7212 79.4918 79.2613 79.0298 78.7972 78.5638 78.3295 78.0945 77.8588 77.6225 77.3856 77.1481 76.9103 76.672 76.4335 76.1946 75.9555 75.7162 75.4767 75.2372 74.9976 74.758 74.5184 74.2789 74.0395 73.8002 73.5611 73.3222 73.0835 72.8452 72.6071 72.3693 72.1319 71.8949 71.6583 71.4221 71.1863 70.9511 70.7163 70.482 70.2483 70.0152 69.7826 69.5506 69.3192 69.0884 68.8583 68.6288 68.4 68.1719 67.9445 67.7177 67.4917 67.2664 67.0419 66.8181 66.595 66.3727 66.1512 65.9305 65.7105 65.4914 65.273 65.0555 64.8388 64.6229 64.4078 64.1936 63.9801 63.7676 63.5558 63.3449 63.1349 62.9257 62.7174 62.5099 62.3033 62.0975 61.8926 61.6886 61.4855 61.2832 61.0817 60.8812 60.6815 60.4827 60.2847 60.0877 59.8914 59.6961 59.5016 59.308 59.1153 58.9234 58.7324 58.5423 58.353 58.1646 57.977 57.7904 57.6045 57.4195 57.2354 57.0521 56.8697 56.6881 56.5074 56.3275 56.1484 55.9702 55.7928
0 0 0 0 0 0 0 0 0 0 0 0 0 0 0 0 0 0 0 0 0 0 0 0 0 0 0 0 0 0 1.41911e-241 3.17899e-167 2.36346e-122 3.3049e-93 3.26694e-73 6.6657e-59 2.60371e-48 2.97641e-40 5.56876e-34 5.27995e-29 5.4625e-25 1.05325e-21 5.55042e-19 1.05741e-16 8.96795e-15 3.96367e-13 1.03039e-11 1.73106e-10 2.02414e-09 1.74762e-08 1.16834e-07 6.28583e-07 2.80889e-06 1.07004e-05 3.551e-05 0.000104532 0.000277148 0.000670398 0.00149581 0.00310754 0.00605973 0.0111689 0.019575 0.0327953 0.0527629 0.081846 0.122844 0.178958 0.253741 0.351021 0.474816 0.629237 0.81838 1.04623 1.31654 1.6328 1.99808 2.41505 2.88588 3.41221 3.99519 4.63539 5.3329 6.08727 6.89761 7.76256 8.68037 9.64895 10.6659 11.7285 12.8339 13.979 15.1605 16.3753 17.6199 18.891 20.1851 21.499 22.8293 24.1728 25.5265 26.8873 28.2523 29.6188 30.9841 32.3458 33.7015 35.049 36.3864 37.7116 39.0229 40.3188 41.5977 42.8583 44.0994 45.3199 46.5188 47.6952 48.8483 49.9776 51.0825 52.1624 53.217 54.246 55.2491 56.2262 57.1772 58.102 59.0006 59.8731 60.7195 61.5401 62.335 63.1045 63.8487 64.5679 65.2625 65.9328 66.5791 67.2018 67.8012 68.3778 68.9319 69.4639 69.9743 70.4636 70.932 71.3801 71.8083 72.217 72.6067 72.9778 73.3307 73.6659 73.9837 74.2847 74.5693 74.8378 75.0907 75.3283 75.5512 75.7596 75.954 76.1348 76.3023 76.4569 76.5989 76.7288 76.8469 76.9535 77.049 77.1336 77.2078 77.2717 77.3258 77.3704 77.4056 77.4319 77.4495 77.4586 77.4596 77.4526 77.438 77.416 77.3868 77.3507 77.3079 77.2586 77.2031 77.1415 77.074 77.0009 76.9224 76.8385 76.7497 76.6559 76.5573 76.4542 76.3468 76.2351 76.1193 75.9996 75.876 75.7489 75.6183 75.4843 75.347 75.2066 75.0633 74.9171 74.7681 74.6165 74.4624 74.3058 74.1469 73.9858 73.8226 73.6573 73.4901 73.321 73.1502 72.9777 72.8035 72.6279 72.4508 72.2723 72.0925 71.9115 71.7293 71.546 71.3616 71.1763 70.99 70.8029 70.615 70.4263 70.2369 70.0468 69.8561 69.6649 69.4731 69.2809 69.0883 68.8952 68.7019 68.5082 68.3142 68.12 67.9256 67.731 67.5363 67.3415 67.1466 66.9517 66.7568 66.5619 66.367 66.1722 65.9774 65.7828 65.5884 65.3941 65.1999 65.006 64.8123 64.6189 64.4257 64.2327 64.0401 63.8478 63.6558 63.4642 63.2729 63.082 62.8915 62.7014 62.5117 62.3225 62.1337 61.9453 61.7574 61.5699 61.383 61.1965 61.0105 60.8251 60.6401 60.4557 60.2719 60.0885 59.9057 59.7235 59.5418 59.3607 59.1802 59.0002 58.8209 58.6421 58.4639 58.2863 58.1093 57.9329 57.7572 57.582 57.4075 57.2336 57.0603 56.8876 56.7156 56.5442 56.3734 56.2033 56.0338 55.8649 55.6967 55.5291 55.3622 55.1959 55.0302 54.8652 54.7009 54.5372 54.3741 54.2117 54.0499 53.8888
0 0 0 0 0 0 0 0 0 0 0 0 0 0 0 0 0 0 0 0 0 0 0 0 0 0 0 0 0 0 1.3867e-278 5.62321e-193 2.60673e-141 9.46741e-108 1.00188e-84 3.01806e-68 4.76474e-56 9.10491e-47 1.52817e-39 8.27622e-34 3.49732e-29 2.13572e-25 2.9288e-22 1.24456e-19 2.08265e-17 1.64537e-15 7.05432e-14 1.82929e-12 3.12494e-11 3.7642e-10 3.37707e-09 2.35902e-08 1.33057e-07 6.24426e-07 2.49968e-06 8.71565e-06 2.69366e-05 7.48959e-05 0.000189729 0.000442653 0.000960012 0.00195099 0.00374125 0.00681059 0.0118319 0.0197077 0.0316009 0.0489557 0.0735072 0.107277 0.152553 0.21186 0.287915 0.383572 0.501763 0.645436 0.817489 1.02071 1.25771 1.5309 1.8424 2.19406 2.58737 3.02351 3.50329 4.02716 4.59524 5.20729 5.86278 6.56084 7.30036 8.07996 8.89803 9.7528 10.6423 11.5644 12.5169 13.4976 14.504 15.5338 16.5845 17.6537 18.7391 19.8383 20.9489 22.0687 23.1955 24.3271 25.4616 26.5969 27.7313 28.8629 29.9901 31.1113 32.225 33.3299 34.4246 35.508 36.5789 37.6363 38.6794 39.7073 40.7192 41.7144 42.6923 43.6524 44.5942 45.5173 46.4214 47.306 48.1712 49.0165 49.8419 50.6472 51.4325 52.1976 52.9427 53.6677 54.3727 55.0578 55.7232 56.3689 56.9953 57.6023 58.1904 58.7596 59.3103 59.8426 60.3569 60.8534 61.3323 61.7941 62.2388 62.667 63.0788 63.4745 63.8545 64.2191 64.5686 64.9033 65.2235 65.5295 65.8216 66.1002 66.3655 66.6178 66.8575 67.0848 67.3 67.5035 67.6955 67.8763 68.0461 68.2053 68.3541 68.4928 68.6217 68.7409 68.8509 68.9517 69.0437 69.127 69.202 69.2689 69.3278 69.3791 69.4228 69.4593 69.4888 69.5113 69.5272 69.5367 69.5399 69.5369 69.5281 69.5135 69.4934 69.4678 69.4371 69.4012 69.3604 69.3149 69.2648 69.2102 69.1512 69.0881 69.0209 68.9498 68.8749 68.7963 68.7141 68.6286 68.5397 68.4475 68.3523 68.2541 68.153 68.0491 67.9426 67.8334 67.7217 67.6076 67.4912 67.3725 67.2517 67.1288 67.0039 66.877 66.7484 66.6179 66.4857 66.3519 66.2166 66.0797 65.9414 65.8017 65.6606 65.5184 65.3749 65.2302 65.0844 64.9376 64.7898 64.641 64.4914 64.3408 64.1895 64.0374 63.8845 63.731 63.5768 63.422 63.2666 63.1107 62.9543 62.7975 62.6401 62.4824 62.3243 62.1659 62.0072 61.8482 61.6889 61.5294 61.3697 61.2098 61.0497 60.8896 60.7293 60.5689 60.4085 60.2481 60.0876 59.9271 59.7666 59.6062 59.4458 59.2855 59.1253 58.9652 58.8052 58.6453 58.4856 58.3261 58.1667 58.0075 57.8485 57.6898 57.5313 57.373 57.2149 57.0572 56.8997 56.7424 56.5855 56.4289 56.2726 56.1166 55.9609 55.8056 55.6506 55.4959 55.3417 55.1878 55.0342 54.8811 54.7283 54.5759 54.4239 54.2723 54.1212 53.9704 53.8201 53.6701 53.5206 53.3716 53.2229 53.0747 52.927 52.7797 52.6328 52.4864 52.3405 52.195 52.05 51.9054
0 0 0 0 0 0 0 0 0 0 0 0 0 0 0 0 0 0 0 0 0 0 0 0 0 0 0 0 0 0 0 1.23055e-220 1.13341e-161 2.27013e-123 4.31169e-97 2.77622e-78 2.32989e-64 9.16872e-54 1.6241e-45 5.7164e-39 1.09506e-33 2.30676e-29 8.83618e-26 8.88814e-23 3.0862e-20 4.54985e-18 3.33865e-16 1.38001e-14 3.54213e-13 6.10145e-12 7.50769e-11 6.94222e-10 5.02838e-09 2.95232e-08 1.44561e-07 6.04543e-07 2.20283e-06 7.11335e-06 2.06523e-05 5.4578e-05 0.000132687 0.000299483 0.00063255 0.00125891 0.00237513 0.00427043 0.00735135 0.0121662 0.0194273 0.0300291 0.0450598 0.065806 0.0937491 0.130553 0.178045 0.238186 0.31304 0.404736 0.515427 0.647252 0.802293 0.982535 1.18984 1.4259 1.69223 1.99013 2.32069 2.68474 3.08289 3.51552 3.98274 4.48445 5.02032 5.58982 6.19222 6.8266 7.49189 8.18689 8.91024 9.6605 10.4361 11.2355 12.0569 12.8987 13.7592 14.6364 15.5288 16.4346 17.3519 18.2791 19.2146 20.1567 21.1038 22.0545 23.0071 23.9604 24.9129 25.8633 26.8105 27.7534 28.6907 29.6214 30.5447 31.4596 32.3653 33.2609 34.1459 35.0195 35.8811 36.7302 37.5663 38.3889 39.1977 39.9923 40.7724 41.5377 42.288 43.0232 43.7429 44.4472 45.136 45.8091 46.4665 47.1083 47.7344 48.3448 48.9397 49.5191 50.083 50.6317 51.1651 51.6834 52.1869 52.6755 53.1496 53.6093 54.0547 54.486 54.9035 55.3074 55.6978 56.075 56.4391 56.7904 57.1292 57.4556 57.7699 58.0722 58.3629 58.6421 58.91 59.1669 59.4131 59.6486 59.8739 60.089 60.2941 60.4896 60.6756 60.8524 61.02 61.1789 61.329 61.4707 61.6042 61.7296 61.8472 61.9571 62.0594 62.1545 62.2425 62.3235 62.3978 62.4654 62.5266 62.5816 62.6305 62.6734 62.7105 62.7419 62.7679 62.7886 62.804 62.8144 62.8199 62.8205 62.8166 62.8081 62.7951 62.7779 62.7566 62.7312 62.7019 62.6688 62.6319 62.5915 62.5476 62.5003 62.4497 62.3959 62.339 62.2791 62.2163 62.1506 62.0823 62.0112 61.9377 61.8616 61.7831 61.7022 61.6191 61.5339 61.4464 61.357 61.2656 61.1722 61.077 60.98 60.8813 60.7809 60.6789 60.5754 60.4704 60.3639 60.256 60.1468 60.0362 59.9245 59.8115 59.6974 59.5822 59.4659 59.3486 59.2303 59.1111 58.991 58.87 58.7482 58.6256 58.5023 58.3782 58.2535 58.1281 58.002 57.8754 57.7482 57.6205 57.4923 57.3636 57.2345 57.1049 56.975 56.8446 56.714 56.583 56.4516 56.3201 56.1882 56.0561 55.9238 55.7913 55.6586 55.5258 55.3928 55.2597 55.1264 54.9931 54.8597 54.7263 54.5928 54.4593 54.3258 54.1922 54.0587 53.9252 53.7918 53.6583 53.525 53.3917 53.2586 53.1255 52.9925 52.8596 52.7269 52.5943 52.4619 52.3296 52.1975 52.0655 51.9338 51.8022 51.6708 51.5397 51.4087 51.278 51.1475 51.0172 50.8872 50.7574 50.6279 50.4986 50.3696 50.2409 50.1124 49.9842 49.8563
0 0 0 0 0 0 0 0 0 0 0 0 0 0 0 0 0 0 0 0 0 0 0 0 0 0 0 0 0 0 0 3.33149e-250 1.94278e-183 4.55632e-140 2.604e-110 5.18828e-89 3.04423e-73 3.03943e-61 6.68479e-52 1.73981e-44 1.67687e-38 1.32711e-33 1.52424e-29 3.85146e-26 2.9182e-23 8.38107e-21 1.09232e-18 7.43204e-17 2.94788e-15 7.44267e-14 1.28372e-12 1.602e-11 1.51603e-10 1.13095e-09 6.86834e-09 3.48845e-08 1.51576e-07 5.74356e-07 1.92919e-06 5.82477e-06 1.59995e-05 4.03979e-05 9.461e-05 0.000207127 0.000426801 0.000832726 0.00154652 0.00274667 0.00468425 0.00769918 0.0122358 0.0188565 0.0282529 0.0412524 0.0588204 0.0820579 0.112193 0.150569 0.198625 0.257879 0.329899 0.416281 0.518621 0.63849 0.777406 0.936813 1.11805 1.32236 1.55082 1.8044 2.08387 2.38987 2.72287 3.08316 3.47086 3.88596 4.32826 4.79741 5.29296 5.81429 6.36067 6.93128 7.52518 8.14136 8.77874 9.43617 10.1124 10.8063 11.5166 12.2419 12.9809 13.7324 14.4951 15.2676 16.0487 16.8371 17.6316 18.4311 19.2343 20.0401 20.8475 21.6553 22.4627 23.2686 24.0721 24.8724 25.6686 26.46 27.2458 28.0253 28.798 29.5631 30.3202 31.0687 31.8082 32.5381 33.2582 33.9681 34.6673 35.3557 36.0329 36.6987 37.3529 37.9954 38.6259 39.2444 39.8507 40.4448 41.0266 41.596 42.1531 42.6977 43.23 43.7499 44.2575 44.7529 45.236 45.7071 46.166 46.6131 47.0482 47.4717 47.8835 48.2838 48.6727 49.0504 49.4171 49.7727 50.1176 50.4518 50.7756 51.089 51.3922 51.6854 51.9688 52.2425 52.5066 52.7614 53.007 53.2436 53.4713 53.6904 53.9009 54.103 54.297 54.4829 54.6609 54.8312 54.9939 55.1492 55.2973 55.4383 55.5723 55.6996 55.8202 55.9342 56.042 56.1435 56.2389 56.3284 56.4121 56.4902 56.5626 56.6297 56.6915 56.7482 56.7998 56.8465 56.8883 56.9256 56.9582 56.9864 57.0103 57.0299 57.0454 57.0568 57.0644 57.0681 57.0681 57.0645 57.0573 57.0466 57.0327 57.0154 56.995 56.9714 56.9449 56.9154 56.8831 56.848 56.8102 56.7697 56.7267 56.6812 56.6333 56.5831 56.5305 56.4758 56.4189 56.3599 56.2989 56.2359 56.171 56.1042 56.0356 55.9653 55.8933 55.8196 55.7443 55.6675 55.5892 55.5095 55.4283 55.3458 55.2619 55.1768 55.0905 55.0029 54.9142 54.8244 54.7335 54.6416 54.5487 54.4548 54.3599 54.2642 54.1676 54.0701 53.9719 53.8728 53.773 53.6726 53.5714 53.4695 53.367 53.2639 53.1603 53.056 52.9512 52.8459 52.7402 52.6339 52.5272 52.4201 52.3126 52.2047 52.0965 51.9879 51.879 51.7697 51.6602 51.5504 51.4404 51.3301 51.2196 51.1089 50.998 50.8869 50.7757 50.6643 50.5528 50.4412 50.3294 50.2176 50.1057 49.9937 49.8816 49.7696 49.6574 49.5453 49.4331 49.3209 49.2088 49.0966 48.9845 48.8724 48.7604 48.6484 48.5365 48.4246 48.3128 48.2011 48.0895 47.978 47.8666 47.7553
0 0 0 0 0 0 0 0 0 0 0 0 0 0 0 0 0 0 0 0 0 0 0 0 0 0 0 0 0 0 0 1.11583e-281 1.31282e-206 7.65465e-158 2.20697e-124 1.96986e-100 1.06284e-82 3.31686e-69 1.0656e-58 2.33331e-50 1.2558e-43 4.06681e-38 1.50332e-33 1.01265e-29 1.76072e-26 1.02842e-23 2.47053e-21 2.85734e-19 1.80127e-17 6.83219e-16 1.68823e-14 2.89884e-13 3.64652e-12 3.51012e-11 2.68092e-10 1.67462e-09 8.77587e-09 3.94256e-08 1.54653e-07 5.38081e-07 1.68311e-06 4.78868e-06 1.25182e-05 3.0333e-05 6.86544e-05 0.000146126 0.000294217 0.000563324 0.00103041 0.00180805 0.00305455 0.00498469 0.00788048 0.0121013 0.0180923 0.0263917 0.0376342 0.0525526 0.0719754 0.0968219 0.128094 0.166864 0.214262 0.271461 0.339659 0.420061 0.513864 0.622236 0.746302 0.887128 1.04571 1.22294 1.41964 1.63652 1.87417 2.13307 2.41358 2.71594 3.04029 3.38663 3.75486 4.14477 4.55606 4.98831 5.44103 5.91366 6.40553 6.91595 7.44413 7.98925 8.55045 9.12683 9.71745 10.3214 10.9376 11.5653 12.2032 12.8506 13.5064 14.1697 14.8395 15.5148 16.1948 16.8786 17.5653 18.254 18.9439 19.6343 20.3245 21.0135 21.7009 22.3859 23.0679 23.7463 24.4205 25.09 25.7543 26.413 27.0655 27.7116 28.3507 28.9826 29.6068 30.2232 30.8315 31.4313 32.0225 32.6048 33.1781 33.7422 34.297 34.8423 35.378 35.9041 36.4204 36.9269 37.4236 37.9104 38.3874 38.8544 39.3115 39.7588 40.1962 40.6238 41.0416 41.4498 41.8482 42.2371 42.6164 42.9863 43.3468 43.6981 44.0402 44.3732 44.6972 45.0124 45.3188 45.6165 45.9057 46.1865 46.459 46.7233 46.9795 47.2278 47.4682 47.701 47.9261 48.1438 48.3542 48.5574 48.7535 48.9427 49.125 49.3005 49.4695 49.6321 49.7883 49.9382 50.0821 50.2199 50.3519 50.4781 50.5987 50.7137 50.8233 50.9276 51.0267 51.1207 51.2098 51.2939 51.3733 51.4479 51.518 51.5837 51.6449 51.7019 51.7546 51.8033 51.848 51.8887 51.9256 51.9588 51.9883 52.0143 52.0367 52.0558 52.0715 52.084 52.0933 52.0995 52.1026 52.1028 52.1002 52.0947 52.0865 52.0755 52.062 52.046 52.0274 52.0064 51.9831 51.9575 51.9296 51.8995 51.8673 51.833 51.7967 51.7584 51.7182 51.6762 51.6323 51.5866 51.5392 51.4902 51.4395 51.3872 51.3334 51.278 51.2212 51.163 51.1034 51.0425 50.9802 50.9167 50.8519 50.786 50.7189 50.6507 50.5813 50.511 50.4396 50.3671 50.2938 50.2194 50.1442 50.0681 49.9912 49.9134 49.8348 49.7554 49.6753 49.5945 49.513 49.4308 49.348 49.2645 49.1804 49.0957 49.0105 48.9247 48.8384 48.7517 48.6644 48.5766 48.4884 48.3998 48.3108 48.2214 48.1316 48.0414 47.9509 47.86 47.7689 47.6774 47.5857 47.4937 47.4014 47.3089 47.2162 47.1233 47.0301 46.9368 46.8432 46.7495 46.6557 46.5617 46.4675 46.3733 46.2789 46.1844 46.0898 45.9952 45.9005 45.8057 45.7108 45.6159
0 0 0 0 0 0 0 0 0 0 0 0 0 0 0 0 0 0 0 0 0 0 0 0 0 0 0 0 0 0 0 4.62445e-315 3.49726e-231 1.07642e-176 2.6249e-139 1.51947e-112 9.91533e-93 1.19155e-77 6.5785e-66 1.37889e-56 4.59938e-49 6.63816e-43 8.47742e-38 1.61553e-33 6.77871e-30 8.40634e-27 3.86273e-24 7.8423e-22 8.08106e-20 4.71982e-18 1.70762e-16 4.11324e-15 6.99741e-14 8.82674e-13 8.597e-12 6.68769e-11 4.27522e-10 2.30074e-09 1.06393e-08 4.30252e-08 1.54471e-07 4.98819e-07 1.46526e-06 3.95393e-06 9.88593e-06 2.30754e-05 5.06175e-05 0.000104957 0.000206788 0.000388904 0.00070103 0.00121561 0.0020344 0.00329558 0.00518118 0.00792423 0.0118154 0.0172087 0.0245253 0.0342568 0.0469651 0.0632813 0.0839021 0.109584 0.141138 0.179416 0.225306 0.279717 0.343571 0.417786 0.503268 0.600899 0.711525 0.835944 0.974901 1.12908 1.29908 1.48545 1.68864 1.90903 2.1469 2.40245 2.6758 2.96699 3.27597 3.60261 3.94672 4.30802 4.68618 5.08079 5.49141 5.91752 6.35858 6.81398 7.28311 7.76529 8.25986 8.76609 9.28327 9.81067 10.3475 10.8931 11.4467 12.0075 12.5748 13.1478 13.7259 14.3084 14.8945 15.4835 16.0748 16.6678 17.2619 17.8564 18.4507 19.0444 19.6368 20.2275 20.816 21.4018 21.9845 22.5637 23.1389 23.7098 24.276 24.8372 25.3932 25.9435 26.488 27.0264 27.5584 28.0839 28.6026 29.1144 29.6191 30.1166 30.6067 31.0893 31.5644 32.0318 32.4914 32.9432 33.3871 33.8231 34.2512 34.6712 35.0833 35.4874 35.8836 36.2717 36.6519 37.0241 37.3884 37.7449 38.0935 38.4343 38.7674 39.0929 39.4107 39.721 40.0238 40.3192 40.6072 40.888 41.1616 41.4281 41.6876 41.9402 42.1859 42.4249 42.6572 42.883 43.1023 43.3151 43.5217 43.7221 43.9163 44.1046 44.2869 44.4634 44.6342 44.7993 44.9589 45.113 45.2618 45.4053 45.5436 45.6769 45.8051 45.9285 46.047 46.1608 46.27 46.3746 46.4747 46.5705 46.6619 46.7491 46.8323 46.9113 46.9864 47.0575 47.1249 47.1885 47.2485 47.3048 47.3577 47.4071 47.4531 47.4958 47.5353 47.5716 47.6049 47.635 47.6623 47.6866 47.708 47.7267 47.7427 47.756 47.7667 47.7749 47.7805 47.7838 47.7847 47.7832 47.7795 47.7735 47.7654 47.7551 47.7428 47.7285 47.7122 47.694 47.6738 47.6519 47.6281 47.6026 47.5754 47.5465 47.516 47.4839 47.4502 47.4151 47.3784 47.3403 47.3008 47.26 47.2178 47.1743 47.1296 47.0836 47.0364 46.988 46.9385 46.8879 46.8362 46.7834 46.7297 46.6749 46.6192 46.5625 46.5049 46.4464 46.387 46.3268 46.2658 46.2039 46.1413 46.078 46.0139 45.9491 45.8836 45.8175 45.7507 45.6833 45.6153 45.5467 45.4775 45.4077 45.3375 45.2667 45.1954 45.1236 45.0514 44.9787 44.9056 44.832 44.758 44.6837 44.609 44.5339 44.4584 44.3827 44.3066 44.2301 44.1534 44.0764 43.9992 43.9216 43.8438 43.7658 43.6875 43.6091 43.5304 43.4515
0 0 0 0 0 0 0 0 0 0 0 0 0 0 0 0 0 0 0 0 0 0 0 0 0 0 0 0 0 0 0 0 3.67279e-257 1.26703e-196 4.38116e-155 2.38117e-125 2.47169e-103 1.40912e-86 1.57287e-73 3.59068e-63 8.23829e-55 5.77148e-48 2.7333e-42 1.56384e-37 1.66528e-33 4.57733e-30 4.17505e-27 1.53657e-24 2.66183e-22 2.45373e-20 1.32846e-18 4.57659e-17 1.07123e-15 1.79836e-14 2.26487e-13 2.22185e-12 1.75241e-11 1.14142e-10 6.28124e-10 2.97787e-09 1.23683e-08 4.56604e-08 1.51722e-07 4.58752e-07 1.2743e-06 3.27919e-06 7.87508e-06 1.77649e-05 3.78602e-05 7.66192e-05 0.000147911 0.000273484 0.000486084 0.000833208 0.00138143 0.00222121 0.00347188 0.00528682 0.00785828 0.0114218 0.0162601 0.0227053 0.0311411 0.0420028 0.0557763 0.0729957 0.0942397 0.120127 0.151309 0.188466 0.232295 0.283507 0.342814 0.410924 0.488531 0.576308 0.6749 0.784915 0.906919 1.04143 1.18893 1.34981 1.52444 1.71311 1.91605 2.13344 2.36537 2.6119 2.87302 3.14865 3.43867 3.74289 4.06109 4.39298 4.73825 5.09654 5.46744 5.85052 6.24534 6.65139 7.06817 7.49516 7.93181 8.37757 8.83186 9.29413 9.76379 10.2403 10.723 11.2114 11.7049 12.2029 12.705 13.2104 13.7188 14.2296 14.7422 15.2562 15.7712 16.2866 16.8019 17.3169 17.831 18.3438 18.855 19.3643 19.8711 20.3753 20.8765 21.3744 21.8687 22.3592 22.8456 23.3276 23.8051 24.2778 24.7456 25.2082 25.6655 26.1174 26.5636 27.0042 27.4388 27.8676 28.2903 28.7068 29.1172 29.5212 29.919 30.3103 30.6953 31.0737 31.4457 31.8112 32.1702 32.5227 32.8686 33.208 33.541 33.8674 34.1874 34.501 34.8081 35.1089 35.4033 35.6915 35.9734 36.2491 36.5186 36.7821 37.0395 37.2909 37.5363 37.7759 38.0097 38.2378 38.4602 38.6769 38.8881 39.0939 39.2942 39.4892 39.6789 39.8634 40.0428 40.2172 40.3866 40.551 40.7106 40.8655 41.0156 41.1612 41.3022 41.4387 41.5708 41.6985 41.822 41.9413 42.0565 42.1677 42.2748 42.378 42.4774 42.573 42.6648 42.7531 42.8377 42.9188 42.9964 43.0707 43.1416 43.2093 43.2737 43.335 43.3932 43.4484 43.5005 43.5498 43.5962 43.6398 43.6807 43.7188 43.7543 43.7872 43.8176 43.8455 43.8709 43.894 43.9147 43.9331 43.9493 43.9632 43.975 43.9847 43.9924 43.998 44.0016 44.0033 44.003 44.001 43.9971 43.9914 43.984 43.9748 43.964 43.9516 43.9376 43.922 43.9049 43.8863 43.8663 43.8448 43.822 43.7977 43.7722 43.7453 43.7172 43.6878 43.6572 43.6255 43.5925 43.5585 43.5233 43.4871 43.4498 43.4115 43.3722 43.3319 43.2906 43.2485 43.2054 43.1614 43.1166 43.0709 43.0244 42.9772 42.9291 42.8803 42.8307 42.7804 42.7294 42.6778 42.6254 42.5725 42.5188 42.4646 42.4098 42.3544 42.2984 42.2419 42.1849 42.1273 42.0693 42.0107 41.9517 41.8922 41.8323 41.7719 41.7111 41.6499 41.5884 41.5264 41.4641 41.4014 41.3383 41.275
0 0 0 0 0 0 0 0 0 0 0 0 0 0 0 0 0 0 0 0 0 0 0 0 0 0 0 0 0 0 0 0 1.52058e-284 1.24834e-217 1.02619e-171 7.58109e-139 1.64637e-114 5.48573e-96 1.45643e-81 4.12014e-70 7.21662e-61 2.67283e-53 5.03876e-47 9.18519e-42 2.61043e-37 1.6603e-33 3.11955e-30 2.14926e-27 6.43748e-25 9.59983e-23 7.94886e-21 3.99298e-19 1.30834e-17 2.9686e-16 4.90198e-15 6.14088e-14 6.044e-13 4.81411e-12 3.18238e-11 1.78401e-10 8.6397e-10 3.67289e-09 1.38978e-08 4.73764e-08 1.47039e-07 4.19352e-07 1.10798e-06 2.73158e-06 6.3239e-06 1.38261e-05 2.86904e-05 5.67609e-05 0.000107493 0.000195567 0.000342925 0.00058125 0.000954838 0.00152383 0.00236767 0.00358873 0.00531582 0.00770756 0.0109554 0.0152861 0.0209634 0.0282893 0.0376041 0.0492856 0.0637476 0.0814375 0.102833 0.128437 0.158776 0.19439 0.235833 0.283661 0.33843 0.400692 0.470984 0.549825 0.637714 0.735119 0.842479 0.960197 1.08864 1.22812 1.37893 1.54131 1.71543 1.90145 2.09946 2.30952 2.53162 2.76575 3.01181 3.26969 3.53923 3.82024 4.1125 4.41573 4.72966 5.05397 5.38832 5.73235 6.08568 6.44792 6.81866 7.19747 7.58393 7.97759 8.37801 8.78475 9.19735 9.61536 10.0383 10.4658 10.8974 11.3326 11.771 12.2122 12.6558 13.1014 13.5485 13.9968 14.4459 14.8955 15.3452 15.7946 16.2434 16.6914 17.1382 17.5834 18.027 18.4684 18.9076 19.3443 19.7782 20.2092 20.6369 21.0613 21.4822 21.8992 22.3124 22.7216 23.1265 23.5272 23.9233 24.315 24.7019 25.0841 25.4615 25.8339 26.2013 26.5637 26.9209 27.273 27.6198 27.9614 28.2977 28.6287 28.9544 29.2747 29.5897 29.8993 30.2036 30.5025 30.796 31.0842 31.3671 31.6447 31.917 32.184 32.4458 32.7023 32.9538 33.2 33.4412 33.6773 33.9084 34.1345 34.3556 34.5719 34.7833 34.9899 35.1918 35.389 35.5815 35.7695 35.9529 36.1318 36.3062 36.4763 36.6421 36.8036 36.9608 37.1139 37.2629 37.4079 37.5489 37.6859 37.819 37.9484 38.0739 38.1958 38.3139 38.4285 38.5396 38.6471 38.7512 38.8519 38.9493 39.0434 39.1343 39.222 39.3066 39.3881 39.4667 39.5422 39.6148 39.6846 39.7515 39.8157 39.8772 39.936 39.9921 40.0457 40.0967 40.1453 40.1914 40.2351 40.2765 40.3155 40.3523 40.3868 40.4192 40.4494 40.4775 40.5035 40.5275 40.5496 40.5696 40.5878 40.6041 40.6185 40.6311 40.642 40.6511 40.6585 40.6643 40.6684 40.6709 40.6719 40.6713 40.6692 40.6656 40.6606 40.6541 40.6463 40.6371 40.6266 40.6148 40.6017 40.5873 40.5717 40.5549 40.537 40.5179 40.4976 40.4763 40.4539 40.4304 40.4059 40.3804 40.3539 40.3265 40.2981 40.2688 40.2385 40.2074 40.1755 40.1427 40.109 40.0746 40.0394 40.0034 39.9666 39.9291 39.8909 39.8521 39.8125 39.7722 39.7313 39.6898 39.6477 39.6049 39.5616 39.5176 39.4731 39.4281 39.3826 39.3365 39.2899 39.2428 39.1952 39.1472 39.0987
0 0 0 0 0 0 0 0 0 0 0 0 0 0 0 0 0 0 0 0 0 0 0 0 0 0 0 0 0 0 0 0 2.48179e-313 1.02951e-239 3.37307e-189 4.90362e-153 2.9303e-126 7.03025e-106 5.22294e-90 2.08323e-77 3.09164e-67 6.59329e-59 5.31094e-52 3.27344e-46 2.61107e-41 4.01169e-37 1.61133e-33 2.14611e-30 1.14307e-27 2.82641e-25 3.65812e-23 2.7318e-21 1.27482e-19 3.97033e-18 8.71629e-17 1.41197e-15 1.75397e-14 1.72614e-13 1.38367e-12 9.25111e-12 5.26521e-11 2.59624e-10 1.12619e-09 4.35493e-09 1.5188e-08 4.82599e-08 1.40971e-07 3.81562e-07 9.63674e-07 2.2852e-06 5.1162e-06 1.08679e-05 2.2001e-05 4.26144e-05 7.92568e-05 0.000141997 0.000245779 0.000412071 0.000670808 0.00106258 0.00164103 0.00247539 0.00365305 0.00528204 0.0074934 0.0104432 0.0143144 0.0193178 0.0256928 0.0337077 0.0436591 0.0558707 0.0706917 0.0884946 0.109672 0.134634 0.163805 0.197617 0.23651 0.280926 0.331301 0.388068 0.451648 0.522447 0.600854 0.687235 0.781934 0.885267 0.997521 1.11895 1.24979 1.39021 1.54039 1.70044 1.87045 2.05047 2.24052 2.44059 2.65064 2.87058 3.10031 3.3397 3.58858 3.84678 4.11407 4.39024 4.67502 4.96816 5.26936 5.57834 5.89477 6.21834 6.54872 6.88557 7.22854 7.57729 7.93146 8.2907 8.65466 9.02297 9.3953 9.77128 10.1506 10.5328 10.9177 11.3049 11.694 12.0848 12.477 12.8701 13.264 13.6584 14.0529 14.4474 14.8414 15.2349 15.6274 16.0189 16.4091 16.7977 17.1846 17.5696 17.9524 18.3329 18.7109 19.0863 19.4589 19.8286 20.1951 20.5585 20.9185 21.2751 21.6282 21.9776 22.3233 22.6651 23.003 23.337 23.6669 23.9927 24.3144 24.6318 24.945 25.2539 25.5585 25.8587 26.1545 26.446 26.733 27.0156 27.2938 27.5675 27.8367 28.1016 28.3619 28.6179 28.8694 29.1165 29.3592 29.5976 29.8316 30.0612 30.2865 30.5076 30.7243 30.9369 31.1452 31.3494 31.5494 31.7453 31.9372 32.125 32.3088 32.4887 32.6646 32.8367 33.0049 33.1693 33.33 33.487 33.6402 33.7899 33.936 34.0785 34.2175 34.353 34.4852 34.614 34.7394 34.8616 34.9805 35.0963 35.2089 35.3183 35.4248 35.5282 35.6286 35.7261 35.8207 35.9124 36.0014 36.0876 36.1711 36.2519 36.33 36.4056 36.4786 36.549 36.617 36.6826 36.7458 36.8066 36.8651 36.9213 36.9753 37.027 37.0766 37.124 37.1694 37.2127 37.2539 37.2932 37.3305 37.3659 37.3994 37.431 37.4608 37.4888 37.515 37.5396 37.5624 37.5835 37.603 37.6209 37.6372 37.6519 37.6652 37.6769 37.6871 37.696 37.7034 37.7094 37.714 37.7173 37.7193 37.72 37.7195 37.7177 37.7147 37.7105 37.7051 37.6986 37.691 37.6822 37.6724 37.6615 37.6496 37.6366 37.6227 37.6078 37.5919 37.5751 37.5574 37.5387 37.5192 37.4988 37.4776 37.4555 37.4326 37.4089 37.3845 37.3593 37.3333 37.3066 37.2792 37.2511 37.2222 37.1928 37.1626 37.1319 37.1005 37.0684 37.0358 37.0026 36.9688 36.9345
0 0 0 0 0 0 0 0 0 0 0 0 0 0 0 0 0 0 0 0 0 0 0 0 0 0 0 0 0 0 0 0 0 7.10675e-263 1.55591e-207 6.44384e-168 1.39361e-138 2.96591e-116 7.25392e-99 4.64143e-85 6.47744e-74 8.66319e-65 3.2006e-57 7.0785e-51 1.66652e-45 6.45708e-41 5.75364e-37 1.52983e-33 1.49023e-30 6.26242e-28 1.29482e-25 1.46555e-23 9.90974e-22 4.30229e-20 1.27328e-18 2.70082e-17 4.28282e-16 5.26173e-15 5.16284e-14 4.15239e-13 2.79937e-12 1.6127e-11 8.07303e-11 3.56316e-10 1.40434e-09 4.99792e-09 1.622e-08 4.84192e-08 1.33974e-07 3.4595e-07 8.38748e-07 1.91967e-06 4.16772e-06 8.62062e-06 1.70546e-05 3.23845e-05 5.92118e-05 0.000104545 0.000178713 0.000296481 0.00047837 0.000752159 0.00115456 0.00173299 0.00254743 0.0036723 0.00519818 0.00723356 0.00990618 0.0133643 0.0177774 0.0233369 0.0302559 0.0387693 0.0491324 0.0616204 0.0765263 0.0941592 0.114842 0.13891 0.166704 0.198575 0.234873 0.27595 0.322154 0.373826 0.431299 0.494894 0.564918 0.641662 0.725397 0.816374 0.914823 1.02095 1.13493 1.25694 1.38708 1.52548 1.6722 1.82731 1.99082 2.16275 2.34305 2.53169 2.7286 2.93368 3.14682 3.36789 3.59673 3.83318 4.07705 4.32813 4.58622 4.8511 5.12252 5.40023 5.68399 5.97353 6.26859 6.56889 6.87415 7.1841 7.49846 7.81693 8.13925 8.46513 8.79428 9.12644 9.46132 9.79865 10.1382 10.4796 10.8227 11.1672 11.5129 11.8594 12.2067 12.5544 12.9023 13.2502 13.5979 13.9452 14.2919 14.6378 14.9828 15.3265 15.6689 16.0099 16.3492 16.6867 17.0222 17.3557 17.687 18.016 18.3425 18.6665 18.9878 19.3064 19.6221 19.9349 20.2447 20.5514 20.8549 21.1552 21.4523 21.746 22.0363 22.3232 22.6066 22.8864 23.1627 23.4355 23.7046 23.9701 24.2319 24.4901 24.7446 24.9953 25.2424 25.4858 25.7254 25.9614 26.1936 26.4221 26.6469 26.8681 27.0855 27.2993 27.5094 27.7159 27.9187 28.118 28.3136 28.5057 28.6943 28.8794 29.0609 29.239 29.4137 29.5849 29.7527 29.9172 30.0784 30.2363 30.3909 30.5423 30.6905 30.8355 30.9774 31.1162 31.2519 31.3846 31.5142 31.641 31.7647 31.8856 32.0037 32.1189 32.2313 32.3409 32.4478 32.5521 32.6536 32.7526 32.849 32.9428 33.0341 33.123 33.2093 33.2933 33.3749 33.4542 33.5311 33.6057 33.6782 33.7484 33.8164 33.8822 33.946 34.0076 34.0673 34.1248 34.1804 34.2341 34.2858 34.3356 34.3835 34.4296 34.4739 34.5164 34.5571 34.5961 34.6334 34.669 34.703 34.7354 34.7662 34.7954 34.8231 34.8492 34.8739 34.8971 34.9189 34.9392 34.9582 34.9758 34.992 35.0069 35.0206 35.0329 35.044 35.0539 35.0625 35.07 35.0763 35.0814 35.0855 35.0884 35.0902 35.091 35.0907 35.0894 35.087 35.0837 35.0794 35.0741 35.068 35.0608 35.0528 35.0439 35.0341 35.0235 35.012 34.9997 34.9866 34.9727 34.958 34.9425 34.9264 34.9094 34.8918 34.8734 34.8544 34.8347 34.8143 34.7932
0 0 0 0 0 0 0 0 0 0 0 0 0 0 0 0 0 0 0 0 0 0 0 0 0 0 0 0 0 0 0 0 0 4.10637e-287 1.00718e-226 1.72035e-183 1.77101e-151 4.11904e-127 3.90176e-108 4.55674e-93 6.63708e-81 6.06315e-71 1.10282e-62 9.28749e-56 6.78708e-50 6.9233e-45 1.42024e-40 7.78507e-37 1.42644e-33 1.0442e-30 3.52498e-28 6.16522e-26 6.14563e-24 3.77721e-22 1.52809e-20 4.29779e-19 8.79926e-18 1.36355e-16 1.65317e-15 1.61328e-14 1.29847e-13 8.80299e-13 5.1195e-12 2.59492e-11 1.16238e-10 4.65788e-10 1.68769e-09 5.58174e-09 1.69923e-08 4.79697e-08 1.26412e-07 3.12813e-07 7.30715e-07 1.61898e-06 3.41675e-06 6.89506e-06 1.33512e-05 2.48845e-05 4.47709e-05 7.79559e-05 0.000131677 0.000216228 0.000345867 0.000539855 0.000823629 0.00123006 0.00180081 0.00258765 0.00365385 0.00507545 0.00694245 0.0093598 0.0124483 0.0163451 0.0212041 0.027196 0.0345082 0.0433438 0.0539213 0.0664734 0.0812453 0.0984935 0.118484 0.14149 0.16779 0.197667 0.231403 0.269279 0.311576 0.358565 0.410513 0.467675 0.530296 0.598608 0.672829 0.753161 0.839789 0.932879 1.03258 1.13902 1.25231 1.37254 1.49978 1.63408 1.77547 1.92396 2.07953 2.24216 2.41182 2.58842 2.77189 2.96215 3.15907 3.36253 3.57239 3.78851 4.01073 4.23887 4.47275 4.71218 4.95697 5.20692 5.46181 5.72143 5.98557 6.254 6.5265 6.80284 7.08281 7.36617 7.65269 7.94215 8.23433 8.529 8.82595 9.12495 9.42578 9.72825 10.0321 10.3372 10.6433 10.9503 11.2578 11.5658 11.8741 12.1824 12.4906 12.7986 13.1062 13.4132 13.7195 14.0249 14.3293 14.6326 14.9345 15.2351 15.5342 15.8317 16.1274 16.4212 16.7132 17.0031 17.2909 17.5764 17.8597 18.1406 18.4191 18.6951 18.9686 19.2394 19.5075 19.7729 20.0356 20.2954 20.5523 20.8064 21.0575 21.3057 21.5509 21.7931 22.0322 22.2683 22.5013 22.7313 22.9581 23.1818 23.4024 23.6199 23.8343 24.0456 24.2537 24.4587 24.6606 24.8594 25.0551 25.2477 25.4372 25.6236 25.807 25.9873 26.1646 26.3389 26.5102 26.6785 26.8438 27.0062 27.1656 27.3222 27.4759 27.6267 27.7747 27.9199 28.0623 28.2019 28.3388 28.4729 28.6044 28.7332 28.8594 28.983 29.104 29.2224 29.3383 29.4517 29.5627 29.6712 29.7772 29.8809 29.9822 30.0812 30.1779 30.2723 30.3644 30.4544 30.5421 30.6276 30.7111 30.7924 30.8716 30.9487 31.0239 31.097 31.1681 31.2373 31.3046 31.3699 31.4334 31.4951 31.5549 31.6129 31.6692 31.7237 31.7765 31.8276 31.8771 31.9248 31.971 32.0156 32.0586 32.1 32.1399 32.1783 32.2153 32.2507 32.2848 32.3174 32.3486 32.3785 32.407 32.4342 32.46 32.4846 32.5079 32.53 32.5508 32.5705 32.5889 32.6062 32.6223 32.6373 32.6511 32.6639 32.6756 32.6863 32.6959 32.7044 32.712 32.7186 32.7242 32.7288 32.7325 32.7353 32.7371 32.7381 32.7382 32.7374 32.7358 32.7333 32.73 32.7259 32.7211 32.7154 32.709 32.7018 32.6939 32.6852
0 0 0 0 0 0 0 0 0 0 0 0 0 0 0 0 0 0 0 0 0 0 0 0 0 0 0 0 0 0 0 0 0 1.98606e-312 9.14929e-247 9.33105e-200 6.01377e-165 1.88315e-138 8.1279e-118 1.97127e-101 3.3259e-88 2.26029e-77 2.17264e-68 7.39393e-61 1.76376e-54 4.94491e-49 2.42351e-44 2.82819e-40 1.00249e-36 1.31027e-33 7.38078e-31 2.03373e-28 3.0406e-26 2.68684e-24 1.50663e-22 5.68948e-21 1.52115e-19 3.00402e-18 4.5428e-17 5.42536e-16 5.25452e-15 4.22258e-14 2.87198e-13 1.68209e-12 8.61256e-12 3.90645e-11 1.58803e-10 5.84551e-10 1.9662e-09 6.09237e-09 1.75155e-08 4.70244e-08 1.18574e-07 2.82268e-07 6.37314e-07 1.37051e-06 2.81763e-06 5.5571e-06 1.05467e-05 1.9316e-05 3.42261e-05 5.88104e-05 9.82053e-05 0.000159679 0.00025326 0.00039247 0.000595145 0.000884334 0.00128927 0.00184636 0.00260021 0.00360459 0.00492342 0.00663156 0.0088156 0.0115744 0.0150197 0.0192759 0.0244808 0.0307848 0.0383509 0.0473539 0.0579799 0.070425 0.0848944 0.101601 0.120765 0.142609 0.167362 0.195253 0.226511 0.261364 0.300036 0.342749 0.389715 0.441141 0.497224 0.558151 0.624098 0.695229 0.771695 0.853632 0.941163 1.0344 1.13342 1.23832 1.34916 1.46597 1.58879 1.71764 1.85251 1.99339 2.14026 2.29307 2.45176 2.61628 2.78653 2.96242 3.14386 3.33074 3.52292 3.72028 3.92269 4.12999 4.34204 4.55867 4.77973 5.00505 5.23445 5.46775 5.7048 5.94539 6.18935 6.43651 6.68667 6.93965 7.19527 7.45334 7.71369 7.97614 8.2405 8.5066 8.77427 9.04333 9.31362 9.58497 9.85722 10.1302 10.4038 10.6778 10.9521 11.2265 11.5009 11.7752 12.0492 12.3228 12.5959 12.8683 13.14 13.4108 13.6807 13.9494 14.217 14.4832 14.7482 15.0116 15.2735 15.5338 15.7924 16.0492 16.3042 16.5572 16.8083 17.0574 17.3043 17.5492 17.7918 18.0322 18.2704 18.5062 18.7397 18.9708 19.1994 19.4256 19.6494 19.8706 20.0893 20.3054 20.519 20.73 20.9385 21.1443 21.3475 21.548 21.746 21.9413 22.1339 22.324 22.5113 22.6961 22.8782 23.0576 23.2345 23.4087 23.5803 23.7492 23.9156 24.0794 24.2406 24.3992 24.5553 24.7089 24.8599 25.0084 25.1544 25.2979 25.439 25.5776 25.7137 25.8475 25.9789 26.1079 26.2345 26.3588 26.4808 26.6005 26.7179 26.8331 26.946 27.0568 27.1653 27.2717 27.3759 27.478 27.578 27.6759 27.7718 27.8656 27.9574 28.0472 28.1351 28.221 28.305 28.3871 28.4673 28.5456 28.6221 28.6968 28.7697 28.8409 28.9103 28.978 29.0439 29.1082 29.1709 29.2319 29.2912 29.349 29.4052 29.4599 29.513 29.5646 29.6148 29.6634 29.7106 29.7564 29.8007 29.8437 29.8853 29.9255 29.9644 30.002 30.0383 30.0733 30.107 30.1395 30.1708 30.2009 30.2298 30.2575 30.2841 30.3095 30.3338 30.357 30.3791 30.4002 30.4201 30.4391 30.457 30.4739 30.4899 30.5048 30.5188 30.5319 30.544 30.5552 30.5655 30.5749 30.5834 30.5911 30.5979 30.6039 30.609 30.6134 30.617 30.6197
0 0 0 0 0 0 0 0 0 0 0 0 0 0 0 0 0 0 0 0 0 0 0 0 0 0 0 0 0 0 0 0 0 0 1.16635e-267 1.02822e-216 5.45659e-179 2.83416e-150 6.55734e-128 3.75775e-110 8.15079e-96 4.48824e-84 2.44729e-74 3.57168e-66 2.92469e-59 2.35272e-53 2.85885e-48 7.33471e-44 5.17278e-40 1.2373e-36 1.18863e-33 5.26063e-31 1.20017e-28 1.5485e-26 1.22038e-24 6.26582e-23 2.21263e-21 5.62635e-20 1.07128e-18 1.57927e-17 1.85507e-16 1.7799e-15 1.42528e-14 9.70526e-14 5.71243e-13 2.94831e-12 1.35128e-11 5.56128e-11 2.07562e-10 7.08712e-10 2.23114e-09 6.52143e-09 1.78084e-08 4.56882e-08 1.10678e-07 2.54312e-07 5.56541e-07 1.16429e-06 2.33626e-06 4.51023e-06 8.40046e-06 1.51333e-05 2.64298e-05 4.4844e-05 7.4064e-05 0.000119282 0.000187636 0.000288726 0.000435196 0.000643383 0.000934015 0.00133294 0.0018719 0.00258925 0.00353073 0.00475014 0.00630995 0.00828188 0.0107473 0.0137975 0.017534 0.0220684 0.0275225 0.0340279 0.0417254 0.050765 0.0613046 0.0735095 0.0875516 0.103608 0.12186 0.142493 0.165693 0.191648 0.220545 0.25257 0.287904 0.326727 0.369213 0.415528 0.465833 0.520281 0.579015 0.642169 0.709867 0.782222 0.859336 0.9413 1.02819 1.12008 1.21702 1.31904 1.4262 1.53849 1.65593 1.77851 1.90622 2.03903 2.1769 2.31978 2.46762 2.62034 2.77788 2.94015 3.10706 3.2785 3.45438 3.63458 3.81898 4.00746 4.19989 4.39613 4.59607 4.79955 5.00643 5.21657 5.42983 5.64605 5.86509 6.0868 6.31104 6.53764 6.76646 6.99736 7.23018 7.46478 7.70102 7.93874 8.17781 8.41809 8.65944 8.90173 9.14482 9.38858 9.63289 9.87761 10.1226 10.3678 10.6131 10.8583 11.1034 11.3482 11.5926 11.8365 12.0799 12.3226 12.5646 12.8057 13.0459 13.2851 13.5232 13.7602 13.9959 14.2303 14.4634 14.695 14.9252 15.1538 15.3808 15.6061 15.8298 16.0517 16.2718 16.4901 16.7065 16.921 17.1335 17.3441 17.5527 17.7592 17.9637 18.166 18.3663 18.5645 18.7605 18.9543 19.146 19.3354 19.5227 19.7078 19.8906 20.0712 20.2495 20.4257 20.5995 20.7712 20.9405 21.1077 21.2726 21.4352 21.5956 21.7538 21.9097 22.0634 22.2148 22.3641 22.5112 22.656 22.7987 22.9392 23.0775 23.2137 23.3477 23.4796 23.6093 23.737 23.8626 23.9861 24.1075 24.2269 24.3442 24.4596 24.5729 24.6842 24.7936 24.901 25.0065 25.1101 25.2117 25.3115 25.4094 25.5054 25.5997 25.6921 25.7827 25.8715 25.9586 26.0439 26.1275 26.2094 26.2896 26.3681 26.445 26.5202 26.5938 26.6659 26.7363 26.8052 26.8725 26.9384 27.0027 27.0655 27.1268 27.1867 27.2452 27.3022 27.3578 27.4121 27.4649 27.5164 27.5666 27.6155 27.6631 27.7094 27.7544 27.7981 27.8407 27.882 27.9221 27.961 27.9988 28.0354 28.0708 28.1052 28.1384 28.1705 28.2016 28.2315 28.2605 28.2884 28.3153 28.3411 28.366 28.3899 28.4128 28.4348 28.4559 28.476 28.4952 28.5135 28.5309 28.5475 28.5632 28.578 28.592 28.6052
0 0 0 0 0 0 0 0 0 0 0 0 0 0 0 0 0 0 0 0 0 0 0 0 0 0 0 0 0 0 0 0 0 0 2.08657e-289 2.30191e-234 1.32295e-193 1.40415e-162 2.04883e-138 3.15644e-119 9.76898e-104 4.74715e-91 1.57614e-80 1.04687e-71 3.0946e-64 7.45678e-58 2.33131e-52 1.35795e-47 1.95971e-43 8.7927e-40 1.47227e-36 1.06704e-33 3.77931e-31 7.23066e-29 8.12114e-27 5.74064e-25 2.70804e-23 8.95863e-22 2.16799e-20 3.97913e-19 5.71369e-18 6.59301e-17 6.25725e-16 4.98427e-15 3.39169e-14 2.00243e-13 1.03981e-12 4.80648e-12 1.999e-11 7.55124e-11 2.6128e-10 8.3434e-10 2.47546e-09 6.86541e-09 1.78952e-08 4.40549e-08 1.02887e-07 2.2886e-07 4.86638e-07 9.92425e-07 1.94693e-06 3.68426e-06 6.74196e-06 1.19578e-05 2.05994e-05 3.45327e-05 5.64349e-05 9.00559e-05 0.000140532 0.000214751 0.000321774 0.000473295 0.000684155 0.000972881 0.00136225 0.00187986 0.0025587 0.0034377 0.00456224 0.00598462 0.00776445 0.00996898 0.0126733 0.0159606 0.0199219 0.0246565 0.0302711 0.0368802 0.0446052 0.0535743 0.0639213 0.0757859 0.0893119 0.104647 0.121943 0.141351 0.163026 0.187123 0.213794 0.243192 0.275466 0.310763 0.349224 0.390986 0.436181 0.484934 0.537363 0.593579 0.653685 0.717773 0.785931 0.858235 0.934751 1.01554 1.10065 1.19011 1.28396 1.38222 1.4849 1.59199 1.7035 1.8194 1.93967 2.06427 2.19317 2.32632 2.46366 2.60512 2.75065 2.90015 3.05356 3.21078 3.37172 3.53629 3.70439 3.87591 4.05075 4.22879 4.40992 4.59403 4.781 4.97072 5.16305 5.35788 5.55509 5.75456 5.95615 6.15976 6.36526 6.57252 6.78142 6.99185 7.20369 7.41681 7.63111 7.84646 8.06275 8.27988 8.49773 8.71619 8.93516 9.15454 9.37422 9.59411 9.81411 10.0341 10.2541 10.4738 10.6934 10.9125 11.1313 11.3496 11.5673 11.7844 12.0007 12.2162 12.4309 12.6447 12.8575 13.0693 13.28 13.4895 13.6978 13.9048 14.1106 14.315 14.518 14.7196 14.9197 15.1183 15.3154 15.5109 15.7048 15.897 16.0876 16.2765 16.4636 16.649 16.8327 17.0146 17.1946 17.3729 17.5493 17.7239 17.8966 18.0675 18.2364 18.4035 18.5687 18.7319 18.8933 19.0528 19.2103 19.3659 19.5196 19.6713 19.8212 19.9691 20.1151 20.2591 20.4013 20.5416 20.6799 20.8163 20.9509 21.0835 21.2143 21.3432 21.4702 21.5954 21.7187 21.8402 21.9599 22.0777 22.1937 22.3079 22.4204 22.531 22.64 22.7471 22.8525 22.9562 23.0582 23.1584 23.257 23.3539 23.4492 23.5428 23.6348 23.7251 23.8139 23.901 23.9866 24.0706 24.1531 24.2341 24.3135 24.3914 24.4679 24.5428 24.6164 24.6884 24.7591 24.8283 24.8961 24.9626 25.0276 25.0914 25.1537 25.2148 25.2746 25.333 25.3902 25.4461 25.5007 25.5542 25.6064 25.6573 25.7071 25.7557 25.8032 25.8495 25.8946 25.9386 25.9816 26.0234 26.0641 26.1038 26.1424 26.1799 26.2164 26.252 26.2865 26.32 26.3525 26.384 26.4147 26.4443 26.473 26.5009 26.5278 26.5538 26.5789 26.6032 26.6266 26.6491
0 0 0 0 0 0 0 0 0 0 0 0 0 0 0 0 0 0 0 0 0 0 0 0 0 0 0 0 0 0 0 0 0 0 5.23839e-312 1.04697e-252 8.57065e-209 2.2901e-175 2.47923e-149 1.16831e-128 5.72608e-112 2.67446e-98 5.80383e-87 1.86178e-77 2.08935e-69 1.57434e-62 1.31423e-56 1.79479e-51 5.45109e-47 4.70224e-43 1.40258e-39 1.69714e-36 9.49451e-34 2.73555e-31 4.43987e-29 4.37543e-27 2.78875e-25 1.21268e-23 3.76519e-22 8.67818e-21 1.53532e-19 2.14606e-18 2.43013e-17 2.2784e-16 1.80267e-15 1.22388e-14 7.23573e-14 3.77381e-13 1.75638e-12 7.36938e-12 2.81293e-11 9.84744e-11 3.18476e-10 9.57742e-10 2.69389e-09 7.12465e-09 1.78021e-08 4.22059e-08 9.53175e-08 2.05784e-07 4.26084e-07 8.48605e-07 1.63009e-06 3.02751e-06 5.44886e-06 9.52301e-06 1.61926e-05 2.68347e-05 4.34124e-05 6.86617e-05 0.000106316 0.000161368 0.000240373 0.000351783 0.000506325 0.000717392 0.00100147 0.00137858 0.00187269 0.00251216 0.00333019 0.00436513 0.00566089 0.00726724 0.00923998 0.0116412 0.0145394 0.0180093 0.0221321 0.0269952 0.032692 0.0393215 0.0469883 0.0558016 0.0658753 0.0773271 0.090278 0.104852 0.121174 0.139372 0.159573 0.181904 0.206493 0.233465 0.262943 0.295048 0.329896 0.367601 0.408271 0.452009 0.498914 0.549077 0.602584 0.659515 0.719941 0.783927 0.851532 0.922805 0.99779 1.07652 1.15903 1.24533 1.33544 1.42936 1.52709 1.62862 1.73394 1.84302 1.95584 2.07236 2.19253 2.31632 2.44366 2.57451 2.70879 2.84645 2.9874 3.13159 3.27892 3.42931 3.58269 3.73896 3.89803 4.05981 4.2242 4.39112 4.56046 4.73211 4.906 5.082 5.26003 5.43998 5.62175 5.80523 5.99034 6.17696 6.365 6.55435 6.74493 6.93663 7.12935 7.323 7.5175 7.71273 7.90862 8.10508 8.30201 8.49933 8.69696 8.89481 9.09281 9.29088 9.48893 9.68689 9.8847 10.0823 10.2796 10.4765 10.6729 10.8689 11.0644 11.2592 11.4533 11.6468 11.8394 12.0312 12.2221 12.4121 12.6012 12.7892 12.9762 13.162 13.3467 13.5303 13.7126 13.8937 14.0735 14.252 14.4292 14.605 14.7795 14.9525 15.124 15.2942 15.4628 15.63 15.7956 15.9597 16.1223 16.2833 16.4427 16.6006 16.7568 16.9115 17.0645 17.2159 17.3657 17.5139 17.6604 17.8053 17.9485 18.0901 18.23 18.3682 18.5049 18.6398 18.7731 18.9048 19.0348 19.1631 19.2899 19.4149 19.5384 19.6602 19.7803 19.8989 20.0159 20.1312 20.2449 20.3571 20.4676 20.5766 20.684 20.7899 20.8941 20.9969 21.0981 21.1978 21.296 21.3926 21.4878 21.5815 21.6737 21.7644 21.8537 21.9416 22.028 22.113 22.1966 22.2788 22.3597 22.4391 22.5172 22.5939 22.6693 22.7434 22.8161 22.8876 22.9578 23.0267 23.0943 23.1607 23.2258 23.2897 23.3524 23.4139 23.4742 23.5333 23.5913 23.6481 23.7037 23.7582 23.8116 23.8639 23.9151 23.9653 24.0143 24.0623 24.1092 24.1551 24.2 24.2439 24.2867 24.3286 24.3695 24.4094 24.4484 24.4864 24.5235 24.5597 24.5949 24.6293 24.6628 24.6953 24.7271 24.7579
0 0 0 0 0 0 0 0 0 0 0 0 0 0 0 0 0 0 0 0 0 0 0 0 0 0 0 0 0 0 0 0 0 0 0 9.67431e-272 1.48365e-224 1.22955e-188 1.16187e-160 1.90548e-138 1.64144e-120 8.0257e-106 1.22193e-93 2.00904e-83 9.00122e-75 2.2142e-67 5.12163e-61 1.69344e-55 1.11326e-50 1.89244e-46 1.02769e-42 2.11668e-39 1.90293e-36 8.38513e-34 1.99414e-31 2.77433e-29 2.41643e-27 1.39554e-25 5.61165e-24 1.63824e-22 3.59924e-21 6.13861e-20 8.34913e-19 9.27033e-18 8.57673e-17 6.73155e-16 4.55338e-15 2.69174e-14 1.4079e-13 6.58732e-13 2.7841e-12 1.07222e-11 3.79222e-11 1.24037e-10 3.77564e-10 1.07566e-09 2.88291e-09 7.30249e-09 1.75558e-08 4.02107e-08 8.80524e-08 1.84926e-07 3.73568e-07 7.27792e-07 1.37077e-06 2.50154e-06 4.43227e-06 7.63905e-06 1.28292e-05 2.10284e-05 3.36897e-05 5.28286e-05 8.11845e-05 0.000122411 0.000181293 0.000263998 0.000378344 0.000534098 0.000743291 0.00102055 0.00138342 0.00185272 0.00245286 0.00321215 0.00416313 0.00534276 0.00679272 0.00855956 0.0106948 0.0132551 0.0163023 0.019903 0.0241293 0.0290576 0.0347694 0.0413503 0.04889 0.057482 0.067223 0.0782125 0.0905525 0.104347 0.119701 0.13672 0.155512 0.176181 0.198834 0.223574 0.250504 0.279723 0.311329 0.345415 0.382071 0.421384 0.463436 0.508303 0.556057 0.606766 0.660491 0.717287 0.777204 0.840286 0.906572 0.976092 1.04887 1.12494 1.20429 1.28695 1.37292 1.46218 1.55474 1.65057 1.74966 1.85199 1.95751 2.0662 2.17802 2.29293 2.41087 2.53179 2.65565 2.78237 2.91191 3.04419 3.17914 3.3167 3.4568 3.59936 3.7443 3.89155 4.04103 4.19266 4.34634 4.50202 4.65959 4.81898 4.9801 5.14287 5.30721 5.47303 5.64024 5.80876 5.97852 6.14943 6.3214 6.49435 6.66821 6.8429 7.01834 7.19444 7.37114 7.54836 7.72603 7.90408 8.08243 8.26101 8.43976 8.61862 8.79751 8.97637 9.15515 9.33378 9.5122 9.69036 9.8682 10.0457 10.2227 10.3993 10.5753 10.7508 10.9256 11.0998 11.2733 11.4461 11.618 11.7891 11.9594 12.1288 12.2972 12.4647 12.6311 12.7966 12.961 13.1243 13.2865 13.4476 13.6075 13.7663 13.9238 14.0801 14.2352 14.389 14.5416 14.6928 14.8428 14.9914 15.1387 15.2847 15.4293 15.5726 15.7144 15.8549 15.994 16.1317 16.268 16.4029 16.5364 16.6685 16.7991 16.9283 17.0561 17.1825 17.3074 17.4309 17.553 17.6736 17.7929 17.9107 18.027 18.142 18.2555 18.3677 18.4784 18.5877 18.6956 18.8021 18.9072 19.0109 19.1133 19.2143 19.3139 19.4121 19.509 19.6046 19.6988 19.7916 19.8832 19.9734 20.0623 20.1499 20.2363 20.3213 20.4051 20.4876 20.5688 20.6488 20.7276 20.8051 20.8814 20.9565 21.0304 21.1031 21.1746 21.245 21.3142 21.3822 21.4491 21.5149 21.5795 21.643 21.7055 21.7668 21.827 21.8862 21.9443 22.0014 22.0574 22.1124 22.1664 22.2193 22.2713 22.3222 22.3722 22.4212 22.4693 22.5164 22.5625 22.6078 22.652 22.6954 22.7379 22.7795 22.8202 22.86 22.899 22.9371
0 0 0 0 0 0 0 0 0 0 0 0 0 0 0 0 0 0 0 0 0 0 0 0 0 0 0 0 0 0 0 0 0 0 0 1.81614e-291 6.86275e-241 2.17313e-202 2.10877e-172 1.36944e-148 2.30118e-129 1.28285e-113 1.47093e-100 1.31543e-89 2.47443e-80 2.07444e-72 1.37977e-65 1.14065e-59 1.66929e-54 5.73161e-50 5.79159e-46 2.07009e-42 3.04271e-39 2.08245e-36 7.35825e-34 1.46344e-31 1.76177e-29 1.3653e-27 7.17742e-26 2.67689e-24 7.36121e-23 1.54301e-21 2.53756e-20 3.35734e-19 3.65286e-18 3.33186e-17 2.59124e-16 1.74416e-15 1.02959e-14 5.39325e-14 2.53329e-13 1.07702e-12 4.17928e-12 1.49133e-11 4.92684e-11 1.51611e-10 4.3696e-10 1.18539e-09 3.04055e-09 7.40435e-09 1.71825e-08 3.81267e-08 8.11449e-08 1.66118e-07 3.27965e-07 6.25933e-07 1.15737e-06 2.0775e-06 3.62691e-06 6.16892e-06 1.02387e-05 1.66068e-05 2.63584e-05 4.09913e-05 6.25337e-05 9.36822e-05 0.000137962 0.00019991 0.000285272 0.000401228 0.000556627 0.000762231 0.00103098 0.00137826 0.00182212 0.0023836 0.00308691 0.00395968 0.00503314 0.00634233 0.00792621 0.00982777 0.0120941 0.0147764 0.01793 0.0216143 0.0258924 0.0308316 0.0365024 0.0429788 0.0503379 0.0586597 0.0680263 0.0785224 0.0902339 0.103248 0.117654 0.133541 0.150996 0.17011 0.19097 0.213662 0.238273 0.264885 0.293579 0.324435 0.357527 0.392927 0.430705 0.470924 0.513648 0.55893 0.606826 0.657381 0.71064 0.76664 0.825416 0.886997 0.951405 1.01866 1.08878 1.16177 1.23763 1.31637 1.39799 1.48246 1.56979 1.65994 1.75291 1.84866 1.94716 2.04839 2.1523 2.25886 2.36803 2.47974 2.59397 2.71066 2.82975 2.95118 3.07491 3.20087 3.329 3.45923 3.59151 3.72576 3.86192 3.99993 4.1397 4.28119 4.4243 4.56899 4.71517 4.86277 5.01173 5.16197 5.31343 5.46603 5.61971 5.7744 5.93002 6.08652 6.24382 6.40185 6.56056 6.71988 6.87974 7.04008 7.20084 7.36196 7.52338 7.68504 7.84689 8.00886 8.17091 8.33297 8.49501 8.65696 8.81877 8.9804 9.1418 9.30293 9.46373 9.62417 9.7842 9.94379 10.1029 10.2615 10.4195 10.5769 10.7336 10.8897 11.0451 11.1998 11.3537 11.5068 11.6591 11.8106 11.9612 12.1108 12.2596 12.4074 12.5543 12.7001 12.845 12.9888 13.1316 13.2734 13.414 13.5536 13.6921 13.8295 13.9657 14.1008 14.2347 14.3675 14.4991 14.6295 14.7588 14.8868 15.0137 15.1393 15.2637 15.3869 15.5089 15.6297 15.7492 15.8675 15.9845 16.1004 16.2149 16.3283 16.4404 16.5513 16.6609 16.7693 16.8764 16.9823 17.087 17.1905 17.2927 17.3937 17.4935 17.592 17.6894 17.7855 17.8804 17.9742 18.0667 18.1581 18.2482 18.3372 18.425 18.5116 18.5971 18.6814 18.7646 18.8466 18.9275 19.0072 19.0859 19.1634 19.2398 19.3151 19.3893 19.4625 19.5345 19.6055 19.6754 19.7443 19.8121 19.8789 19.9446 20.0094 20.0731 20.1358 20.1975 20.2582 20.3179 20.3767 20.4345 20.4913 20.5472 20.6022 20.6562 20.7093 20.7615 20.8127 20.8631 20.9126 20.9612 21.0089 21.0558 21.1018 21.147 21.1913
0 0 0 0 0 0 0 0 0 0 0 0 0 0 0 0 0 0 0 0 0 0 0 0 0 0 0 0 0 0 0 0 0 0 0 6.92666e-312 8.48227e-258 1.26438e-216 1.48228e-184 4.33679e-159 1.57774e-138 1.09223e-121 1.01239e-107 5.22596e-96 4.34042e-86 1.29465e-77 2.56962e-70 5.48485e-64 1.83777e-58 1.30637e-53 2.51032e-49 1.58753e-45 3.88139e-42 4.19022e-39 2.23062e-36 6.42197e-34 1.08077e-31 1.13555e-29 7.8781e-28 3.78611e-26 1.31346e-24 3.4083e-23 6.82268e-22 1.08225e-20 1.39268e-19 1.48407e-18 1.33353e-17 1.02669e-16 6.86916e-16 4.04443e-15 2.11914e-14 9.98037e-14 4.26289e-13 1.66462e-12 5.9857e-12 1.99492e-11 6.19871e-11 1.8053e-10 4.95181e-10 1.28484e-09 3.16616e-09 7.437e-09 1.67065e-08 3.60011e-08 7.46271e-08 1.49189e-07 2.8831e-07 5.39758e-07 9.80893e-07 1.7335e-06 2.98433e-06 5.01267e-06 8.22664e-06 1.32097e-05 2.07791e-05 3.20572e-05 4.85582e-05 7.22892e-05 0.000105869 0.00015266 0.000216921 0.00030397 0.000420361 0.000574076 0.000774719 0.00103372 0.00136454 0.00178288 0.00230685 0.0029572 0.00375746 0.0047341 0.00591667 0.00733791 0.00903383 0.0110437 0.0134103 0.0161796 0.0194008 0.0231264 0.0274121 0.0323164 0.0379006 0.0442286 0.0513667 0.0593833 0.0683487 0.0783345 0.0894139 0.101661 0.11515 0.129956 0.146154 0.163818 0.183023 0.20384 0.226343 0.2506 0.276679 0.304647 0.334568 0.366501 0.400506 0.436636 0.474945 0.51548 0.558287 0.603407 0.650876 0.70073 0.752998 0.807706 0.864876 0.924526 0.986671 1.05132 1.11848 1.18816 1.26034 1.33504 1.41223 1.49192 1.57407 1.65868 1.74572 1.83517 1.92699 2.02117 2.11766 2.21643 2.31745 2.42066 2.52603 2.63352 2.74308 2.85466 2.9682 3.08367 3.201 3.32015 3.44106 3.56367 3.68793 3.81378 3.94116 4.07002 4.20029 4.33192 4.46485 4.59903 4.73438 4.87085 5.00839 5.14693 5.28641 5.42679 5.568 5.70998 5.85268 5.99604 6.14001 6.28454 6.42956 6.57502 6.72089 6.86709 7.01359 7.16033 7.30726 7.45434 7.60152 7.74875 7.89599 8.0432 8.19033 8.33734 8.4842 8.63085 8.77726 8.9234 9.06923 9.21471 9.3598 9.50448 9.64871 9.79246 9.9357 10.0784 10.2205 10.3621 10.503 10.6432 10.7828 10.9217 11.0599 11.1973 11.3339 11.4698 11.6049 11.7391 11.8725 12.005 12.1367 12.2675 12.3974 12.5263 12.6543 12.7814 12.9075 13.0327 13.1568 13.28 13.4022 13.5233 13.6435 13.7626 13.8807 13.9978 14.1138 14.2288 14.3427 14.4555 14.5673 14.6781 14.7877 14.8963 15.0038 15.1102 15.2156 15.3199 15.4231 15.5252 15.6263 15.7262 15.8251 15.9229 16.0197 16.1153 16.2099 16.3034 16.3959 16.4872 16.5776 16.6668 16.755 16.8422 16.9283 17.0133 17.0974 17.1803 17.2623 17.3432 17.4231 17.502 17.5798 17.6567 17.7326 17.8074 17.8813 17.9542 18.0261 18.097 18.167 18.236 18.304 18.3711 18.4373 18.5025 18.5668 18.6302 18.6926 18.7542 18.8148 18.8745 18.9334 18.9914 19.0485 19.1047 19.16 19.2145 19.2682 19.321 19.373 19.4242 19.4745 19.524
0 0 0 0 0 0 0 0 0 0 0 0 0 0 0 0 0 0 0 0 0 0 0 0 0 0 0 0 0 0 0 0 0 0 0 0 2.80139e-275 2.4217e-231 4.03518e-197 6.05179e-170 5.29029e-148 4.95334e-130 3.98399e-115 1.25975e-102 4.85816e-92 5.38235e-83 3.30821e-75 1.8828e-68 1.48549e-62 2.24073e-57 8.36873e-53 9.54666e-49 3.95006e-45 6.83122e-42 5.5553e-39 2.34444e-36 5.57863e-34 8.02926e-32 7.42078e-30 4.63514e-28 2.0446e-26 6.6157e-25 1.62277e-23 3.10527e-22 4.75306e-21 5.94863e-20 6.20613e-19 5.49024e-18 4.18105e-17 2.77798e-16 1.6297e-15 8.53196e-15 4.02438e-14 1.72496e-13 6.77062e-13 2.45056e-12 8.23021e-12 2.57947e-11 7.58329e-11 2.10099e-10 5.50907e-10 1.37248e-09 3.26019e-09 7.40802e-09 1.615e-08 3.38716e-08 6.85146e-08 1.33972e-07 2.53778e-07 4.66609e-07 8.34254e-07 1.45284e-06 2.46822e-06 4.09661e-06 6.6515e-06 1.05781e-05 1.64965e-05 2.52544e-05 3.79911e-05 5.62124e-05 8.18778e-05 0.000117501 0.00016626 0.000232122 0.000319978 0.000435786 0.00058672 0.000781332 0.00102971 0.00134363 0.00173674 0.00222468 0.00282525 0.00355853 0.00444704 0.00551578 0.00679235 0.00830704 0.0100928 0.0121854 0.0146232 0.0174473 0.0207016 0.0244322 0.0286879 0.0335199 0.0389813 0.0451273 0.0520151 0.0597033 0.0682518 0.077722 0.088176 0.0996765 0.112287 0.12607 0.14109 0.157408 0.175089 0.194192 0.214779 0.236908 0.260637 0.286022 0.313116 0.341971 0.372637 0.40516 0.439585 0.475953 0.514303 0.554671 0.59709 0.641589 0.688195 0.736932 0.787819 0.840874 0.896111 0.953539 1.01317 1.075 1.13904 1.20528 1.27372 1.34435 1.41716 1.49214 1.56927 1.64853 1.72991 1.81337 1.8989 1.98646 2.07602 2.16756 2.26104 2.35643 2.45368 2.55276 2.65362 2.75624 2.86056 2.96654 3.07414 3.18331 3.294 3.40617 3.51977 3.63475 3.75106 3.86866 3.98749 4.10751 4.22866 4.35089 4.47417 4.59842 4.72362 4.8497 4.97662 5.10433 5.23277 5.36191 5.4917 5.62208 5.75301 5.88445 6.01635 6.14866 6.28134 6.41435 6.54764 6.68117 6.81491 6.9488 7.08281 7.2169 7.35103 7.48516 7.61927 7.7533 7.88723 8.02102 8.15464 8.28806 8.42124 8.55415 8.68677 8.81905 8.95099 9.08254 9.21368 9.34438 9.47462 9.60438 9.73363 9.86234 9.9905 10.1181 10.2451 10.3715 10.4972 10.6223 10.7467 10.8704 10.9934 11.1157 11.2373 11.3581 11.4781 11.5974 11.7159 11.8335 11.9504 12.0664 12.1816 12.296 12.4095 12.5222 12.6339 12.7448 12.8548 12.964 13.0722 13.1795 13.2859 13.3914 13.496 13.5996 13.7024 13.8042 13.905 14.005 14.104 14.202 14.2991 14.3953 14.4905 14.5848 14.6782 14.7706 14.862 14.9526 15.0421 15.1308 15.2185 15.3052 15.391 15.4759 15.5599 15.6429 15.725 15.8061 15.8864 15.9657 16.0441 16.1216 16.1982 16.2739 16.3486 16.4225 16.4955 16.5676 16.6388 16.7091 16.7786 16.8471 16.9148 16.9817 17.0477 17.1128 17.1771 17.2405 17.3031 17.3649 17.4259 17.486 17.5453 17.6038 17.6615 17.7184 17.7745 17.8298 17.8843 17.938
0 0 0 0 0 0 0 0 0 0 0 0 0 0 0 0 0 0 0 0 0 0 0 0 0 0 0 0 0 0 0 0 0 0 0 0 2.4722e-293 1.52691e-246 4.25428e-210 3.72124e-181 8.67525e-158 1.19654e-138 8.96396e-123 1.84257e-109 3.46972e-98 1.4906e-88 2.94429e-80 4.61392e-73 8.81602e-67 2.89233e-61 2.14579e-56 4.50172e-52 3.20708e-48 9.02316e-45 1.13664e-41 7.12015e-39 2.42287e-36 4.82652e-34 5.99862e-32 4.91178e-30 2.77671e-28 1.12846e-26 3.41448e-25 7.93055e-24 1.45212e-22 2.14573e-21 2.61192e-20 2.66713e-19 2.32173e-18 1.74769e-17 1.1522e-16 6.7287e-16 3.51632e-15 1.65944e-14 7.13033e-14 2.81026e-13 1.02275e-12 3.45784e-12 1.09203e-11 3.23755e-11 9.05156e-11 2.39635e-10 6.03023e-10 1.44736e-09 3.32393e-09 7.32525e-09 1.55327e-08 3.1768e-08 6.28111e-08 1.20308e-07 2.23666e-07 4.04325e-07 7.11874e-07 1.2226e-06 2.05113e-06 3.3659e-06 5.40938e-06 8.52367e-06 1.31827e-05 2.00315e-05 2.99335e-05 4.40267e-05 6.37885e-05 9.11105e-05 0.000128382 0.000178584 0.00024539 0.000333275 0.000447635 0.000594903 0.000782682 0.00101987 0.00131677 0.00168525 0.00213884 0.00269285 0.00336446 0.00417285 0.00513926 0.00628705 0.00764178 0.00923121 0.0110854 0.0132364 0.0157189 0.0185694 0.0218266 0.0255313 0.0297262 0.0344559 0.0397665 0.0457059 0.0523233 0.059669 0.0677945 0.0767522 0.086595 0.0973764 0.10915 0.12197 0.13589 0.150963 0.167242 0.18478 0.203626 0.223832 0.245447 0.268517 0.293088 0.319205 0.346909 0.376241 0.407239 0.439939 0.474374 0.510576 0.548572 0.588391 0.630054 0.673584 0.718998 0.766313 0.815542 0.866695 0.919781 0.974805 1.03177 1.09068 1.15152 1.2143 1.27901 1.34563 1.41416 1.48459 1.55689 1.63106 1.70706 1.78488 1.8645 1.94589 2.02902 2.11387 2.2004 2.28859 2.3784 2.4698 2.56275 2.65722 2.75318 2.85057 2.94938 3.04955 3.15105 3.25384 3.35788 3.46312 3.56953 3.67706 3.78567 3.89532 4.00597 4.11758 4.23009 4.34348 4.4577 4.5727 4.68845 4.80491 4.92202 5.03976 5.15808 5.27694 5.39631 5.51613 5.63638 5.75702 5.878 5.99929 6.12086 6.24266 6.36467 6.48684 6.60914 6.73155 6.85402 6.97652 7.09902 7.2215 7.34392 7.46624 7.58845 7.71051 7.8324 7.95408 8.07554 8.19674 8.31767 8.43829 8.55859 8.67853 8.7981 8.91728 9.03605 9.15437 9.27225 9.38965 9.50656 9.62295 9.73882 9.85414 9.96891 10.0831 10.1967 10.3097 10.4221 10.5338 10.6449 10.7553 10.8651 10.9742 11.0826 11.1903 11.2972 11.4035 11.509 11.6138 11.7179 11.8212 11.9237 12.0255 12.1265 12.2267 12.3262 12.4248 12.5227 12.6197 12.716 12.8114 12.906 12.9999 13.0929 13.1851 13.2764 13.367 13.4567 13.5456 13.6337 13.7209 13.8073 13.8929 13.9777 14.0616 14.1447 14.227 14.3084 14.3891 14.4689 14.5479 14.626 14.7033 14.7799 14.8556 14.9305 15.0045 15.0778 15.1503 15.2219 15.2928 15.3629 15.4321 15.5006 15.5683 15.6352 15.7013 15.7667 15.8312 15.895 15.958 16.0203 16.0818 16.1426 16.2026 16.2618 16.3203 16.3781 16.4352
0 0 0 0 0 0 0 0 0 0 0 0 0 0 0 0 0 0 0 0 0 0 0 0 0 0 0 0 0 0 0 0 0 0 0 0 5.82964e-312 3.16926e-262 1.73708e-223 1.00828e-192 6.95734e-168 1.53958e-147 1.15317e-130 1.63525e-116 1.58125e-104 2.74989e-94 1.81147e-85 8.07168e-78 3.84147e-71 2.80958e-65 4.23167e-60 1.66458e-55 2.07732e-51 9.65645e-48 1.9106e-44 1.79894e-41 8.85409e-39 2.46652e-36 4.1613e-34 4.50529e-32 3.28988e-30 1.69147e-28 6.35559e-27 1.80278e-25 3.97133e-24 6.96513e-23 9.9408e-22 1.17706e-20 1.1762e-19 1.00708e-18 7.48898e-18 4.89546e-17 2.84361e-16 1.48205e-15 6.99131e-15 3.00863e-14 1.18954e-13 4.34886e-13 1.47874e-12 4.70137e-12 1.40433e-11 3.95851e-11 1.0572e-10 2.68497e-10 6.50637e-10 1.50903e-09 3.35929e-09 7.19651e-09 1.48719e-08 2.9713e-08 5.75113e-08 1.08046e-07 1.9737e-07 3.51134e-07 6.0932e-07 1.03278e-06 1.7121e-06 2.77933e-06 4.42316e-06 6.90825e-06 1.05993e-05 1.59903e-05 2.37406e-05 3.47159e-05 5.00379e-05 7.114e-05 9.98307e-05 0.000138364 0.000189517 0.000256673 0.000343912 0.000456107 0.000599015 0.000779388 0.00100507 0.00128508 0.00162976 0.00205082 0.00256143 0.00317637 0.003912 0.00478643 0.00581948 0.00703281 0.00844988 0.010096 0.0119983 0.0141858 0.0166892 0.0195412 0.0227758 0.026429 0.0305383 0.0351423 0.0402814 0.0459968 0.0523312 0.0593278 0.067031 0.0754856 0.084737 0.0948309 0.105813 0.11773 0.130626 0.144548 0.159541 0.175649 0.192914 0.211381 0.231091 0.252084 0.2744 0.298075 0.323147 0.34965 0.377617 0.407078 0.438064 0.470601 0.504714 0.540427 0.577761 0.616735 0.657365 0.699667 0.743653 0.789333 0.836716 0.885807 0.936611 0.989129 1.04336 1.09931 1.15696 1.21632 1.27736 1.3401 1.4045 1.47057 1.53827 1.60761 1.67855 1.75109 1.82519 1.90084 1.97801 2.05668 2.13682 2.2184 2.3014 2.38579 2.47153 2.5586 2.64696 2.73659 2.82745 2.9195 3.01272 3.10707 3.20251 3.29901 3.39653 3.49504 3.5945 3.69488 3.79614 3.89825 4.00116 4.10485 4.20928 4.31441 4.4202 4.52663 4.63365 4.74123 4.84934 4.95794 5.067 5.17649 5.28637 5.3966 5.50717 5.61802 5.72914 5.8405 5.95205 6.06378 6.17564 6.28762 6.39969 6.51181 6.62396 6.73611 6.84823 6.96031 7.07231 7.18421 7.29598 7.40761 7.51906 7.63032 7.74136 7.85217 7.96272 8.07298 8.18295 8.29261 8.40192 8.51088 8.61947 8.72767 8.83546 8.94283 9.04976 9.15624 9.26226 9.36779 9.47282 9.57735 9.68136 9.78483 9.88776 9.99014 10.0919 10.1932 10.2938 10.3939 10.4933 10.5921 10.6903 10.7879 10.8848 10.9811 11.0767 11.1717 11.266 11.3596 11.4526 11.5449 11.6365 11.7274 11.8176 11.9071 11.9959 12.0839 12.1713 12.258 12.3439 12.4292 12.5137 12.5975 12.6805 12.7629 12.8445 12.9254 13.0056 13.085 13.1637 13.2417 13.3189 13.3954 13.4712 13.5463 13.6206 13.6942 13.7671 13.8393 13.9107 13.9814 14.0514 14.1207 14.1893 14.2571 14.3242 14.3907 14.4564 14.5214 14.5857 14.6493 14.7122 14.7745 14.836 14.8968 14.957 15.0164
0 0 0 0 0 0 0 0 0 0 0 0 0 0 0 0 0 0 0 0 0 0 0 0 0 0 0 0 0 0 0 0 0 0 0 0 0 2.16547e-278 2.7469e-237 1.20383e-204 2.72875e-178 1.05517e-156 8.482e-139 8.80574e-124 4.59823e-111 3.3794e-100 7.70453e-91 1.00806e-82 1.22898e-75 2.05386e-69 6.41852e-64 4.82644e-59 1.07346e-54 8.37289e-51 2.63845e-47 3.78112e-44 2.72249e-41 1.07158e-38 2.47731e-36 3.57695e-34 3.40061e-32 2.22799e-30 1.04653e-28 3.64769e-27 9.72246e-26 2.0346e-24 3.42141e-23 4.71901e-22 5.43618e-21 5.31534e-20 4.47498e-19 3.28577e-18 2.12836e-17 1.22881e-16 6.38227e-16 3.00701e-15 1.2949e-14 5.13144e-14 1.88291e-13 6.43351e-13 2.05738e-12 6.18661e-12 1.75677e-11 4.72922e-11 1.21124e-10 2.96115e-10 6.93086e-10 1.55744e-09 3.36857e-09 7.02931e-09 1.41826e-08 2.77239e-08 5.26035e-08 9.70488e-08 1.74373e-07 3.05582e-07 5.23047e-07 8.75548e-07 1.43506e-06 2.30567e-06 3.63513e-06 5.62943e-06 8.571e-06 1.28408e-05 1.89453e-05 2.75477e-05 3.95051e-05 5.59109e-05 7.81423e-05 0.000107915 0.00014734 0.000198992 0.000265975 0.000351996 0.000461443 0.000599466 0.000772053 0.000986116 0.00124957 0.00157142 0.00196181 0.00243213 0.00299508 0.00366469 0.0044564 0.00538713 0.00647527 0.00774071 0.00920489 0.0108908 0.0128228 0.0150269 0.0175306 0.0203628 0.0235536 0.0271346 0.0311385 0.0355993 0.0405519 0.0460323 0.0520771 0.058724 0.0660109 0.0739766 0.08266 0.0921002 0.102337 0.113409 0.125355 0.138215 0.152028 0.16683 0.182659 0.199553 0.217546 0.236673 0.256968 0.278463 0.30119 0.325178 0.350457 0.377052 0.40499 0.434294 0.464987 0.497088 0.530618 0.565593 0.602028 0.639937 0.679332 0.720223 0.762617 0.806523 0.851943 0.898881 0.947339 0.997315 1.04881 1.10181 1.15633 1.21234 1.26985 1.32883 1.38929 1.45121 1.51457 1.57936 1.64556 1.71316 1.78213 1.85245 1.92411 1.99708 2.07135 2.14687 2.22364 2.30163 2.3808 2.46114 2.54262 2.6252 2.70887 2.79359 2.87933 2.96606 3.05376 3.14239 3.23193 3.32233 3.41359 3.50565 3.5985 3.6921 3.78641 3.88142 3.97709 4.07339 4.17028 4.26775 4.36575 4.46426 4.56325 4.66268 4.76254 4.86279 4.9634 5.06435 5.16561 5.26714 5.36893 5.47094 5.57315 5.67553 5.77807 5.88072 5.98347 6.0863 6.18917 6.29207 6.39497 6.49786 6.6007 6.70348 6.80617 6.90876 7.01122 7.11353 7.21569 7.31765 7.41942 7.52096 7.62227 7.72332 7.8241 7.9246 8.02478 8.12466 8.22419 8.32338 8.42221 8.52066 8.61872 8.71638 8.81362 8.91044 9.00682 9.10275 9.19823 9.29323 9.38775 9.48178 9.57532 9.66834 9.76085 9.85284 9.94429 10.0352 10.1256 10.2154 10.3046 10.3933 10.4814 10.5689 10.6559 10.7422 10.828 10.9131 10.9977 11.0816 11.165 11.2477 11.3298 11.4113 11.4921 11.5724 11.652 11.7309 11.8092 11.8869 11.964 12.0404 12.1162 12.1913 12.2658 12.3397 12.4129 12.4855 12.5574 12.6287 12.6993 12.7693 12.8387 12.9074 12.9754 13.0429 13.1097 13.1758 13.2413 13.3062 13.3704 13.434 13.497 13.5593 13.621 13.6821
0 0 0 0 0 0 0 0 0 0 0 0 0 0 0 0 0 0 0 0 0 0 0 0 0 0 0 0 0 0 0 0 0 0 0 0 0 4.87076e-295 1.68228e-251 6.33337e-217 5.2341e-189 3.85201e-166 3.56711e-147 2.87718e-131 8.53226e-118 2.7665e-106 2.26529e-96 8.98741e-88 2.88678e-80 1.12989e-73 7.48782e-68 1.09736e-62 4.42548e-58 5.88209e-54 2.99337e-50 6.61155e-47 7.04368e-44 3.95782e-41 1.26563e-38 2.45817e-36 3.06663e-34 2.57888e-32 1.52444e-30 6.56943e-29 2.1307e-27 5.3484e-26 1.0649e-24 1.71871e-23 2.29219e-22 2.56957e-21 2.45829e-20 2.03451e-19 1.4744e-18 9.45864e-18 5.4245e-17 2.80571e-16 1.3193e-15 5.68065e-15 2.2545e-14 8.29635e-14 2.84616e-13 9.14768e-13 2.76696e-12 7.90913e-12 2.14452e-11 5.53494e-11 1.36416e-10 3.22003e-10 7.29918e-10 1.59291e-09 3.35437e-09 6.83068e-09 1.34774e-08 2.58129e-08 4.80719e-08 8.71885e-08 1.54233e-07 2.66467e-07 4.50207e-07 7.44732e-07 1.20751e-06 1.92105e-06 3.00168e-06 4.61069e-06 6.96809e-06 1.03695e-05 1.52063e-05 2.19898e-05 3.1379e-05 4.42128e-05 6.15469e-05 8.46941e-05 0.000115271 0.000155245 0.000206991 0.000273346 0.000357671 0.000463913 0.000596669 0.000761251 0.000963753 0.00121112 0.0015112 0.00187281 0.00230581 0.00282113 0.00343084 0.00414816 0.00498755 0.00596468 0.00709648 0.00840116 0.0098982 0.0116083 0.0135536 0.0157571 0.0182434 0.0210379 0.0241675 0.0276598 0.0315435 0.0358483 0.0406046 0.0458436 0.0515973 0.0578981 0.0647789 0.072273 0.080414 0.0892357 0.0987718 0.109056 0.120122 0.132004 0.144734 0.158345 0.172868 0.188336 0.20478 0.222228 0.24071 0.260255 0.280889 0.302637 0.325526 0.349578 0.374816 0.401261 0.428932 0.457847 0.488024 0.519478 0.552223 0.586272 0.621634 0.658321 0.696339 0.735696 0.776397 0.818445 0.861842 0.90659 0.952686 1.00013 1.04892 1.09905 1.15051 1.2033 1.2574 1.31281 1.36952 1.42752 1.48679 1.54731 1.60908 1.67208 1.73628 1.80168 1.86825 1.93598 2.00485 2.07482 2.14589 2.21803 2.29122 2.36543 2.44065 2.51684 2.59399 2.67207 2.75105 2.8309 2.91162 2.99316 3.0755 3.15862 3.24248 3.32707 3.41236 3.49832 3.58492 3.67214 3.75995 3.84833 3.93724 4.02667 4.11659 4.20697 4.29779 4.38902 4.48064 4.57261 4.66493 4.75755 4.85047 4.94365 5.03707 5.13071 5.22454 5.31855 5.41271 5.507 5.60139 5.69587 5.79041 5.885 5.97962 6.07424 6.16884 6.26341 6.35793 6.45238 6.54673 6.64099 6.73512 6.82911 6.92294 7.01661 7.11008 7.20335 7.29641 7.38923 7.48181 7.57412 7.66617 7.75792 7.84938 7.94053 8.03135 8.12184 8.21198 8.30177 8.39119 8.48023 8.56888 8.65714 8.74499 8.83243 8.91944 9.00601 9.09215 9.17784 9.26308 9.34785 9.43215 9.51598 9.59933 9.68218 9.76454 9.84641 9.92776 10.0086 10.0889 10.1688 10.248 10.3268 10.405 10.4827 10.5599 10.6365 10.7126 10.7881 10.863 10.9375 11.0113 11.0846 11.1574 11.2295 11.3012 11.3722 11.4427 11.5126 11.582 11.6508 11.719 11.7866 11.8537 11.9202 11.9862 12.0515 12.1163 12.1806 12.2442 12.3073 12.3698 12.4318
0 0 0 0 0 0 0 0 0 0 0 0 0 0 0 0 0 0 0 0 0 0 0 0 0 0 0 0 0 0 0 0 0 0 0 0 0 3.60655e-312 3.99009e-266 1.46823e-229 4.90998e-200 7.49028e-176 8.5772e-156 5.7041e-139 1.01023e-124 1.50866e-112 4.6043e-102 5.7202e-93 4.97858e-85 4.67774e-78 6.71852e-72 1.95644e-66 1.45553e-61 3.34801e-57 2.79e-53 9.61752e-50 1.53335e-46 1.24273e-43 5.54891e-41 1.46223e-38 2.41264e-36 2.62314e-34 1.96441e-32 1.05311e-30 4.17997e-29 1.26521e-27 2.99734e-26 5.68666e-25 8.81762e-24 1.13777e-22 1.24151e-21 1.16215e-20 9.45314e-20 6.75915e-19 4.29251e-18 2.44395e-17 1.25806e-16 5.89999e-16 2.53836e-15 1.00819e-14 3.71795e-14 1.2797e-13 4.13072e-13 1.2559e-12 3.61105e-12 9.85493e-12 2.56142e-11 6.36013e-11 1.51304e-10 3.45765e-10 7.60881e-10 1.61599e-09 3.31938e-09 6.60711e-09 1.27669e-08 2.39885e-08 4.38978e-08 7.8349e-08 1.36572e-07 2.32797e-07 3.88498e-07 6.35444e-07 1.01974e-06 1.6071e-06 2.48963e-06 3.79429e-06 5.69348e-06 8.41785e-06 1.22718e-05 1.76516e-05 2.5067e-05 3.51655e-05 4.87608e-05 6.68637e-05 9.07175e-05 0.000121836 0.000162045 0.000213527 0.000278869 0.000361111 0.000463797 0.000591029 0.000747519 0.000938643 0.00117049 0.00144993 0.00178462 0.00218312 0.00265486 0.00321024 0.00386061 0.00461837 0.00549692 0.00651071 0.00767526 0.00900716 0.010524 0.0122446 0.0141885 0.0163766 0.0188305 0.0215729 0.0246273 0.0280182 0.0317707 0.0359108 0.040465 0.0454605 0.0509252 0.056887 0.0633746 0.0704167 0.0780424 0.0862808 0.0951612 0.104713 0.114964 0.125944 0.137682 0.150205 0.163541 0.177717 0.19276 0.208696 0.22555 0.243345 0.262107 0.281856 0.302616 0.324406 0.347246 0.371155 0.39615 0.422247 0.449461 0.477807 0.507296 0.537941 0.569752 0.602737 0.636905 0.672261 0.708812 0.746561 0.785511 0.825664 0.86702 0.909579 0.953338 0.998295 1.04445 1.09178 1.14031 1.19 1.24086 1.29288 1.34605 1.40036 1.45578 1.51232 1.56996 1.62868 1.68848 1.74932 1.8112 1.8741 1.938 2.00289 2.06875 2.13555 2.20327 2.27191 2.34143 2.41181 2.48305 2.5551 2.62796 2.7016 2.776 2.85113 2.92698 3.00352 3.08072 3.15858 3.23706 3.31614 3.39579 3.47601 3.55676 3.63801 3.71976 3.80197 3.88463 3.96771 4.05118 4.13504 4.21925 4.3038 4.38866 4.47381 4.55923 4.6449 4.73081 4.81692 4.90323 4.9897 5.07633 5.16309 5.24996 5.33693 5.42398 5.51108 5.59822 5.68539 5.77257 5.85974 5.94688 6.03397 6.12101 6.20798 6.29486 6.38163 6.46829 6.55482 6.64119 6.72741 6.81346 6.89932 6.98498 7.07044 7.15567 7.24066 7.32541 7.4099 7.49413 7.57808 7.66174 7.7451 7.82815 7.91089 7.9933 8.07537 8.1571 8.23848 8.3195 8.40015 8.48043 8.56033 8.63983 8.71894 8.79765 8.87595 8.95384 9.0313 9.10834 9.18495 9.26112 9.33685 9.41214 9.48697 9.56135 9.63527 9.70873 9.78172 9.85425 9.9263 9.99787 10.069 10.1396 10.2097 10.2794 10.3485 10.4172 10.4853 10.553 10.6202 10.6869 10.753 10.8187 10.8839 10.9486 11.0127 11.0764 11.1396 11.2022 11.2644
0 0 0 0 0 0 0 0 0 0 0 0 0 0 0 0 0 0 0 0 0 0 0 0 0 0 0 0 0 0 0 0 0 0 0 0 0 0 3.66521e-281 1.49984e-242 2.25256e-211 7.75808e-186 1.1792e-164 6.86165e-147 7.63239e-132 5.48046e-119 6.46944e-108 2.59905e-98 6.30404e-90 1.45737e-82 4.6365e-76 2.73515e-70 3.8192e-65 1.54398e-60 2.13639e-56 1.16386e-52 2.80862e-49 3.31735e-46 2.08778e-43 7.52885e-41 1.65597e-38 2.34466e-36 2.23934e-34 1.50263e-32 7.34057e-31 2.69339e-29 7.62931e-28 1.70927e-26 3.09454e-25 4.6144e-24 5.7642e-23 6.12418e-22 5.6096e-21 4.4841e-20 3.1625e-19 1.9874e-18 1.12281e-17 5.74908e-17 2.68744e-16 1.15455e-15 4.58615e-15 1.69372e-14 5.84496e-14 1.89352e-13 5.78286e-13 1.67141e-12 4.58814e-12 1.20014e-11 3.00037e-11 7.18925e-11 1.65529e-10 3.67097e-10 7.85896e-10 1.62748e-09 3.26632e-09 6.36443e-09 1.20596e-08 2.2256e-08 4.00608e-08 7.04252e-08 1.21064e-07 2.03743e-07 3.36052e-07 5.43787e-07 8.64102e-07 1.3496e-06 2.07354e-06 3.13641e-06 4.67401e-06 6.8673e-06 9.95425e-06 1.42439e-05 2.01325e-05 2.81229e-05 3.88454e-05 5.30826e-05 7.17961e-05 9.61562e-05 0.000127574 0.000167738 0.000218646 0.000282653 0.000362504 0.000461378 0.000582933 0.000731351 0.000911375 0.00112836 0.0013883 0.00169788 0.00206454 0.00249643 0.00300253 0.00359263 0.00427737 0.00506824 0.00597763 0.0070188 0.0082059 0.009554 0.011079 0.0127978 0.0147279 0.016888 0.0192972 0.0219756 0.0249441 0.0282242 0.0318379 0.0358079 0.0401576 0.0449107 0.0500912 0.0557237 0.0618329 0.068444 0.075582 0.0832721 0.0915397 0.10041 0.109908 0.120059 0.130887 0.142416 0.154672 0.167676 0.181452 0.196024 0.211411 0.227637 0.24472 0.262682 0.28154 0.301314 0.322019 0.343674 0.366292 0.389889 0.414478 0.440072 0.466682 0.494319 0.522992 0.552709 0.583479 0.615307 0.648198 0.682158 0.717189 0.753294 0.790473 0.828728 0.868057 0.908458 0.94993 0.992469 1.03607 1.08073 1.12643 1.17319 1.22097 1.26979 1.31962 1.37046 1.4223 1.47512 1.52892 1.58367 1.63937 1.69601 1.75357 1.81203 1.87138 1.9316 1.99268 2.05459 2.11733 2.18088 2.24522 2.31032 2.37618 2.44277 2.51007 2.57807 2.64675 2.71608 2.78606 2.85665 2.92784 2.99961 3.07195 3.14482 3.21821 3.29211 3.36649 3.44133 3.51662 3.59233 3.66844 3.74494 3.82181 3.89902 3.97657 4.05442 4.13257 4.21099 4.28966 4.36857 4.4477 4.52704 4.60656 4.68624 4.76608 4.84605 4.92614 5.00633 5.0866 5.16695 5.24735 5.32779 5.40825 5.48872 5.56919 5.64963 5.73005 5.81042 5.89072 5.97096 6.0511 6.13115 6.21109 6.2909 6.37058 6.45011 6.52948 6.60868 6.68771 6.76654 6.84517 6.92359 7.00179 7.07976 7.15749 7.23498 7.3122 7.38916 7.46585 7.54225 7.61836 7.69418 7.76969 7.84489 7.91977 7.99432 8.06855 8.14243 8.21597 8.28916 8.36199 8.43446 8.50657 8.5783 8.64966 8.72063 8.79122 8.86142 8.93122 9.00063 9.06963 9.13823 9.20642 9.2742 9.34156 9.4085 9.47503 9.54112 9.60679 9.67204 9.73685 9.80122 9.86516 9.92867 9.99173 10.0544 10.1165 10.1783
0 0 0 0 0 0 0 0 0 0 0 0 0 0 0 0 0 0 0 0 0 0 0 0 0 0 0 0 0 0 0 0 0 0 0 0 0 0 1.3039e-296 6.75124e-256 5.05396e-223 4.28011e-196 9.26918e-174 5.0083e-155 3.67945e-139 1.32621e-125 6.28396e-114 8.43036e-104 5.86078e-95 3.41697e-87 2.46095e-80 2.99844e-74 7.99489e-69 5.76891e-64 1.34396e-59 1.1717e-55 4.32867e-52 7.52827e-49 6.74115e-46 3.35543e-43 9.91609e-41 1.84166e-38 2.25824e-36 1.90839e-34 1.15396e-32 5.15978e-31 1.75613e-29 4.66729e-28 9.90794e-27 1.71411e-25 2.46038e-24 2.97723e-23 3.08092e-22 2.76171e-21 2.16929e-20 1.50876e-19 9.37913e-19 5.25582e-18 2.6755e-17 1.24594e-16 5.34186e-16 2.12087e-15 7.83917e-15 2.71065e-14 8.80761e-14 2.70022e-13 7.84026e-13 2.16348e-12 5.69179e-12 1.43185e-11 3.45367e-11 8.00733e-11 1.78867e-10 3.85788e-10 8.05029e-10 1.62828e-09 3.19782e-09 6.10783e-09 1.13628e-08 2.06183e-08 3.65397e-08 6.33218e-08 1.07428e-07 1.78616e-07 2.91343e-07 4.66636e-07 7.34563e-07 1.13741e-06 1.73375e-06 2.60349e-06 3.85413e-06 5.6284e-06 8.11334e-06 1.15511e-05 1.62516e-05 2.2607e-05 3.11086e-05 4.23651e-05 5.71242e-05 7.6295e-05 0.000100974 0.000132472 0.000172342 0.000222414 0.000284823 0.000362045 0.000456932 0.000572746 0.000713196 0.000882471 0.00108528 0.00132687 0.00161309 0.00195039 0.00234587 0.00280727 0.00334307 0.00396242 0.0046752 0.00549206 0.00642437 0.00748425 0.00868458 0.010039 0.0115619 0.0132683 0.0151741 0.0172956 0.0196502 0.0222555 0.02513 0.0282925 0.0317626 0.0355601 0.0397055 0.0442194 0.0491229 0.0544375 0.0601847 0.0663862 0.073064 0.08024 0.087936 0.0961741 0.104976 0.114363 0.124357 0.13498 0.14625 0.158191 0.17082 0.184158 0.198225 0.213038 0.228615 0.244974 0.262131 0.280103 0.298904 0.31855 0.339053 0.360428 0.382685 0.405836 0.429893 0.454863 0.480757 0.507582 0.535345 0.564052 0.593709 0.624319 0.655887 0.688415 0.721905 0.756358 0.791774 0.828153 0.865492 0.90379 0.943044 0.983249 1.0244 1.0665 1.10953 1.15349 1.19837 1.24417 1.29087 1.33846 1.38695 1.43631 1.48653 1.53761 1.58954 1.64229 1.69586 1.75023 1.8054 1.86134 1.91804 1.97549 2.03368 2.09258 2.15218 2.21248 2.27344 2.33506 2.39732 2.4602 2.52369 2.58776 2.65241 2.71762 2.78336 2.84963 2.9164 2.98367 3.0514 3.11959 3.18821 3.25726 3.32671 3.39655 3.46675 3.53732 3.60821 3.67943 3.75096 3.82277 3.89485 3.96719 4.03978 4.11258 4.1856 4.2588 4.33219 4.40574 4.47944 4.55328 4.62723 4.70129 4.77544 4.84967 4.92396 4.9983 5.07268 5.14709 5.22151 5.29592 5.37033 5.4447 5.51904 5.59333 5.66756 5.74172 5.8158 5.88978 5.96366 6.03742 6.11106 6.18457 6.25793 6.33113 6.40418 6.47705 6.54974 6.62224 6.69454 6.76664 6.83852 6.91018 6.98161 7.0528 7.12375 7.19445 7.26489 7.33507 7.40497 7.4746 7.54395 7.613 7.68176 7.75022 7.81838 7.88622 7.95375 8.02096 8.08784 8.1544 8.22062 8.2865 8.35204 8.41723 8.48208 8.54657 8.61071 8.67448 8.7379 8.80094 8.86362 8.92593 8.98786 9.04942 9.1106 9.1714
0 0 0 0 0 0 0 0 0 0 0 0 0 0 0 0 0 0 0 0 0 0 0 0 0 0 0 0 0 0 0 0 0 0 0 0 0 0 1.79648e-312 1.33909e-269 5.54556e-235 1.25777e-206 4.16588e-183 2.21806e-163 1.13185e-146 2.13784e-132 4.21952e-120 1.95211e-109 4.00049e-100 6.02902e-92 1.00465e-84 2.57755e-78 1.33519e-72 1.7464e-67 6.94589e-63 9.81319e-59 5.61339e-55 1.45241e-51 1.86792e-48 1.29442e-45 5.18031e-43 1.27119e-40 2.01459e-38 2.15734e-36 1.62391e-34 8.89525e-33 3.65552e-31 1.15776e-29 2.89411e-28 5.83213e-27 9.65472e-26 1.33523e-24 1.56611e-23 1.57907e-22 1.38539e-21 1.06929e-20 7.33276e-20 4.50793e-19 2.50468e-18 1.26707e-17 5.87539e-17 2.5126e-16 9.96533e-16 3.68438e-15 1.27579e-14 4.15533e-14 1.27809e-13 3.72591e-13 1.03293e-12 2.73165e-12 6.91096e-12 1.6771e-11 3.9134e-11 8.80056e-11 1.91137e-10 4.01708e-10 8.18464e-10 1.61939e-09 3.11641e-09 5.84187e-09 1.06818e-08 1.90761e-08 3.33133e-08 5.69532e-08 9.54229e-08 1.56839e-07 2.5312e-07 4.01472e-07 6.26322e-07 9.61816e-07 1.45498e-06 2.16965e-06 3.19136e-06 4.63321e-06 6.64295e-06 9.4113e-06 1.31818e-05 1.8262e-05 2.50364e-05 3.39812e-05 4.56803e-05 6.08435e-05 8.03265e-05 0.000105152 0.000136533 0.000175896 0.000224911 0.000285513 0.000359933 0.000450727 0.000560804 0.000693456 0.000852385 0.00104173 0.00126611 0.00153063 0.00184091 0.00220311 0.00262397 0.00311081 0.00367154 0.00431468 0.0050494 0.00588546 0.0068333 0.00790397 0.00910915 0.0104612 0.011973 0.0136581 0.0155306 0.0176053 0.0198973 0.0224225 0.0251971 0.0282378 0.0315617 0.0351864 0.0391297 0.0434098 0.0480451 0.0530544 0.0584564 0.0642703 0.0705149 0.0772095 0.0843732 0.0920251 0.100184 0.108869 0.118098 0.127891 0.138265 0.149238 0.160827 0.17305 0.185924 0.199464 0.213686 0.228606 0.244239 0.260598 0.277696 0.295548 0.314164 0.333558 0.353739 0.374717 0.396503 0.419105 0.442532 0.46679 0.491886 0.517826 0.544615 0.572258 0.600758 0.630119 0.660341 0.691428 0.72338 0.756196 0.789877 0.82442 0.859824 0.896087 0.933205 0.971173 1.00999 1.04965 1.09014 1.13146 1.17361 1.21657 1.26034 1.30491 1.35026 1.39641 1.44332 1.49099 1.53942 1.58858 1.63848 1.68909 1.74041 1.79242 1.84511 1.89847 1.95249 2.00715 2.06244 2.11834 2.17484 2.23193 2.2896 2.34782 2.40659 2.46589 2.52571 2.58603 2.64683 2.70811 2.76984 2.83202 2.89462 2.95764 3.02105 3.08485 3.14902 3.21354 3.2784 3.34359 3.40909 3.47489 3.54096 3.60731 3.67391 3.74075 3.80781 3.87509 3.94257 4.01023 4.07806 4.14606 4.2142 4.28247 4.35087 4.41937 4.48797 4.55665 4.6254 4.69421 4.76307 4.83197 4.90089 4.96982 5.03876 5.10769 5.1766 5.24549 5.31433 5.38312 5.45186 5.52053 5.58911 5.65761 5.72602 5.79432 5.8625 5.93056 5.99849 6.06628 6.13393 6.20142 6.26874 6.3359 6.40287 6.46967 6.53627 6.60267 6.66887 6.73485 6.80062 6.86617 6.93148 6.99656 7.0614 7.12599 7.19033 7.25441 7.31824 7.38179 7.44507 7.50808 7.57081 7.63325 7.6954 7.75726 7.81883 7.88009 7.94106 8.00171 8.06205 8.12208 8.1818 8.24119
0 0 0 0 0 0 0 0 0 0 0 0 0 0 0 0 0 0 0 0 0 0 0 0 0 0 0 0 0 0 0 0 0 0 0 0 0 0 0 1.17038e-283 2.9759e-247 1.96877e-217 1.0705e-192 5.96039e-172 2.22167e-154 2.29565e-139 1.95864e-126 3.22695e-115 2.00491e-105 8.00548e-97 3.15445e-89 1.73747e-82 1.77893e-76 4.28346e-71 2.94918e-66 6.83725e-62 6.125e-58 2.38218e-54 4.4418e-51 4.32224e-48 2.36101e-45 7.71044e-43 1.58988e-40 2.17072e-38 2.04567e-36 1.38001e-34 6.88118e-33 2.60899e-31 7.71241e-30 1.81753e-28 3.48297e-27 5.52437e-26 7.36813e-25 8.38194e-24 8.23751e-23 7.07482e-22 5.36565e-21 3.62751e-20 2.20487e-19 1.21428e-18 6.10212e-18 2.81625e-17 1.20073e-16 4.75492e-16 1.75754e-15 6.09116e-15 1.98762e-14 6.13013e-14 1.79326e-13 4.9919e-13 1.32632e-12 3.37285e-12 8.23068e-12 1.93197e-11 4.37178e-11 9.55662e-11 2.02196e-10 4.14802e-10 8.26481e-10 1.60186e-09 3.02446e-09 5.57048e-09 1.0021e-08 1.76288e-08 3.03605e-08 5.12423e-08 8.48413e-08 1.37926e-07 2.20356e-07 3.46255e-07 5.35545e-07 8.15907e-07 1.22526e-06 1.81483e-06 2.65298e-06 3.82975e-06 5.46238e-06 7.70183e-06 1.07404e-05 1.48203e-05 2.02442e-05 2.7386e-05 3.67042e-05 4.87553e-05 6.42101e-05 8.38701e-05 0.000108686 0.000139777 0.000178452 0.000226229 0.000284862 0.000356361 0.000443014 0.000547416 0.000672491 0.000821512 0.000998132 0.0012064 0.00145079 0.0017362 0.00206802 0.00245209 0.00289476 0.00340288 0.00398383 0.0046455 0.00539632 0.00624529 0.0072019 0.00827623 0.00947884 0.0108209 0.012314 0.0139702 0.0158023 0.0178233 0.0200468 0.0224868 0.0251576 0.028074 0.0312512 0.0347044 0.0384496 0.0425026 0.0468796 0.0515969 0.0566711 0.0621188 0.0679567 0.0742015 0.0808698 0.0879783 0.0955437 0.103582 0.112111 0.121145 0.1307 0.140793 0.151438 0.162651 0.174446 0.186838 0.19984 0.213465 0.227728 0.24264 0.258213 0.274459 0.291389 0.309013 0.327341 0.346382 0.366145 0.386638 0.407869 0.429843 0.452568 0.476049 0.50029 0.525297 0.551073 0.577621 0.604944 0.633043 0.66192 0.691575 0.722008 0.753219 0.785207 0.817969 0.851505 0.88581 0.920883 0.956718 0.993311 1.03066 1.06875 1.10759 1.14717 1.18747 1.2285 1.27024 1.31269 1.35583 1.39967 1.44419 1.48938 1.53524 1.58174 1.62889 1.67667 1.72508 1.77409 1.8237 1.8739 1.92468 1.97602 2.02791 2.08034 2.13331 2.18678 2.24077 2.29524 2.35019 2.40561 2.46149 2.5178 2.57454 2.63169 2.68925 2.7472 2.80552 2.86421 2.92325 2.98263 3.04233 3.10234 3.16265 3.22325 3.28413 3.34527 3.40666 3.46828 3.53013 3.59219 3.65446 3.71691 3.77954 3.84234 3.90529 3.96838 4.03161 4.09495 4.1584 4.22196 4.28559 4.34931 4.41309 4.47693 4.54081 4.60473 4.66868 4.73264 4.7966 4.86057 4.92452 4.98845 5.05235 5.11621 5.18002 5.24377 5.30746 5.37108 5.43461 5.49806 5.56141 5.62465 5.68779 5.7508 5.81369 5.87645 5.93906 6.00153 6.06385 6.126 6.18799 6.24981 6.31146 6.37292 6.43419 6.49526 6.55614 6.61681 6.67727 6.73752 6.79755 6.85735 6.91692 6.97627 7.03537 7.09423 7.15285 7.21122 7.26934 7.32719 7.38479
0 0 0 0 0 0 0 0 0 0 0 0 0 0 0 0 0 0 0 0 0 0 0 0 0 0 0 0 0 0 0 0 0 0 0 0 0 0 0 4.50747e-298 7.80999e-260 1.64147e-228 1.57281e-202 9.71846e-181 2.78261e-162 1.64212e-146 6.28509e-133 3.80808e-121 7.3773e-111 7.9995e-102 7.61782e-94 9.18381e-87 1.89089e-80 8.51224e-75 1.02874e-69 3.96306e-65 5.62336e-61 3.32162e-57 9.06429e-54 1.24925e-50 9.38791e-48 4.10978e-45 1.10996e-42 1.94412e-40 2.30682e-38 1.92663e-36 1.17138e-34 5.34104e-33 1.87503e-31 5.18798e-30 1.15514e-28 2.10857e-27 3.20838e-26 4.13055e-25 4.56022e-24 4.36995e-23 3.67474e-22 2.73863e-21 1.82513e-20 1.0966e-19 5.98446e-19 2.98647e-18 1.37131e-17 5.82654e-17 2.3027e-16 8.50516e-16 2.94878e-15 9.6353e-15 2.97825e-14 8.73812e-14 2.44122e-13 6.51329e-13 1.66408e-12 4.08151e-12 9.63279e-12 2.19236e-11 4.8214e-11 1.02649e-10 2.11943e-10 4.25081e-10 8.2943e-10 1.57675e-09 2.92414e-09 5.29704e-09 9.38374e-09 1.62744e-08 2.76611e-08 4.61201e-08 7.55031e-08 1.21469e-07 1.92197e-07 2.99322e-07 4.59148e-07 6.94202e-07 1.03518e-06 1.52337e-06 2.21362e-06 3.17796e-06 4.50983e-06 6.32925e-06 8.7887e-06 1.208e-05 1.64422e-05 2.21705e-05 2.96262e-05 3.92477e-05 5.15633e-05 6.72036e-05 8.6917e-05 0.000111585 0.000142236 0.00018007 0.000226466 0.000283011 0.000351514 0.000434026 0.000532861 0.000650616 0.00079019 0.000954804 0.00114802 0.00137376 0.00163632 0.00194039 0.00229107 0.00269386 0.00315473 0.00368004 0.00427666 0.00495185 0.00571339 0.00656948 0.00752878 0.00860044 0.00979404 0.0111196 0.0125876 0.0142088 0.0159947 0.0179568 0.0201073 0.0224586 0.0250233 0.0278146 0.0308459 0.0341307 0.0376828 0.0415164 0.0456456 0.0500848 0.0548485 0.0599513 0.0654077 0.0712325 0.0774403 0.0840456 0.091063 0.0985069 0.106392 0.114731 0.12354 0.132831 0.142618 0.152915 0.163734 0.175087 0.186988 0.199448 0.212478 0.226089 0.240293 0.2551 0.270518 0.286559 0.30323 0.320539 0.338496 0.357106 0.376378 0.396316 0.416928 0.438218 0.460191 0.482852 0.506203 0.530249 0.554991 0.580432 0.606573 0.633416 0.660961 0.689208 0.718157 0.747806 0.778155 0.809201 0.840941 0.873374 0.906496 0.940303 0.97479 1.00995 1.04579 1.08229 1.11946 1.15727 1.19574 1.23484 1.27458 1.31495 1.35594 1.39754 1.43974 1.48253 1.52591 1.56987 1.6144 1.65948 1.70512 1.75129 1.79799 1.84521 1.89293 1.94116 1.98987 2.03906 2.08872 2.13883 2.18939 2.24038 2.29179 2.34361 2.39583 2.44845 2.50144 2.55479 2.6085 2.66256 2.71695 2.77166 2.82668 2.882 2.93761 2.99349 3.04964 3.10604 3.16269 3.21957 3.27668 3.33399 3.39151 3.44922 3.5071 3.56516 3.62337 3.68174 3.74024 3.79887 3.85762 3.91648 3.97543 4.03448 4.09361 4.15281 4.21207 4.27138 4.33074 4.39013 4.44955 4.50898 4.56843 4.62787 4.68731 4.74674 4.80614 4.86551 4.92484 4.98412 5.04335 5.10252 5.16163 5.22065 5.2796 5.33846 5.39722 5.45588 5.51444 5.57287 5.63119 5.68939 5.74745 5.80538 5.86316 5.92079 5.97827 6.03559 6.09275 6.14974 6.20656 6.26319 6.31965 6.37592 6.43199 6.48787 6.54355 6.59903
0 0 0 0 0 0 0 0 0 0 0 0 0 0 0 0 0 0 0 0 0 0 0 0 0 0 0 0 0 0 0 0 0 0 0 0 0 0 0 7.64942e-313 1.0024e-272 7.28978e-240 1.32123e-212 9.6148e-190 2.22386e-170 7.82476e-154 1.39422e-139 3.20809e-127 1.99307e-116 6.01553e-107 1.41493e-98 3.80651e-91 1.60348e-84 1.37054e-78 2.9481e-73 1.91098e-68 4.34406e-64 3.93747e-60 1.58739e-56 3.12535e-53 3.25662e-50 1.92499e-47 6.85513e-45 1.54981e-42 2.32863e-40 2.42054e-38 1.80326e-36 9.93299e-35 4.15883e-33 1.35638e-31 3.52203e-30 7.42463e-29 1.29303e-27 1.88969e-26 2.35041e-25 2.51988e-24 2.35549e-23 1.93978e-22 1.42065e-21 9.33251e-21 5.54203e-20 2.99628e-19 1.48441e-18 6.77901e-18 2.8693e-17 1.13124e-16 4.1734e-16 1.44683e-15 4.73184e-15 1.46515e-14 4.30941e-14 1.20773e-13 3.23423e-13 8.29792e-13 2.04468e-12 4.84987e-12 1.10969e-11 2.45412e-11 5.25546e-11 1.09167e-10 2.20312e-10 4.32609e-10 8.27707e-10 1.54508e-09 2.81742e-09 5.02437e-09 8.77228e-09 1.50102e-08 2.51953e-08 4.15245e-08 6.72528e-08 1.07123e-07 1.6794e-07 2.59316e-07 3.94643e-07 5.92317e-07 8.77283e-07 1.28295e-06 1.85352e-06 2.64682e-06 3.73767e-06 5.2219e-06 7.22095e-06 9.88733e-06 1.34108e-05 1.80252e-05 2.40166e-05 3.1732e-05 4.15887e-05 5.40855e-05 6.98134e-05 8.94688e-05 0.000113866 0.000143951 0.000180819 0.000225723 0.000280098 0.00034557 0.000423979 0.000517388 0.000628108 0.000758706 0.000912028 0.00109121 0.0012997 0.00154126 0.00181999 0.00214034 0.0025071 0.00292547 0.00340098 0.00393956 0.00454754 0.00523162 0.00599891 0.00685692 0.00781352 0.008877 0.010056 0.0113596 0.0127972 0.0143785 0.0161136 0.018013 0.0200874 0.0223478 0.0248056 0.0274723 0.0303597 0.0334799 0.0368451 0.0404676 0.0443601 0.0485351 0.0530053 0.0577837 0.062883 0.0683161 0.0740959 0.0802352 0.0867468 0.0936433 0.100937 0.108641 0.116768 0.125328 0.134335 0.143799 0.153733 0.164147 0.175052 0.186459 0.198378 0.210819 0.223792 0.237305 0.251367 0.265987 0.281173 0.296932 0.313272 0.330199 0.347719 0.365839 0.384564 0.403898 0.423847 0.444413 0.465602 0.487416 0.509857 0.532929 0.556632 0.580969 0.605939 0.631544 0.657784 0.684657 0.712165 0.740304 0.769074 0.798472 0.828497 0.859145 0.890413 0.922298 0.954795 0.987901 1.02161 1.05592 1.09082 1.12632 1.16239 1.19904 1.23626 1.27405 1.31239 1.35128 1.39072 1.43069 1.47119 1.5122 1.55373 1.59576 1.63829 1.6813 1.72479 1.76874 1.81316 1.85803 1.90333 1.94907 1.99523 2.04181 2.08878 2.13615 2.18391 2.23204 2.28053 2.32938 2.37857 2.42809 2.47795 2.52811 2.57859 2.62935 2.68041 2.73173 2.78333 2.83518 2.88728 2.93961 2.99217 3.04495 3.09794 3.15112 3.2045 3.25805 3.31178 3.36567 3.41971 3.47389 3.52821 3.58265 3.63721 3.69188 3.74664 3.8015 3.85644 3.91146 3.96654 4.02168 4.07687 4.1321 4.18736 4.24266 4.29797 4.35329 4.40862 4.46395 4.51926 4.57456 4.62984 4.68508 4.74029 4.79545 4.85057 4.90563 4.96062 5.01555 5.0704 5.12517 5.17986 5.23445 5.28895 5.34334 5.39763 5.4518 5.50585 5.55979 5.61359 5.66726 5.72079 5.77418 5.82743 5.88052
0 0 0 0 0 0 0 0 0 0 0 0 0 0 0 0 0 0 0 0 0 0 0 0 0 0 0 0 0 0 0 0 0 0 0 0 0 0 0 0 6.29202e-286 1.72442e-251 6.34588e-223 5.7717e-199 1.13409e-178 2.48373e-161 2.13802e-146 1.92937e-133 3.9534e-122 3.40424e-112 2.02133e-103 1.23717e-95 1.0848e-88 1.78788e-82 6.94083e-77 7.66587e-72 2.82362e-67 3.96803e-63 2.38565e-59 6.76789e-56 9.85583e-53 7.92335e-50 3.7453e-47 1.09969e-44 2.10422e-42 2.73666e-40 2.51037e-38 1.67816e-36 8.41545e-35 3.24809e-33 9.87244e-32 2.4118e-30 4.82305e-29 8.02592e-28 1.1279e-26 1.35652e-25 1.41314e-24 1.28904e-23 1.03983e-22 7.4845e-22 4.84632e-21 2.84409e-20 1.52303e-19 7.48875e-19 3.40032e-18 1.43322e-17 5.63477e-17 2.07554e-16 7.19195e-16 2.3532e-15 7.29591e-15 2.15032e-14 6.04263e-14 1.62348e-13 4.181e-13 1.03457e-12 2.46522e-12 5.66839e-12 1.26012e-11 2.71324e-11 5.66791e-11 1.15053e-10 2.27273e-10 4.37496e-10 8.21742e-10 1.50785e-09 2.70606e-09 4.75484e-09 8.18823e-09 1.38328e-08 2.29448e-08 3.74003e-08 5.99555e-08 9.45952e-08 1.46995e-07 2.25122e-07 3.40009e-07 5.06732e-07 7.45638e-07 1.08386e-06 1.55715e-06 2.21214e-06 3.10897e-06 4.32446e-06 5.95575e-06 8.12458e-06 1.09821e-05 1.47146e-05 1.95494e-05 2.57619e-05 3.36837e-05 4.37102e-05 5.63104e-05 7.20366e-05 9.15348e-05 0.000115556 0.000144969 0.00018077 0.0002241 0.000276253 0.000338694 0.000413069 0.000501222 0.000605207 0.000727303 0.000870026 0.00103614 0.00122868 0.00145095 0.00170654 0.00199933 0.00233353 0.00271364 0.00314448 0.00363123 0.00417936 0.0047947 0.00548342 0.006252 0.0071073 0.00805647 0.00910701 0.0102668 0.0115438 0.0129467 0.0144841 0.0161651 0.017999 0.0199953 0.022164 0.024515 0.0270585 0.0298052 0.0327656 0.0359505 0.0393709 0.0430378 0.0469623 0.0511558 0.0556296 0.0603948 0.065463 0.0708453 0.0765532 0.0825978 0.0889903 0.0957418 0.102863 0.110365 0.118259 0.126555 0.135263 0.144393 0.153956 0.16396 0.174416 0.185332 0.196717 0.20858 0.220929 0.233771 0.247115 0.260968 0.275336 0.290226 0.305644 0.321596 0.338087 0.355123 0.372707 0.390845 0.40954 0.428796 0.448616 0.469001 0.489956 0.511481 0.533579 0.55625 0.579495 0.603315 0.62771 0.652679 0.678221 0.704337 0.731024 0.75828 0.786104 0.814494 0.843446 0.872957 0.903025 0.933645 0.964815 0.996528 1.02878 1.06157 1.09489 1.12874 1.1631 1.19798 1.23337 1.26926 1.30564 1.34252 1.37988 1.41771 1.45601 1.49478 1.534 1.57366 1.61377 1.65431 1.69527 1.73664 1.77843 1.82062 1.86319 1.90615 1.94949 1.99319 2.03725 2.08166 2.12641 2.17149 2.2169 2.26262 2.30865 2.35498 2.4016 2.4485 2.49566 2.5431 2.59079 2.63872 2.68689 2.73529 2.78391 2.83274 2.88178 2.93101 2.98043 3.03002 3.07979 3.12972 3.1798 3.23003 3.2804 3.33089 3.38151 3.43224 3.48308 3.53402 3.58505 3.63616 3.68735 3.73861 3.78993 3.8413 3.89273 3.94419 3.99569 4.04721 4.09876 4.15032 4.20189 4.25345 4.30502 4.35657 4.40811 4.45962 4.5111 4.56255 4.61395 4.66531 4.71662 4.76787 4.81906 4.87018 4.92123 4.9722 5.02308 5.07388 5.12459 5.1752 5.2257
0 0 0 0 0 0 0 0 0 0 0 0 0 0 0 0 0 0 0 0 0 0 0 0 0 0 0 0 0 0 0 0 0 0 0 0 0 0 0 0 1.93152e-299 2.17278e-263 1.74268e-233 2.10226e-208 3.69037e-187 5.25179e-169 2.26651e-153 8.28348e-140 5.75759e-128 1.44978e-117 2.22094e-108 3.15304e-100 5.85494e-93 1.88966e-86 1.3425e-80 2.55825e-75 1.54427e-70 3.39956e-66 3.07684e-62 1.26858e-58 2.60224e-55 2.86589e-52 1.81018e-49 6.94537e-47 1.70211e-44 2.78436e-42 3.16038e-40 2.57566e-38 1.55356e-36 7.12426e-35 2.54408e-33 7.22751e-32 1.66506e-30 3.1646e-29 5.03922e-28 6.81733e-27 7.93481e-26 8.03667e-25 7.15681e-24 5.65643e-23 4.0018e-22 2.55413e-21 1.48114e-20 7.8549e-20 3.83239e-19 1.72966e-18 7.25773e-18 2.84446e-17 1.04571e-16 3.62034e-16 1.18466e-15 3.67623e-15 1.08527e-14 3.0567e-14 8.23595e-14 2.12817e-13 5.28613e-13 1.26488e-12 2.92157e-12 6.52615e-12 1.41232e-11 2.96594e-11 6.05356e-11 1.20255e-10 2.32825e-10 4.39883e-10 8.11979e-10 1.46601e-09 2.59164e-09 4.49038e-09 7.63253e-09 1.27384e-08 2.0892e-08 3.36979e-08 5.34943e-08 8.36365e-08 1.28871e-07 1.95819e-07 2.93599e-07 4.34607e-07 6.35495e-07 9.18376e-07 1.31229e-06 1.85496e-06 2.59493e-06 3.59401e-06 4.93022e-06 6.70111e-06 9.02767e-06 1.20586e-05 1.59755e-05 2.09978e-05 2.73898e-05 3.54663e-05 4.56009e-05 5.8233e-05 7.38771e-05 9.31314e-05 0.000116687 0.00014534 0.000179998 0.000221696 0.000271603 0.000331037 0.000401472 0.000484558 0.000582121 0.000696185 0.000828978 0.000982941 0.00116075 0.0013653 0.00159975 0.0018675 0.00217222 0.00251786 0.00290862 0.00334899 0.00384376 0.00439798 0.00501703 0.00570654 0.00647244 0.00732097 0.00825863 0.00929221 0.0104288 0.0116757 0.0130405 0.014531 0.0161555 0.0179221 0.0198394 0.0219162 0.0241614 0.0265842 0.0291938 0.0319997 0.0350115 0.0382387 0.0416913 0.0453791 0.049312 0.0535 0.0579531 0.0626813 0.0676946 0.073003 0.0786164 0.0845447 0.0907977 0.097385 0.104316 0.111601 0.119248 0.127268 0.135668 0.144457 0.153645 0.163239 0.173248 0.18368 0.194541 0.20584 0.217584 0.229779 0.242432 0.25555 0.269137 0.283201 0.297745 0.312776 0.328297 0.344314 0.360829 0.377847 0.395372 0.413406 0.431951 0.451011 0.470587 0.490681 0.511294 0.532427 0.554082 0.576258 0.598955 0.622174 0.645914 0.670173 0.694951 0.720246 0.746057 0.772382 0.799217 0.826562 0.854412 0.882765 0.911617 0.940966 0.970806 1.00113 1.03195 1.06324 1.09501 1.12724 1.15994 1.1931 1.22672 1.26078 1.29528 1.33023 1.3656 1.4014 1.43761 1.47424 1.51127 1.5487 1.58653 1.62473 1.66332 1.70227 1.74159 1.78127 1.82129 1.86166 1.90236 1.94339 1.98474 2.02639 2.06836 2.11062 2.15317 2.196 2.2391 2.28247 2.3261 2.36998 2.41411 2.45847 2.50305 2.54786 2.59288 2.63811 2.68353 2.72915 2.77495 2.82092 2.86706 2.91337 2.95982 3.00643 3.05317 3.10004 3.14704 3.19416 3.24139 3.28873 3.33616 3.38368 3.43129 3.47897 3.52673 3.57455 3.62243 3.67036 3.71834 3.76635 3.8144 3.86248 3.91058 3.9587 4.00682 4.05495 4.10308 4.15121 4.19932 4.24741 4.29548 4.34352 4.39153 4.43951 4.48744 4.53532 4.58315 4.63092
0 0 0 0 0 0 0 0 0 0 0 0 0 0 0 0 0 0 0 0 0 0 0 0 0 0 0 0 0 0 0 0 0 0 0 0 0 0 0 0 2.89977e-313 1.45826e-275 2.73626e-244 4.64612e-218 7.66259e-196 7.39737e-177 1.66098e-160 2.53885e-146 6.15648e-134 4.64642e-123 1.87687e-113 6.30126e-105 2.52108e-97 1.61818e-90 2.13327e-84 7.10238e-79 7.10646e-74 2.47606e-69 3.40548e-65 2.05819e-61 5.99415e-58 9.10918e-55 7.73966e-52 3.90441e-49 1.23251e-46 2.54933e-44 3.59802e-42 3.59123e-40 2.6165e-38 1.43125e-36 6.02711e-35 1.99809e-33 5.32025e-32 1.15841e-30 2.09616e-29 3.19849e-28 4.17003e-27 4.70088e-26 4.63189e-25 4.02845e-24 3.12032e-23 2.17011e-22 1.36526e-21 7.82277e-21 4.10795e-20 1.98837e-19 8.91793e-19 3.72415e-18 1.45454e-17 5.3352e-17 1.84483e-16 6.03488e-16 1.87373e-15 5.53844e-15 1.56289e-14 4.22146e-14 1.09408e-13 2.72687e-13 6.54983e-13 1.51915e-12 3.40857e-12 7.41131e-12 1.5641e-11 3.20878e-11 6.40813e-11 1.24743e-10 2.36992e-10 4.3994e-10 7.98865e-10 1.42044e-09 2.47551e-09 4.23253e-09 7.10565e-09 1.17228e-08 1.90205e-08 3.0373e-08 4.77675e-08 7.40353e-08 1.13155e-07 1.70647e-07 2.54066e-07 3.73638e-07 5.43036e-07 7.80344e-07 1.10922e-06 1.56032e-06 2.17295e-06 2.99704e-06 4.09548e-06 5.54674e-06 7.44799e-06 9.91851e-06 1.31037e-05 1.71793e-05 2.23565e-05 2.88871e-05 3.70694e-05 4.72546e-05 5.98537e-05 7.53445e-05 9.42799e-05 0.000117295 0.000145118 0.000178576 0.000218607 0.000266266 0.000322739 0.000389349 0.000467568 0.000559026 0.000665519 0.000789023 0.000931697 0.0010959 0.00128418 0.00149932 0.0017443 0.00202234 0.00233688 0.0026916 0.00309044 0.00353755 0.00403736 0.00459452 0.00521396 0.00590084 0.00666057 0.00749882 0.0084215 0.00943474 0.0105449 0.0117587 0.0130828 0.0145244 0.0160906 0.017789 0.0196272 0.0216129 0.0237542 0.0260591 0.0285359 0.0311931 0.034039 0.0370824 0.0403318 0.043796 0.0474838 0.0514041 0.0555657 0.0599774 0.0646481 0.0695867 0.0748018 0.0803024 0.086097 0.0921943 0.0986026 0.105331 0.112386 0.119778 0.127513 0.1356 0.144047 0.15286 0.162048 0.171616 0.181573 0.191924 0.202676 0.213835 0.225408 0.237399 0.249814 0.262659 0.275938 0.289655 0.303816 0.318424 0.333483 0.348997 0.364968 0.3814 0.398295 0.415655 0.433483 0.45178 0.470549 0.489789 0.509502 0.529689 0.55035 0.571485 0.593094 0.615176 0.637731 0.660758 0.684255 0.708222 0.732656 0.757555 0.782918 0.808741 0.835023 0.86176 0.88895 0.916588 0.944673 0.973199 1.00216 1.03156 1.06139 1.09164 1.12232 1.15341 1.18491 1.21682 1.24913 1.28184 1.31493 1.34842 1.38228 1.41651 1.45112 1.48608 1.52141 1.55708 1.5931 1.62945 1.66613 1.70315 1.74047 1.77812 1.81606 1.85431 1.89285 1.93167 1.97077 2.01015 2.04979 2.08969 2.12984 2.17024 2.21087 2.25174 2.29284 2.33415 2.37567 2.4174 2.45933 2.50145 2.54375 2.58624 2.62889 2.67171 2.71469 2.75782 2.8011 2.84452 2.88807 2.93174 2.97554 3.01945 3.06347 3.10759 3.15181 3.19612 3.24051 3.28498 3.32952 3.37413 3.4188 3.46352 3.5083 3.55311 3.59797 3.64286 3.68778 3.73272 3.77768 3.82265 3.86763 3.91261 3.95758 4.00255 4.04751 4.09245
0 0 0 0 0 0 0 0 0 0 0 0 0 0 0 0 0 0 0 0 0 0 0 0 0 0 0 0 0 0 0 0 0 0 0 0 0 0 0 0 0 5.21314e-288 2.45645e-255 6.23039e-228 1.01523e-204 6.94089e-185 8.41466e-168 5.55505e-153 4.83334e-140 1.12065e-128 1.21992e-118 9.87467e-110 8.6604e-102 1.12271e-94 2.78492e-88 1.64037e-82 2.75164e-77 1.53317e-72 3.23464e-68 2.89043e-64 1.20458e-60 2.54431e-57 2.92742e-54 1.95367e-51 7.98909e-49 2.10049e-46 3.70433e-44 4.5488e-42 4.0203e-40 2.63364e-38 1.31269e-36 5.09593e-35 1.57336e-33 3.93664e-32 8.11806e-31 1.40093e-29 2.05112e-28 2.57975e-27 2.81889e-26 2.70364e-25 2.29743e-24 1.74444e-23 1.1928e-22 7.39721e-22 4.18781e-21 2.17732e-20 1.04536e-19 4.65814e-19 1.93548e-18 7.53122e-18 2.7553e-17 9.5126e-17 3.10982e-16 9.65721e-16 2.85708e-15 8.0748e-15 2.18567e-14 5.67942e-14 1.41988e-13 3.42229e-13 7.96779e-13 1.79512e-12 3.92025e-12 8.31157e-12 1.71334e-11 3.43871e-11 6.72828e-11 1.285e-10 2.39821e-10 4.37854e-10 7.82838e-10 1.37193e-09 2.35887e-09 3.98251e-09 6.6076e-09 1.07819e-08 1.73151e-08 2.73861e-08 4.26866e-08 6.56107e-08 9.95022e-08 1.48972e-07 2.20302e-07 3.21949e-07 4.65178e-07 6.64825e-07 9.40237e-07 1.31639e-06 1.82524e-06 2.50726e-06 3.41332e-06 4.60679e-06 6.16598e-06 8.18689e-06 1.07864e-05 1.41057e-05 1.83143e-05 2.3614e-05 3.02442e-05 3.84863e-05 4.86697e-05 6.11774e-05 7.64527e-05 9.50055e-05 0.000117419 0.000144358 0.000176576 0.000214922 0.00026035 0.000313927 0.000376839 0.000450402 0.000536071 0.000635443 0.000750269 0.000882463 0.00103411 0.00120745 0.00140495 0.00162921 0.00188306 0.00216953 0.00249184 0.00285342 0.00325791 0.00370917 0.00421128 0.00476852 0.0053854 0.00606664 0.00681718 0.00764215 0.00854693 0.00953707 0.0106183 0.0117967 0.0130782 0.0144694 0.0159765 0.0176064 0.0193659 0.0212619 0.0233015 0.025492 0.0278407 0.0303551 0.0330428 0.0359113 0.0389684 0.0422219 0.0456795 0.0493491 0.0532386 0.0573557 0.0617085 0.0663046 0.0711519 0.0762582 0.0816311 0.0872783 0.0932074 0.0994258 0.105941 0.11276 0.11989 0.127338 0.13511 0.143215 0.151657 0.160443 0.16958 0.179074 0.18893 0.199154 0.209751 0.220726 0.232084 0.243831 0.25597 0.268506 0.281442 0.294783 0.308532 0.322693 0.337267 0.352259 0.367671 0.383505 0.399763 0.416446 0.433557 0.451097 0.469067 0.487467 0.506299 0.525562 0.545257 0.565384 0.585941 0.60693 0.628348 0.650195 0.67247 0.695171 0.718297 0.741845 0.765813 0.790201 0.815004 0.84022 0.865847 0.891881 0.91832 0.945159 0.972397 1.00003 1.02805 1.05646 1.08525 1.11442 1.14396 1.17387 1.20414 1.23478 1.26577 1.29711 1.3288 1.36083 1.39319 1.42588 1.4589 1.49223 1.52588 1.55984 1.5941 1.62866 1.66351 1.69865 1.73406 1.76975 1.80571 1.84193 1.87841 1.91513 1.95211 1.98932 2.02676 2.06443 2.10232 2.14043 2.17874 2.21726 2.25598 2.29488 2.33397 2.37324 2.41268 2.4523 2.49207 2.532 2.57207 2.6123 2.65266 2.69315 2.73377 2.77451 2.81537 2.85634 2.89741 2.93858 2.97985 3.0212 3.06264 3.10415 3.14574 3.1874 3.22911 3.27089 3.31272 3.35459 3.39651 3.43846 3.48045 3.52247 3.56451 3.60657
0 0 0 0 0 0 0 0 0 0 0 0 0 0 0 0 0 0 0 0 0 0 0 0 0 0 0 0 0 0 0 0 0 0 0 0 0 0 0 0 0 9.92681e-301 1.26087e-266 5.06943e-238 8.58297e-214 4.33832e-193 2.94694e-175 8.67695e-160 2.78602e-146 2.03403e-134 6.0985e-124 1.21343e-114 2.37345e-106 6.31118e-99 2.98683e-92 3.15179e-86 8.96478e-81 8.07072e-76 2.63663e-71 3.51356e-67 2.1119e-63 6.24497e-60 9.79518e-57 8.70126e-54 4.63566e-51 1.55744e-48 3.44887e-46 5.23422e-44 5.63559e-42 4.43877e-40 2.62838e-38 1.19898e-36 4.30641e-35 1.24197e-33 2.92717e-32 5.72838e-31 9.4426e-30 1.32822e-28 1.61317e-27 1.70992e-26 1.5973e-25 1.32669e-24 9.87767e-24 6.64146e-23 4.06026e-22 2.2711e-21 1.16898e-20 5.56615e-20 2.46377e-19 1.01834e-18 3.9467e-18 1.43978e-17 4.96159e-17 1.62048e-16 5.03149e-16 1.48941e-15 4.21451e-15 1.1428e-14 2.97631e-14 7.46119e-14 1.80397e-13 4.21461e-13 9.53132e-13 2.08993e-12 4.45004e-12 9.21457e-12 1.85805e-11 3.65311e-11 7.01157e-11 1.31524e-10 2.41374e-10 4.33822e-10 7.64324e-10 1.32122e-09 2.24271e-09 3.74125e-09 6.13807e-09 9.91127e-09 1.57617e-08 2.47018e-08 3.81744e-08 5.82079e-08 8.76185e-08 1.30268e-07 1.91392e-07 2.78008e-07 3.99419e-07 5.67839e-07 7.99135e-07 1.11373e-06 1.53769e-06 2.10393e-06 2.85375e-06 3.83848e-06 5.12146e-06 6.78025e-06 8.90911e-06 1.16219e-05 1.50549e-05 1.93708e-05 2.4762e-05 3.14549e-05 3.97143e-05 4.98482e-05 6.22131e-05 7.72192e-05 9.5336e-05 0.000117099 0.000143114 0.000174067 0.000210728 0.000253957 0.000304715 0.000364067 0.00043319 0.000513382 0.000606065 0.000712795 0.000835269 0.000975326 0.00113496 0.00131632 0.00152173 0.00175365 0.00201475 0.00230786 0.00263597 0.00300229 0.0034102 0.00386324 0.00436518 0.00491994 0.00553167 0.00620465 0.0069434 0.00775258 0.00863706 0.00960188 0.0106522 0.0117935 0.0130312 0.014371 0.0158188 0.0173805 0.0190623 0.0208704 0.0228111 0.024891 0.0271165 0.0294943 0.0320311 0.0347339 0.0376093 0.0406643 0.0439059 0.0473409 0.0509765 0.0548196 0.0588771 0.0631561 0.0676635 0.0724061 0.0773909 0.0826246 0.088114 0.0938657 0.0998862 0.106182 0.11276 0.119625 0.126785 0.134244 0.14201 0.150087 0.158481 0.167198 0.176242 0.185619 0.195334 0.205392 0.215796 0.226551 0.237662 0.249132 0.260964 0.273164 0.285733 0.298674 0.311992 0.325688 0.339764 0.354224 0.369069 0.3843 0.399921 0.415931 0.432332 0.449125 0.466311 0.48389 0.501863 0.52023 0.53899 0.558144 0.577691 0.59763 0.617961 0.638682 0.659793 0.681291 0.703175 0.725444 0.748095 0.771127 0.794537 0.818323 0.842483 0.867012 0.89191 0.917172 0.942796 0.968778 0.995114 1.0218 1.04884 1.07622 1.10394 1.132 1.16038 1.1891 1.21814 1.2475 1.27718 1.30716 1.33745 1.36805 1.39894 1.43012 1.46159 1.49334 1.52536 1.55766 1.59023 1.62306 1.65615 1.68948 1.72307 1.75689 1.79095 1.82525 1.85977 1.89451 1.92946 1.96462 1.99999 2.03556 2.07132 2.10727 2.14341 2.17972 2.21621 2.25286 2.28968 2.32665 2.36377 2.40104 2.43846 2.47601 2.51369 2.55149 2.58942 2.62746 2.66562 2.70388 2.74224 2.7807 2.81925 2.85789 2.89661 2.93541 2.97428 3.01321 3.05221 3.09127 3.13039 3.16955
0 0 0 0 0 0 0 0 0 0 0 0 0 0 0 0 0 0 0 0 0 0 0 0 0 0 0 0 0 0 0 0 0 0 0 0 0 0 0 0 0 1.00686e-313 3.70037e-278 2.50279e-248 4.63013e-223 1.80632e-201 7.13459e-183 9.67551e-167 1.17908e-152 2.7783e-140 2.34484e-129 1.16925e-119 5.18932e-111 2.87442e-103 2.63173e-96 5.03791e-90 2.45752e-84 3.6118e-79 1.84436e-74 3.69691e-70 3.23026e-66 1.34698e-62 2.89937e-59 3.44943e-56 2.40786e-53 1.0392e-50 2.9038e-48 5.4715e-46 7.20715e-44 6.85225e-42 4.83826e-40 2.60244e-38 1.09093e-36 3.63759e-35 9.82681e-34 2.1867e-32 4.06857e-31 6.41587e-30 8.6809e-29 1.0191e-27 1.04865e-26 9.546e-26 7.75306e-25 5.66171e-24 3.74392e-23 2.25652e-22 1.24705e-21 6.35413e-21 3.00027e-20 1.31896e-19 5.42188e-19 2.09246e-18 7.60964e-18 2.61677e-17 8.53592e-17 2.64916e-16 7.84401e-16 2.22156e-15 6.03272e-15 1.57425e-14 3.95592e-14 9.59151e-14 2.24794e-13 5.10138e-13 1.12278e-12 2.40025e-12 4.99104e-12 1.01083e-11 1.99645e-11 3.84986e-11 7.25638e-11 1.33825e-10 2.41728e-10 4.28046e-10 7.43725e-10 1.26897e-09 2.12791e-09 3.50942e-09 5.6965e-09 9.10665e-09 1.43471e-08 2.22886e-08 3.41635e-08 5.16939e-08 7.72565e-08 1.14094e-07 1.66581e-07 2.40554e-07 3.43722e-07 4.86167e-07 6.80944e-07 9.44808e-07 1.29907e-06 1.77062e-06 2.39306e-06 3.20814e-06 4.26726e-06 5.63325e-06 7.38242e-06 9.6068e-06 1.24166e-05 1.59431e-05 2.03415e-05 2.57945e-05 3.25157e-05 4.07535e-05 5.07955e-05 6.29726e-05 7.76638e-05 9.53012e-05 0.000116375 0.000141439 0.000171116 0.000206103 0.000247178 0.000295206 0.000351142 0.000416041 0.000491062 0.000577473 0.000676657 0.000790119 0.00091949 0.00106653 0.00123315 0.00142138 0.0016334 0.00187155 0.00213832 0.00243635 0.00276845 0.00313756 0.00354681 0.00399949 0.00449904 0.00504908 0.00565338 0.00631586 0.00704064 0.00783194 0.0086942 0.00963194 0.0106499 0.0117529 0.0129459 0.0142341 0.0156227 0.017117 0.0187226 0.020445 0.0222899 0.0242631 0.0263704 0.0286179 0.0310114 0.033557 0.036261 0.0391293 0.0421683 0.045384 0.0487828 0.0523709 0.0561544 0.0601396 0.0643327 0.0687398 0.0733671 0.0782206 0.0833063 0.0886301 0.0941979 0.100016 0.106089 0.112423 0.119024 0.125896 0.133046 0.140479 0.148198 0.15621 0.164519 0.17313 0.182046 0.191272 0.200813 0.210673 0.220854 0.231361 0.242197 0.253366 0.264869 0.276712 0.288895 0.301422 0.314295 0.327516 0.341087 0.355011 0.369287 0.383919 0.398907 0.414252 0.429955 0.446017 0.462438 0.479218 0.496359 0.513859 0.531719 0.549938 0.568516 0.587451 0.606744 0.626392 0.646396 0.666753 0.687462 0.708521 0.729929 0.751684 0.773783 0.796224 0.819006 0.842125 0.865579 0.889366 0.913482 0.937924 0.96269 0.987777 1.01318 1.0389 1.06492 1.09126 1.1179 1.14483 1.17207 1.19959 1.2274 1.2555 1.28388 1.31253 1.34145 1.37064 1.4001 1.42981 1.45977 1.48999 1.52045 1.55116 1.58209 1.61327 1.64466 1.67628 1.70812 1.74018 1.77244 1.8049 1.83756 1.87042 1.90347 1.93671 1.97012 2.00371 2.03747 2.0714 2.10549 2.13973 2.17413 2.20868 2.24336 2.27819 2.31315 2.34824 2.38346 2.41879 2.45424 2.4898 2.52547 2.56124 2.59711 2.63307 2.66912 2.70525 2.74147 2.77776
0 0 0 0 0 0 0 0 0 0 0 0 0 0 0 0 0 0 0 0 0 0 0 0 0 0 0 0 0 0 0 0 0 0 0 0 0 0 0 0 0 0 6.20916e-290 7.49737e-259 1.59379e-232 5.00998e-210 1.19407e-190 7.70207e-174 3.66374e-159 2.85586e-146 6.9343e-135 8.83476e-125 9.05169e-116 1.06069e-107 1.90504e-100 6.69917e-94 5.66846e-88 1.37412e-82 1.10718e-77 3.36695e-73 4.31051e-69 2.55306e-65 7.59206e-62 1.21716e-58 1.11958e-55 6.23993e-53 2.21095e-50 5.19591e-48 8.40876e-46 9.68876e-44 8.18772e-42 5.21109e-40 2.55783e-38 9.89094e-37 3.07145e-35 7.79271e-34 1.64075e-32 2.90761e-31 4.39269e-30 5.72368e-29 6.50087e-28 6.49847e-27 5.768e-26 4.58268e-25 3.28326e-24 2.13565e-23 1.26912e-22 6.92971e-22 3.49517e-21 1.63637e-20 7.14359e-20 2.92001e-19 1.12193e-18 4.06646e-18 1.39503e-17 4.54375e-17 1.40915e-16 4.17228e-16 1.18237e-15 3.21449e-15 8.4022e-15 2.11584e-14 5.14292e-14 1.20879e-13 2.75189e-13 6.07767e-13 1.30409e-12 2.72235e-12 5.53624e-12 1.09813e-11 2.12697e-11 4.02727e-11 7.46191e-11 1.35425e-10 2.40968e-10 4.20729e-10 7.21419e-10 1.21577e-09 2.01515e-09 3.2875e-09 5.28211e-09 8.36383e-09 1.30592e-08 2.01182e-08 3.05951e-08 4.59544e-08 6.82064e-08 1.0008e-07 1.45238e-07 2.0855e-07 2.9642e-07 4.17193e-07 5.81642e-07 8.03555e-07 1.10042e-06 1.49424e-06 2.01249e-06 2.68919e-06 3.56619e-06 4.69458e-06 6.13633e-06 7.96606e-06 1.02731e-05 1.31638e-05 1.67637e-05 2.12208e-05 2.67078e-05 3.34256e-05 4.1607e-05 5.15195e-05 6.347e-05 7.78083e-05 9.49315e-05 0.000115288 0.000139384 0.000167784 0.000201121 0.000240096 0.000285489 0.000338159 0.00039905 0.000469197 0.000549733 0.000641888 0.000747001 0.000866517 0.001002 0.00115513 0.0013277 0.00152165 0.00173903 0.00198203 0.00225298 0.00255433 0.00288869 0.0032588 0.00366754 0.00411794 0.00461315 0.0051565 0.00575142 0.00640151 0.0071105 0.00788224 0.00872073 0.00963011 0.0106146 0.0116786 0.0128266 0.0140633 0.0153932 0.0168213 0.0183525 0.0199917 0.0217441 0.0236148 0.0256091 0.0277323 0.0299898 0.0323869 0.0349292 0.0376221 0.0404711 0.0434818 0.0466598 0.0500106 0.0535397 0.0572528 0.0611553 0.0652526 0.0695504 0.074054 0.0787688 0.0837 0.088853 0.0942329 0.0998449 0.105694 0.111785 0.118123 0.124712 0.131558 0.138664 0.146036 0.153677 0.161591 0.169784 0.178257 0.187016 0.196064 0.205404 0.21504 0.224975 0.235212 0.245753 0.256602 0.267761 0.279232 0.291018 0.303121 0.315542 0.328284 0.341348 0.354736 0.368448 0.382486 0.396851 0.411543 0.426564 0.441913 0.457591 0.473599 0.489935 0.506601 0.523596 0.540919 0.558569 0.576547 0.594851 0.61348 0.632433 0.651708 0.671305 0.691222 0.711457 0.732009 0.752875 0.774053 0.795542 0.817339 0.839442 0.861848 0.884555 0.90756 0.930861 0.954454 0.978337 1.00251 1.02696 1.05169 1.07671 1.10199 1.12755 1.15337 1.17945 1.2058 1.2324 1.25926 1.28636 1.31372 1.34131 1.36914 1.3972 1.42549 1.45401 1.48275 1.51171 1.54088 1.57026 1.59985 1.62964 1.65963 1.68981 1.72017 1.75073 1.78146 1.81237 1.84345 1.87471 1.90612 1.93769 1.96942 2.00131 2.03333 2.06551 2.09782 2.13026 2.16284 2.19554 2.22836 2.2613 2.29436 2.32753 2.3608 2.39417 2.42765
0 0 0 0 0 0 0 0 0 0 0 0 0 0 0 0 0 0 0 0 0 0 0 0 0 0 0 0 0 0 0 0 0 0 0 0 0 0 0 0 0 0 5.95706e-302 1.36275e-269 3.5007e-242 9.25648e-219 1.38151e-198 4.37693e-181 8.3585e-166 2.20917e-152 1.57721e-140 5.23457e-130 1.25962e-120 3.17122e-112 1.13292e-104 7.41088e-98 1.10012e-91 4.44445e-86 5.70381e-81 2.65426e-76 5.01821e-72 4.25238e-68 1.75865e-64 3.82283e-61 4.66e-58 3.37177e-55 1.52234e-52 4.48246e-50 8.95043e-48 1.25478e-45 1.27383e-43 9.62627e-42 5.55059e-40 2.49679e-38 8.93806e-37 2.59257e-35 6.19287e-34 1.23627e-32 2.09015e-31 3.02935e-30 3.80552e-29 4.18541e-28 4.06734e-27 3.52192e-26 2.73835e-25 1.92534e-24 1.23213e-23 7.21992e-23 3.89517e-22 1.94467e-21 9.02681e-21 3.91271e-20 1.5901e-19 6.08129e-19 2.19634e-18 7.51508e-18 2.44344e-17 7.57031e-17 2.2408e-16 6.35222e-16 1.72848e-15 4.52423e-15 1.14137e-14 2.78047e-14 6.55208e-14 1.49596e-13 3.3144e-13 7.13615e-13 1.49516e-12 3.05231e-12 6.07872e-12 1.18231e-11 2.24827e-11 4.18412e-11 7.62805e-11 1.36354e-10 2.39186e-10 4.1207e-10 6.97756e-10 1.16211e-09 1.90504e-09 3.07575e-09 4.89397e-09 7.67871e-09 1.1887e-08 1.81655e-08 2.74176e-08 4.08909e-08 6.02892e-08 8.79135e-08 1.2684e-07 1.81138e-07 2.56143e-07 3.58783e-07 4.97972e-07 6.85085e-07 9.34516e-07 1.26433e-06 1.69705e-06 2.26049e-06 2.98884e-06 3.92375e-06 5.11569e-06 6.62537e-06 8.52544e-06 1.09022e-05 1.38578e-05 1.7512e-05 2.20052e-05 2.75003e-05 3.41861e-05 4.22797e-05 5.20301e-05 6.37212e-05 7.76755e-05 9.42575e-05 0.000113878 0.000136997 0.00016413 0.000195848 0.000232786 0.000275646 0.0003252 0.000382294 0.000447856 0.000522895 0.000608509 0.000705888 0.000816317 0.00094118 0.00108197 0.00124027 0.00141779 0.00161635 0.00183787 0.00208441 0.00235813 0.00266131 0.00299638 0.00336587 0.00377242 0.00421884 0.00470801 0.00524296 0.00582687 0.00646298 0.0071547 0.00790554 0.00871912 0.00959918 0.0105496 0.0115742 0.0126773 0.0138627 0.015135 0.0164983 0.0179571 0.0195158 0.0211792 0.0229517 0.0248381 0.0268431 0.0289717 0.0312285 0.0336185 0.0361466 0.0388177 0.0416368 0.0446089 0.047739 0.0510319 0.0544927 0.0581263 0.0619376 0.0659315 0.0701129 0.0744866 0.0790573 0.0838298 0.0888087 0.0939986 0.0994041 0.10503 0.110879 0.116958 0.123269 0.129817 0.136606 0.14364 0.150922 0.158457 0.166247 0.174296 0.182609 0.191186 0.200033 0.209151 0.218544 0.228214 0.238164 0.248396 0.258913 0.269716 0.280807 0.292189 0.303863 0.315831 0.328094 0.340653 0.35351 0.366665 0.38012 0.393874 0.40793 0.422286 0.436944 0.451904 0.467165 0.482728 0.498593 0.514758 0.531224 0.54799 0.565055 0.582419 0.60008 0.618037 0.636289 0.654836 0.673674 0.692804 0.712223 0.731929 0.751922 0.772198 0.792755 0.813593 0.834708 0.856098 0.87776 0.899694 0.921895 0.944361 0.967089 0.990078 1.01332 1.03682 1.06057 1.08457 1.10882 1.1333 1.15803 1.18299 1.20818 1.2336 1.25924 1.28511 1.3112 1.3375 1.36402 1.39074 1.41767 1.4448 1.47212 1.49964 1.52735 1.55525 1.58333 1.61159 1.64002 1.66863 1.6974 1.72634 1.75544 1.78469 1.8141 1.84366 1.87336 1.90321 1.93319 1.96331 1.99355 2.02393 2.05443 2.08504 2.11578
0 0 0 0 0 0 0 0 0 0 0 0 0 0 0 0 0 0 0 0 0 0 0 0 0 0 0 0 0 0 0 0 0 0 0 0 0 0 0 0 0 0 3.26775e-314 1.50294e-280 4.90637e-252 1.13926e-227 1.10494e-206 1.77565e-188 1.40009e-172 1.28605e-158 2.75913e-146 2.43201e-135 1.39842e-125 7.68181e-117 5.53509e-109 6.82019e-102 1.7965e-95 1.22209e-89 2.52166e-84 1.81116e-79 5.09678e-75 6.22406e-71 3.60381e-67 1.0687e-63 1.73629e-60 1.63957e-57 9.47909e-55 3.51294e-52 8.69159e-50 1.48844e-47 1.82193e-45 1.64047e-43 1.11481e-41 5.85121e-40 2.42164e-38 8.05218e-37 2.18772e-35 4.93153e-34 9.35206e-33 1.51091e-31 2.10357e-30 2.55037e-29 2.71849e-28 2.56997e-27 2.1721e-26 1.65339e-25 1.14117e-24 7.18633e-24 4.15271e-23 2.21372e-22 1.09396e-21 5.03426e-21 2.16641e-20 8.75194e-20 3.33115e-19 1.19858e-18 4.08953e-18 1.32702e-17 4.10638e-17 1.21482e-16 3.444e-16 9.37717e-16 2.45717e-15 6.2086e-15 1.51543e-14 3.57933e-14 8.19378e-14 1.82069e-13 3.93254e-13 8.26745e-13 1.69385e-12 3.38608e-12 6.61182e-12 1.26242e-11 2.35926e-11 4.31963e-11 7.75532e-11 1.36647e-10 2.3648e-10 4.02261e-10 6.73058e-10 1.10846e-09 1.79802e-09 2.87433e-09 4.53107e-09 7.04733e-09 1.08203e-08 1.6408e-08 2.45858e-08 3.64186e-08 5.33526e-08 7.73327e-08 1.10947e-07 1.57606e-07 2.21766e-07 3.09191e-07 4.27278e-07 5.85438e-07 7.95553e-07 1.0725e-06 1.43478e-06 1.90523e-06 2.51182e-06 3.28864e-06 4.27691e-06 5.52617e-06 7.09564e-06 9.05566e-06 1.14893e-05 1.44942e-05 1.81845e-05 2.26927e-05 2.81723e-05 3.48001e-05 4.27785e-05 5.23387e-05 6.3743e-05 7.72886e-05 9.33098e-05 0.000112182 0.000134325 0.000160207 0.000190345 0.000225314 0.000265746 0.000312334 0.00036584 0.000427092 0.000496993 0.000576523 0.000666741 0.00076879 0.0008839 0.00101339 0.00115867 0.00132125 0.00150274 0.00170484 0.00192935 0.0021782 0.00245339 0.00275705 0.00309141 0.00345881 0.00386171 0.00430265 0.0047843 0.00530943 0.00588093 0.00650178 0.00717506 0.00790398 0.00869181 0.00954195 0.0104579 0.0114432 0.0125015 0.0136366 0.0148523 0.0161524 0.0175411 0.0190223 0.0206001 0.0222787 0.0240623 0.0259552 0.0279616 0.030086 0.0323327 0.0347061 0.0372107 0.0398508 0.0426309 0.0455555 0.0486291 0.051856 0.0552407 0.0587877 0.0625012 0.0663857 0.0704455 0.0746848 0.079108 0.0837192 0.0885225 0.0935219 0.0987216 0.104125 0.109737 0.115561 0.1216 0.127858 0.134339 0.141047 0.147983 0.155152 0.162557 0.170201 0.178087 0.186218 0.194596 0.203223 0.212104 0.221239 0.230631 0.240283 0.250195 0.260371 0.270812 0.281519 0.292494 0.303739 0.315255 0.327042 0.339103 0.351437 0.364046 0.37693 0.39009 0.403527 0.41724 0.43123 0.445497 0.46004 0.47486 0.489957 0.505329 0.520977 0.5369 0.553097 0.569568 0.586311 0.603326 0.62061 0.638164 0.655986 0.674074 0.692427 0.711044 0.729922 0.74906 0.768457 0.788109 0.808016 0.828174 0.848583 0.86924 0.890142 0.911287 0.932673 0.954298 0.976158 0.998252 1.02058 1.04313 1.0659 1.0889 1.11212 1.13556 1.15921 1.18307 1.20714 1.23141 1.25588 1.28056 1.30542 1.33049 1.35574 1.38117 1.40679 1.43259 1.45856 1.48471 1.51103 1.53751 1.56416 1.59096 1.61793 1.64504 1.67231 1.69972 1.72727 1.75497 1.7828 1.81076 1.83886
0 0 0 0 0 0 0 0 0 0 0 0 0 0 0 0 0 0 0 0 0 0 0 0 0 0 0 0 0 0 0 0 0 0 0 0 0 0 0 0 0 0 0 1.00574e-291 4.38782e-262 9.34046e-237 6.10928e-215 5.14251e-196 1.72188e-179 5.63405e-165 3.71239e-152 8.86025e-141 1.23858e-130 1.50764e-121 2.22169e-113 5.22156e-106 2.46845e-99 2.85678e-93 9.56714e-88 1.06973e-82 4.51617e-78 8.00543e-74 6.53296e-70 2.65927e-66 5.79114e-63 7.17462e-60 5.33757e-57 2.50107e-54 7.70014e-52 1.61719e-49 2.39567e-47 2.57904e-45 2.07231e-43 1.273e-41 6.10864e-40 2.33475e-38 7.23336e-37 1.84564e-35 3.93476e-34 7.10139e-33 1.09799e-31 1.4703e-30 1.72218e-29 1.78059e-28 1.63861e-27 1.35248e-26 1.00829e-25 6.83344e-25 4.23532e-24 2.41386e-23 1.27152e-22 6.21955e-22 2.83736e-21 1.21211e-20 4.86708e-20 1.84336e-19 6.60652e-19 2.24734e-18 7.27649e-18 2.2484e-17 6.64643e-17 1.88393e-16 5.1314e-16 1.34578e-15 3.40488e-15 8.32501e-15 1.97036e-14 4.52129e-14 1.00734e-13 2.18214e-13 4.60203e-13 9.46043e-13 1.89788e-12 3.71962e-12 7.12931e-12 1.33764e-11 2.4591e-11 4.4334e-11 7.84475e-11 1.36346e-10 2.32945e-10 3.91484e-10 6.47614e-10 1.0552e-09 1.69447e-09 2.68324e-09 4.19228e-09 6.46592e-09 9.84954e-09 1.48255e-08 2.20602e-08 3.24636e-08 4.72663e-08 6.81148e-08 9.71916e-08 1.37362e-07 1.92355e-07 2.6698e-07 3.67391e-07 5.01395e-07 6.78825e-07 9.11966e-07 1.21606e-06 1.6099e-06 2.11646e-06 2.7637e-06 3.58537e-06 4.62203e-06 5.92209e-06 7.54302e-06 9.55264e-06 1.20306e-05 1.50701e-05 1.87791e-05 2.3283e-05 2.87257e-05 3.52724e-05 4.31118e-05 5.24579e-05 6.35532e-05 7.6671e-05 9.2118e-05 0.000110237 0.000131412 0.000156065 0.000184669 0.00021774 0.00025585 0.000299622 0.00034974 0.000406946 0.000472049 0.000545923 0.000629512 0.000723835 0.000829984 0.000949131 0.00108253 0.00123152 0.00139751 0.00158202 0.00178664 0.00201307 0.00226308 0.00253855 0.00284145 0.00317383 0.00353786 0.0039358 0.00436998 0.00484285 0.00535696 0.00591493 0.00651948 0.00717342 0.00787966 0.00864119 0.00946107 0.0103425 0.0112886 0.0123028 0.0133884 0.014549 0.0157879 0.0171088 0.0185154 0.0200112 0.0216002 0.023286 0.0250725 0.0269635 0.0289631 0.031075 0.0333032 0.0356518 0.0381247 0.0407258 0.0434593 0.046329 0.0493391 0.0524934 0.0557958 0.0592505 0.0628612 0.066632 0.0705665 0.0746687 0.0789423 0.083391 0.0880185 0.0928285 0.0978245 0.10301 0.108388 0.113963 0.119738 0.125715 0.131898 0.13829 0.144894 0.151713 0.158749 0.166006 0.173486 0.181191 0.189124 0.197288 0.205683 0.214314 0.22318 0.232285 0.241631 0.251218 0.261049 0.271125 0.281447 0.292016 0.302835 0.313903 0.325222 0.336792 0.348615 0.360691 0.37302 0.385603 0.39844 0.411531 0.424877 0.438477 0.452332 0.466441 0.480803 0.495419 0.510288 0.525409 0.540781 0.556405 0.572278 0.588401 0.604771 0.621388 0.638251 0.655359 0.672709 0.690301 0.708133 0.726204 0.744512 0.763054 0.78183 0.800837 0.820074 0.839538 0.859228 0.879142 0.899276 0.91963 0.9402 0.960985 0.981982 1.00319 1.0246 1.04622 1.06804 1.09006 1.11228 1.13469 1.1573 1.18009 1.20307 1.22623 1.24957 1.27309 1.29679 1.32066 1.3447 1.3689 1.39327 1.4178 1.44249 1.46733 1.49232 1.51746 1.54275 1.56818 1.59375
0 0 0 0 0 0 0 0 0 0 0 0 0 0 0 0 0 0 0 0 0 0 0 0 0 0 0 0 0 0 0 0 0 0 0 0 0 0 0 0 0 0 0 4.08369e-303 2.50392e-272 5.1013e-246 2.33509e-223 1.06321e-203 1.5548e-186 1.85746e-171 3.84178e-158 2.53119e-146 8.75183e-136 2.39735e-126 7.32614e-118 3.32569e-110 2.85384e-103 5.67729e-97 3.11496e-91 5.46894e-86 3.49119e-81 9.04828e-77 1.04766e-72 5.88983e-69 1.72907e-65 2.82529e-62 2.71796e-59 1.61764e-56 6.2236e-54 1.60936e-51 2.89598e-49 3.74049e-47 3.56536e-45 2.57119e-43 1.43465e-41 6.31987e-40 2.2384e-38 6.48045e-37 1.55672e-35 3.14531e-34 5.41179e-33 8.01951e-32 1.0341e-30 1.17135e-29 1.17564e-28 1.05384e-27 8.49875e-27 6.20769e-26 4.13228e-25 2.52123e-24 1.4174e-23 7.37817e-23 3.57229e-22 1.6155e-21 6.85052e-21 2.7338e-20 1.03015e-19 3.67692e-19 1.24679e-18 4.02725e-18 1.24234e-17 3.66881e-17 1.03951e-16 2.8318e-16 7.4315e-16 1.88221e-15 4.60881e-15 1.0928e-14 2.51299e-14 5.61253e-14 1.21909e-13 2.57852e-13 5.3173e-13 1.07026e-12 2.10488e-12 4.049e-12 7.6255e-12 1.40728e-11 2.54717e-11 4.52539e-11 7.89782e-11 1.35497e-10 2.28679e-10 3.79912e-10 6.21686e-10 1.00265e-09 1.59465e-09 2.50238e-09 3.87644e-09 5.93089e-09 8.96633e-09 1.34002e-08 1.98058e-08 2.89624e-08 4.19185e-08 6.00711e-08 8.52642e-08 1.1991e-07 1.67137e-07 2.30967e-07 3.16532e-07 4.30326e-07 5.80507e-07 7.77246e-07 1.03314e-06 1.36368e-06 1.78781e-06 2.32849e-06 3.01347e-06 3.87603e-06 4.95585e-06 6.29999e-06 7.96401e-06 1.00131e-05 1.25233e-05 1.55833e-05 1.92952e-05 2.37768e-05 2.91634e-05 3.5609e-05 4.32887e-05 5.24011e-05 6.31697e-05 7.58458e-05 9.07106e-05 0.000108078 0.000128295 0.00015175 0.000178867 0.000210116 0.00024601 0.000287113 0.000334038 0.000387451 0.000448075 0.000516692 0.000594147 0.000681344 0.000779259 0.000888933 0.00101148 0.00114808 0.0013 0.00146857 0.00165522 0.00186142 0.00208876 0.00233889 0.00261356 0.00291458 0.00324386 0.00360339 0.00399524 0.00442157 0.00488461 0.0053867 0.00593022 0.00651768 0.00715162 0.00783468 0.00856959 0.00935913 0.0102062 0.0111136 0.0120844 0.0131218 0.0142287 0.0154083 0.016664 0.0179989 0.0194164 0.02092 0.0225128 0.0241986 0.0259806 0.0278624 0.0298476 0.0319398 0.0341424 0.036459 0.0388933 0.0414488 0.0441292 0.046938 0.0498788 0.0529552 0.0561707 0.0595288 0.0630331 0.066687 0.070494 0.0744574 0.0785807 0.0828672 0.0873201 0.0919426 0.0967381 0.101709 0.10686 0.112192 0.117709 0.123415 0.12931 0.135399 0.141684 0.148168 0.154852 0.16174 0.168833 0.176135 0.183647 0.19137 0.199308 0.207462 0.215834 0.224425 0.233238 0.242273 0.251532 0.261016 0.270728 0.280666 0.290834 0.301232 0.31186 0.322719 0.333811 0.345135 0.356692 0.368483 0.380507 0.392765 0.405258 0.417985 0.430945 0.44414 0.457568 0.47123 0.485124 0.499251 0.51361 0.5282 0.543021 0.558071 0.57335 0.588857 0.604591 0.62055 0.636734 0.653141 0.669771 0.68662 0.703689 0.720976 0.738479 0.756196 0.774126 0.792267 0.810618 0.829175 0.847939 0.866906 0.886075 0.905443 0.925009 0.94477 0.964725 0.984871 1.00521 1.02573 1.04643 1.06732 1.08839 1.10963 1.13105 1.15264 1.1744 1.19633 1.21842 1.24068 1.2631 1.28567 1.3084 1.33128 1.3543 1.37748
0 0 0 0 0 0 0 0 0 0 0 0 0 0 0 0 0 0 0 0 0 0 0 0 0 0 0 0 0 0 0 0 0 0 0 0 0 0 0 0 0 0 0 1.00592e-314 9.11752e-283 1.85593e-255 6.16991e-232 1.56924e-211 1.03078e-193 4.60843e-178 3.0578e-164 5.67025e-152 4.9336e-141 3.08862e-131 1.98472e-122 1.76215e-114 2.77617e-107 9.59174e-101 8.70358e-95 2.42013e-89 2.35452e-84 8.98705e-80 1.48627e-75 1.16113e-71 4.62131e-68 1.0012e-64 1.25159e-61 9.50465e-59 4.58911e-56 1.46694e-53 3.21838e-51 5.00471e-49 5.67734e-47 4.82124e-45 3.13702e-43 1.59705e-41 6.48314e-40 2.13481e-38 5.79143e-37 1.3128e-35 2.51874e-34 4.13835e-33 5.88547e-32 7.31644e-31 8.02201e-30 7.82183e-29 6.83383e-28 5.38739e-27 3.85692e-26 2.52247e-25 1.51535e-24 8.40433e-24 4.32351e-23 2.07206e-22 9.28877e-22 3.90963e-21 1.55043e-20 5.81198e-20 2.06571e-19 6.981e-19 2.24915e-18 6.92548e-18 2.04275e-17 5.78439e-17 1.57565e-16 4.13669e-16 1.04861e-15 2.57083e-15 6.10549e-15 1.40671e-14 3.1487e-14 6.85612e-14 1.45408e-13 3.00727e-13 6.07176e-13 1.19804e-12 2.31246e-12 4.37051e-12 8.09531e-12 1.47077e-11 2.62309e-11 4.59589e-11 7.91636e-11 1.34147e-10 2.23777e-10 3.67704e-10 5.95507e-10 9.51092e-10 1.49878e-09 2.33158e-09 3.58239e-09 5.43883e-09 8.16278e-09 1.21159e-08 1.77921e-08 2.58596e-08 3.72134e-08 5.30409e-08 7.49033e-08 1.04836e-07 1.45468e-07 2.00172e-07 2.73238e-07 3.70078e-07 4.9748e-07 6.63886e-07 8.79731e-07 1.15783e-06 1.51381e-06 1.96663e-06 2.53912e-06 3.25867e-06 4.15789e-06 5.27544e-06 6.65691e-06 8.35578e-06 1.04345e-05 1.29655e-05 1.60328e-05 1.97328e-05 2.41763e-05 2.94897e-05 3.58165e-05 4.33194e-05 5.2182e-05 6.26104e-05 7.48355e-05 8.91149e-05 0.000105735 0.000125014 0.000147301 0.000172984 0.000202487 0.000236273 0.000274849 0.000318767 0.000368626 0.000425073 0.000488808 0.000560585 0.000641213 0.000731559 0.000832551 0.00094518 0.0010705 0.00120962 0.00136374 0.00153411 0.00172205 0.00192896 0.00215629 0.0024056 0.00267849 0.00297665 0.00330183 0.00365587 0.00404068 0.00445823 0.00491058 0.00539984 0.00592823 0.00649799 0.00711147 0.00777107 0.00847925 0.00923855 0.0100516 0.0109209 0.0118494 0.0128397 0.0138946 0.0150171 0.01621 0.0174764 0.0188191 0.0202413 0.021746 0.0233364 0.0250155 0.0267865 0.0286527 0.0306171 0.0326831 0.0348538 0.0371325 0.0395224 0.0420268 0.0446488 0.0473918 0.0502588 0.0532532 0.0563781 0.0596367 0.063032 0.0665673 0.0702455 0.0740698 0.0780432 0.0821686 0.0864489 0.090887 0.0954858 0.100248 0.105176 0.110274 0.115542 0.120985 0.126604 0.132402 0.138381 0.144544 0.150893 0.157429 0.164156 0.171074 0.178186 0.185495 0.193 0.200705 0.208611 0.216719 0.22503 0.233547 0.242271 0.251201 0.260341 0.269691 0.279251 0.289022 0.299006 0.309204 0.319614 0.330239 0.341079 0.352134 0.363404 0.374889 0.386591 0.398508 0.41064 0.422988 0.435552 0.448331 0.461324 0.474532 0.487954 0.501589 0.515437 0.529498 0.543769 0.558251 0.572943 0.587843 0.602951 0.618265 0.633785 0.64951 0.665437 0.681566 0.697895 0.714424 0.731149 0.748071 0.765187 0.782496 0.799996 0.817686 0.835563 0.853627 0.871874 0.890304 0.908914 0.927702 0.946667 0.965807 0.985119 1.0046 1.02425 1.04407 1.06405 1.08419 1.10449 1.12495 1.14557 1.16634 1.18726
0 0 0 0 0 0 0 0 0 0 0 0 0 0 0 0 0 0 0 0 0 0 0 0 0 0 0 0 0 0 0 0 0 0 0 0 0 0 0 0 0 0 0 0 2.11844e-293 4.49791e-265 1.12699e-240 1.65344e-219 5.01744e-201 8.60442e-185 1.87191e-170 9.9604e-158 2.2188e-146 3.22401e-136 4.41727e-127 7.76747e-119 2.27233e-111 1.37767e-104 2.08698e-98 9.27e-93 1.38535e-87 7.84402e-83 1.86525e-78 2.03747e-74 1.10567e-70 3.19284e-67 5.21202e-64 5.07331e-61 3.08715e-58 1.22471e-55 3.28817e-53 6.17747e-51 8.36718e-49 8.39273e-47 6.38637e-45 3.76766e-43 1.75745e-41 6.59791e-40 2.02601e-38 5.16358e-37 1.10694e-35 2.02043e-34 3.17491e-33 4.33911e-32 5.2059e-31 5.53005e-30 5.24219e-29 4.46668e-28 3.44383e-27 2.41742e-26 1.55376e-25 9.19229e-25 5.03018e-24 2.55756e-23 1.21331e-22 5.3916e-22 2.25234e-21 8.87543e-21 3.30943e-20 1.17112e-19 3.94389e-19 1.26719e-18 3.89397e-18 1.14699e-17 3.24529e-17 8.83767e-17 2.3207e-16 5.88651e-16 1.44466e-15 3.4357e-15 7.92937e-15 1.77841e-14 3.88115e-14 8.25187e-14 1.71124e-13 3.46503e-13 6.85793e-13 1.32798e-12 2.51828e-12 4.68069e-12 8.53438e-12 1.52768e-11 2.68667e-11 4.64544e-11 7.90249e-11 1.32344e-10 2.18329e-10 3.55009e-10 5.6928e-10 9.00745e-10 1.40697e-09 2.1706e-09 3.30894e-09 4.98653e-09 7.43174e-09 1.09581e-08 1.5992e-08 2.31071e-08 3.30685e-08 4.68873e-08 6.58879e-08 9.17905e-08 1.26811e-07 1.73782e-07 2.36298e-07 3.18882e-07 4.27192e-07 5.68254e-07 7.50734e-07 9.85254e-07 1.28475e-06 1.6649e-06 2.14456e-06 2.7463e-06 3.497e-06 4.4285e-06 5.57831e-06 6.99041e-06 8.7161e-06 1.0815e-05 1.3356e-05 1.64185e-05 2.00933e-05 2.44843e-05 2.97095e-05 3.59026e-05 4.32144e-05 5.18145e-05 6.18929e-05 7.36616e-05 8.73567e-05 0.00010324 0.0001216 0.000142757 0.000167059 0.000194892 0.000226675 0.000262864 0.000303955 0.000350486 0.000403039 0.00046224 0.000528763 0.000603331 0.000686719 0.000779753 0.000883315 0.000998342 0.00112583 0.00126683 0.00142245 0.00159388 0.00178235 0.00198915 0.00221565 0.00246328 0.00273353 0.00302796 0.00334818 0.0036959 0.00407285 0.00448086 0.0049218 0.00539762 0.00591033 0.006462 0.00705474 0.00769076 0.00837229 0.00910163 0.00988114 0.0107132 0.0116003 0.012545 0.0135497 0.0146172 0.0157499 0.0169507 0.0182221 0.019567 0.0209882 0.0224883 0.0240703 0.0257371 0.0274914 0.0293362 0.0312743 0.0333087 0.0354423 0.037678 0.0400187 0.0424673 0.0450268 0.0477 0.0504899 0.0533993 0.0564311 0.059588 0.062873 0.0662888 0.0698382 0.0735238 0.0773485 0.0813148 0.0854253 0.0896827 0.0940895 0.0986482 0.103361 0.108231 0.113259 0.118449 0.123803 0.129322 0.135009 0.140866 0.146894 0.153096 0.159474 0.16603 0.172764 0.179679 0.186777 0.194058 0.201525 0.209179 0.21702 0.225051 0.233272 0.241684 0.250289 0.259087 0.26808 0.277268 0.286651 0.296231 0.306008 0.315982 0.326155 0.336525 0.347094 0.357862 0.368829 0.379995 0.391359 0.402923 0.414686 0.426647 0.438806 0.451164 0.463719 0.476471 0.48942 0.502564 0.515905 0.52944 0.543169 0.557091 0.571205 0.585511 0.600007 0.614692 0.629566 0.644626 0.659873 0.675305 0.690919 0.706716 0.722694 0.738851 0.755186 0.771697 0.788384 0.805243 0.822275 0.839476 0.856846 0.874382 0.892084 0.909949 0.927975 0.946161 0.964504 0.983004 1.00166 1.02046
0 0 0 0 0 0 0 0 0 0 0 0 0 0 0 0 0 0 0 0 0 0 0 0 0 0 0 0 0 0 0 0 0 0 0 0 0 0 0 0 0 0 0 0 3.14078e-304 7.26152e-275 1.42305e-249 1.2437e-227 1.79316e-208 1.209e-191 8.81367e-177 1.37198e-163 7.96087e-152 2.72663e-141 8.07686e-132 2.84836e-123 1.56497e-115 1.68221e-108 4.2945e-102 3.07347e-96 7.11126e-91 6.01631e-86 2.07081e-81 3.18227e-77 2.36804e-73 9.16279e-70 1.96278e-66 2.46007e-63 1.89466e-60 9.36531e-58 3.08847e-55 7.03432e-53 1.14132e-50 1.35634e-48 1.21048e-46 8.29787e-45 4.45892e-43 1.91315e-41 6.66469e-40 1.9139e-38 4.59374e-37 9.33251e-36 1.62336e-34 2.44337e-33 3.21303e-32 3.72425e-31 3.83618e-30 3.53793e-29 2.94165e-28 2.21917e-27 1.52794e-26 9.65405e-26 5.62586e-25 3.03794e-24 1.52675e-23 7.16988e-23 3.15822e-22 1.30942e-21 5.12677e-21 1.90133e-20 6.69818e-20 2.24749e-19 7.20051e-19 2.20783e-18 6.49315e-18 1.83537e-17 4.99584e-17 1.31188e-16 3.32909e-16 8.17699e-16 1.94696e-15 4.50022e-15 1.01113e-14 2.2112e-14 4.71209e-14 9.79623e-14 1.98896e-13 3.94782e-13 7.66774e-13 1.45865e-12 2.72009e-12 4.97642e-12 8.93903e-12 1.5777e-11 2.73791e-11 4.67484e-11 7.85852e-11 1.30138e-10 2.12423e-10 3.41959e-10 5.43184e-10 8.51794e-10 1.3193e-09 2.01915e-09 3.05491e-09 4.57098e-09 6.76667e-09 9.91419e-09 1.43818e-08 2.06628e-08 2.94126e-08 4.14933e-08 5.80305e-08 8.04811e-08 1.10716e-07 1.5112e-07 2.0471e-07 2.75276e-07 3.67546e-07 4.8738e-07 6.4199e-07 8.40206e-07 1.09276e-06 1.41265e-06 1.81547e-06 2.31989e-06 2.94812e-06 3.72643e-06 4.68575e-06 5.86236e-06 7.29852e-06 9.04333e-06 1.11535e-05 1.36945e-05 1.6741e-05 2.03785e-05 2.47043e-05 2.98285e-05 3.58752e-05 4.29843e-05 5.13124e-05 6.10343e-05 7.23449e-05 8.54601e-05 0.000100619 0.000118085 0.000138148 0.000161127 0.000187367 0.000217249 0.000251184 0.000289619 0.000333038 0.000381962 0.000436953 0.000498615 0.000567594 0.000644583 0.000730318 0.000825587 0.000931223 0.00104811 0.00117719 0.00131945 0.00147594 0.00164774 0.00183602 0.00204199 0.00226691 0.0025121 0.00277895 0.00306889 0.00338342 0.00372409 0.00409252 0.00449037 0.00491935 0.00538127 0.00587793 0.00641125 0.00698314 0.00759562 0.00825071 0.00895052 0.00969717 0.0104929 0.0113398 0.0122403 0.0131967 0.0142112 0.0152863 0.0164245 0.017628 0.0188996 0.0202415 0.0216565 0.023147 0.0247156 0.0263649 0.0280975 0.029916 0.031823 0.0338213 0.0359133 0.0381018 0.0403894 0.0427787 0.0452723 0.0478729 0.0505831 0.0534053 0.0563423 0.0593966 0.0625706 0.0658669 0.069288 0.0728363 0.0765143 0.0803242 0.0842685 0.0883495 0.0925694 0.0969305 0.101435 0.106085 0.110882 0.115829 0.120928 0.12618 0.131588 0.137153 0.142877 0.148762 0.154809 0.16102 0.167397 0.173941 0.180654 0.187536 0.19459 0.201816 0.209215 0.21679 0.22454 0.232466 0.240571 0.248854 0.257316 0.265958 0.274781 0.283786 0.292972 0.30234 0.311891 0.321625 0.331543 0.341644 0.351928 0.362397 0.373049 0.383885 0.394904 0.406108 0.417494 0.429064 0.440816 0.45275 0.464867 0.477165 0.489644 0.502303 0.515142 0.528159 0.541355 0.554728 0.568278 0.582004 0.595904 0.609978 0.624224 0.638643 0.653232 0.66799 0.682916 0.69801 0.713269 0.728692 0.744278 0.760027 0.775935 0.792002 0.808227 0.824607 0.841142 0.85783 0.874668
0 0 0 0 0 0 0 0 0 0 0 0 0 0 0 0 0 0 0 0 0 0 0 0 0 0 0 0 0 0 0 0 0 0 0 0 0 0 0 0 0 0 0 0 2.96933e-315 7.8093e-285 1.24218e-258 6.67836e-236 4.70521e-216 1.27839e-198 3.19173e-183 1.4819e-169 2.27873e-157 1.86833e-146 1.21328e-136 8.68936e-128 9.06881e-120 1.74626e-112 7.58371e-106 8.82032e-100 3.18463e-94 4.05501e-89 2.0338e-84 4.42403e-80 4.54004e-76 2.36632e-72 6.68433e-69 1.08368e-65 1.06084e-62 6.55955e-60 2.6669e-57 7.38948e-55 1.44088e-52 2.03494e-50 2.13615e-48 1.7061e-46 1.05883e-44 5.20457e-43 2.06158e-41 6.685e-40 1.80015e-38 4.07841e-37 7.86739e-36 1.30637e-34 1.88599e-33 2.38912e-32 2.67808e-31 2.67715e-30 2.40374e-29 1.95138e-28 1.44106e-27 9.73556e-27 6.04856e-26 3.47265e-25 1.85073e-24 9.19429e-24 4.27442e-23 1.86636e-22 7.67966e-22 2.98737e-21 1.10183e-20 3.86386e-20 1.29159e-19 4.12552e-19 1.26202e-18 3.70519e-18 1.04611e-17 2.84568e-17 7.47135e-17 1.89644e-16 4.66108e-16 1.11092e-15 2.57116e-15 5.78625e-15 1.26773e-14 2.70723e-14 5.64124e-14 1.14824e-13 2.28521e-13 4.45112e-13 8.49271e-13 1.58864e-12 2.91579e-12 5.25495e-12 9.30634e-12 1.62064e-11 2.77698e-11 4.68504e-11 7.78687e-11 1.27576e-10 2.0614e-10 3.28677e-10 5.17372e-10 8.04386e-10 1.2358e-09 1.8769e-09 2.81914e-09 4.18937e-09 6.16162e-09 8.97248e-09 1.29404e-08 1.84904e-08 2.61841e-08 3.67585e-08 5.11717e-08 7.06597e-08 9.68055e-08 1.31621e-07 1.77644e-07 2.38056e-07 3.16817e-07 4.18824e-07 5.50097e-07 7.1799e-07 9.31432e-07 1.20121e-06 1.54027e-06 1.96408e-06 2.49104e-06 3.14287e-06 3.94515e-06 4.92785e-06 6.12588e-06 7.57978e-06 9.33637e-06 1.14496e-05 1.39811e-05 1.70016e-05 2.05912e-05 2.48407e-05 2.98528e-05 3.57428e-05 4.26401e-05 5.06892e-05 6.00512e-05 7.09047e-05 8.34476e-05 9.78982e-05 0.000114497 0.000133507 0.000155216 0.00017994 0.000208022 0.000239832 0.000275774 0.000316282 0.000361826 0.000412909 0.000470073 0.000533897 0.000604999 0.000684038 0.000771716 0.000868778 0.000976013 0.00109426 0.00122439 0.00136733 0.00152408 0.00169564 0.00188309 0.00208756 0.00231023 0.00255231 0.0028151 0.0030999 0.00340811 0.00374115 0.00410051 0.0044877 0.00490432 0.00535199 0.00583238 0.00634723 0.00689829 0.0074874 0.0081164 0.00878721 0.00950176 0.0102621 0.0110701 0.011928 0.0128377 0.0138016 0.0148216 0.0159 0.0170391 0.018241 0.0195081 0.0208425 0.0222468 0.023723 0.0252737 0.0269012 0.0286078 0.0303958 0.0322678 0.034226 0.0362729 0.0384109 0.0406422 0.0429693 0.0453946 0.0479204 0.0505491 0.053283 0.0561244 0.0590755 0.0621388 0.0653164 0.0686105 0.0720234 0.0755572 0.079214 0.082996 0.0869053 0.0909438 0.0951136 0.0994167 0.103855 0.10843 0.113144 0.117999 0.122996 0.128137 0.133425 0.138859 0.144442 0.150176 0.156061 0.1621 0.168294 0.174643 0.181149 0.187814 0.194638 0.201622 0.208768 0.216076 0.223548 0.231184 0.238985 0.246951 0.255084 0.263384 0.271851 0.280486 0.28929 0.298263 0.307404 0.316715 0.326196 0.335847 0.345667 0.355657 0.365818 0.376148 0.386648 0.397317 0.408156 0.419164 0.430341 0.441687 0.4532 0.464881 0.47673 0.488744 0.500925 0.513271 0.525782 0.538456 0.551294 0.564294 0.577455 0.590777 0.604259 0.617899 0.631697 0.645652 0.659762 0.674026 0.688444 0.703014 0.717735 0.732605 0.747624
0 0 0 0 0 0 0 0 0 0 0 0 0 0 0 0 0 0 0 0 0 0 0 0 0 0 0 0 0 0 0 0 0 0 0 0 0 0 0 0 0 0 0 0 0 5.59454e-295 7.49575e-268 2.56007e-244 9.06486e-224 1.01728e-205 8.88984e-190 1.25512e-175 5.20372e-163 1.03725e-151 1.49732e-141 2.20525e-132 4.42185e-124 1.54109e-116 1.14928e-109 2.19103e-103 1.24423e-97 2.40173e-92 1.76701e-87 5.47438e-83 7.79175e-79 5.4994e-75 2.05857e-71 4.33669e-68 5.4189e-65 4.20815e-62 2.11711e-59 7.16121e-57 1.68361e-54 2.83437e-52 3.50972e-50 3.27479e-48 2.35327e-46 1.32836e-44 5.99655e-43 2.20039e-41 6.66116e-40 1.68625e-38 3.61393e-37 6.63177e-36 1.05286e-34 1.4599e-33 1.78356e-32 1.93532e-31 1.87903e-30 1.64363e-29 1.30348e-28 9.42709e-28 6.25133e-27 3.82007e-26 2.16122e-25 1.13694e-24 5.58392e-24 2.57001e-23 1.11236e-22 4.54248e-22 1.7555e-21 6.43887e-21 2.2474e-20 7.48341e-20 2.38279e-19 7.27105e-19 2.13074e-18 6.00799e-18 1.63301e-17 4.28601e-17 1.088e-16 2.67533e-16 6.38152e-16 1.47864e-15 3.33232e-15 7.31316e-15 1.56472e-14 3.26748e-14 6.66624e-14 1.33004e-13 2.59754e-13 4.97001e-13 9.32417e-13 1.71658e-12 3.10345e-12 5.51394e-12 9.63409e-12 1.65642e-11 2.80421e-11 4.67717e-11 7.69008e-11 1.24705e-10 1.99557e-10 3.15272e-10 4.91974e-10 7.58629e-10 1.15646e-09 1.74348e-09 2.60053e-09 3.83904e-09 5.61116e-09 8.12268e-09 1.16494e-08 1.65577e-08 2.33301e-08 3.2597e-08 4.51756e-08 6.21166e-08 8.47615e-08 1.14811e-07 1.54404e-07 2.06218e-07 2.73575e-07 3.60579e-07 4.72263e-07 6.14766e-07 7.95532e-07 1.02354e-06 1.30956e-06 1.66643e-06 2.10943e-06 2.65656e-06 3.32903e-06 4.15165e-06 5.15332e-06 6.36756e-06 7.83314e-06 9.59462e-06 1.17031e-05 1.42168e-05 1.72022e-05 2.07343e-05 2.4898e-05 2.97888e-05 3.55137e-05 4.21924e-05 4.99582e-05 5.89592e-05 6.93595e-05 8.134e-05 9.51003e-05 0.000110859 0.000128856 0.000149354 0.000172637 0.000199014 0.000228823 0.000262426 0.000300215 0.000342611 0.000390068 0.00044307 0.000502137 0.000567822 0.000640715 0.000721443 0.000810671 0.000909103 0.00101748 0.0011366 0.00126727 0.00141038 0.00156683 0.00173758 0.00192362 0.00212601 0.00234584 0.00258424 0.00284238 0.0031215 0.00342287 0.00374779 0.00409764 0.00447381 0.00487776 0.00531097 0.00577498 0.00627136 0.00680173 0.00736775 0.00797112 0.00861356 0.00929684 0.0100228 0.0107932 0.01161 0.0124751 0.0133903 0.0143578 0.0153794 0.0164571 0.017593 0.0187892 0.0200478 0.0213707 0.0227602 0.0242183 0.0257472 0.0273491 0.029026 0.0307801 0.0326137 0.0345288 0.0365276 0.0386123 0.040785 0.0430478 0.045403 0.0478526 0.0503988 0.0530437 0.0557892 0.0586376 0.0615909 0.064651 0.06782 0.0710999 0.0744926 0.078 0.0816241 0.0853667 0.0892297 0.0932148 0.0973238 0.101558 0.10592 0.110411 0.115033 0.119786 0.124674 0.129696 0.134855 0.140153 0.145589 0.151166 0.156885 0.162747 0.168754 0.174906 0.181204 0.18765 0.194245 0.200989 0.207883 0.214928 0.222125 0.229474 0.236977 0.244634 0.252445 0.260411 0.268532 0.276809 0.285242 0.293832 0.302579 0.311482 0.320543 0.329761 0.339136 0.348668 0.358358 0.368205 0.378209 0.38837 0.398688 0.409162 0.419793 0.430579 0.441521 0.452617 0.463869 0.475274 0.486833 0.498545 0.510409 0.522424 0.534591 0.546908 0.559374 0.571988 0.584751 0.59766 0.610716 0.623916 0.63726
0 0 0 0 0 0 0 0 0 0 0 0 0 0 0 0 0 0 0 0 0 0 0 0 0 0 0 0 0 0 0 0 0 0 0 0 0 0 0 0 0 0 0 0 0 2.66983e-305 3.12685e-277 7.00585e-253 1.28223e-231 6.09184e-213 1.90441e-196 8.33589e-182 9.48035e-169 4.66561e-157 1.5181e-146 4.65593e-137 1.81413e-128 1.15621e-120 1.49467e-113 4.71106e-107 4.24101e-101 1.25005e-95 1.35811e-90 6.02957e-86 1.19706e-81 1.15014e-77 5.73319e-74 1.57657e-70 2.52532e-67 2.4727e-64 1.5451e-61 6.40235e-59 1.82075e-56 3.66507e-54 5.36884e-52 5.86821e-50 4.89515e-48 3.18084e-46 1.64015e-44 6.82518e-43 2.32751e-41 6.59615e-40 1.57348e-38 3.19656e-37 5.58991e-36 8.49765e-35 1.13316e-33 1.33657e-32 1.40517e-31 1.32611e-30 1.13079e-29 8.76516e-29 6.21085e-28 4.04399e-27 2.43127e-26 1.35572e-25 7.04091e-25 3.41902e-24 1.55797e-23 6.68456e-23 2.70903e-22 1.04007e-21 3.79339e-21 1.31773e-20 4.37034e-20 1.38703e-19 4.22147e-19 1.2346e-18 3.47609e-18 9.43915e-18 2.47617e-17 6.28519e-17 1.54595e-16 3.68996e-16 8.55804e-16 1.93108e-15 4.24437e-15 9.09709e-15 1.9034e-14 3.89166e-14 7.78271e-14 1.52374e-13 2.92316e-13 5.49932e-13 1.01535e-12 1.84118e-12 3.28134e-12 5.75143e-12 9.92074e-12 1.68507e-11 2.82002e-11 4.65244e-11 7.57069e-11 1.21572e-10 1.92744e-10 3.0184e-10 4.67101e-10 7.14605e-10 1.08122e-09 1.61853e-09 2.39798e-09 3.51756e-09 5.11036e-09 7.35557e-09 1.04923e-08 1.48368e-08 2.08042e-08 2.89347e-08 3.99262e-08 5.46736e-08 7.43158e-08 1.00293e-07 1.34412e-07 1.78929e-07 2.3664e-07 3.10987e-07 4.0619e-07 5.27383e-07 6.80787e-07 8.73892e-07 1.11567e-06 1.41682e-06 1.79004e-06 2.25029e-06 2.81518e-06 3.50531e-06 4.34464e-06 5.36098e-06 6.58645e-06 8.05799e-06 9.81791e-06 1.19145e-05 1.44028e-05 1.7345e-05 2.08115e-05 2.48812e-05 2.96432e-05 3.51964e-05 4.16517e-05 4.91319e-05 5.77732e-05 6.77262e-05 7.91565e-05 9.22463e-05 0.000107195 0.000124221 0.000143562 0.000165476 0.000190244 0.00021817 0.00024958 0.000284829 0.000324295 0.000368386 0.000417537 0.000472214 0.000532913 0.000600162 0.000674523 0.000756589 0.000846991 0.000946391 0.00105549 0.00117503 0.00130578 0.00144856 0.00160421 0.00177364 0.00195776 0.00215755 0.00237402 0.00260823 0.00286125 0.00313422 0.00342832 0.00374475 0.00408476 0.00444964 0.00484072 0.00525937 0.00570698 0.006185 0.00669491 0.00723822 0.00781648 0.00843126 0.00908418 0.00977687 0.010511 0.0112883 0.0121105 0.0129794 0.0138966 0.0148641 0.0158837 0.0169571 0.0180864 0.0192732 0.0205196 0.0218275 0.0231988 0.0246353 0.0261391 0.0277122 0.0293564 0.0310737 0.0328661 0.0347355 0.0366839 0.0387133 0.0408256 0.0430227 0.0453067 0.0476793 0.0501425 0.0526983 0.0553484 0.0580948 0.0609394 0.0638838 0.06693 0.0700798 0.0733348 0.0766969 0.0801677 0.083749 0.0874423 0.0912493 0.0951716 0.0992107 0.103368 0.107646 0.112044 0.116566 0.121211 0.125982 0.13088 0.135905 0.14106 0.146346 0.151763 0.157312 0.162996 0.168814 0.174767 0.180858 0.187085 0.193452 0.199957 0.206602 0.213388 0.220315 0.227384 0.234595 0.241949 0.249447 0.257089 0.264875 0.272805 0.28088 0.289101 0.297467 0.305978 0.314635 0.323438 0.332387 0.341481 0.350721 0.360107 0.369638 0.379315 0.389137 0.399104 0.409216 0.419471 0.429871 0.440414 0.451101 0.46193 0.472901 0.484014 0.495268 0.506662 0.518197 0.52987 0.541681
0 0 0 0 0 0 0 0 0 0 0 0 0 0 0 0 0 0 0 0 0 0 0 0 0 0 0 0 0 0 0 0 0 0 0 0 0 0 0 0 0 0 0 0 0 8.49793e-316 9.01698e-287 1.36867e-261 1.33166e-239 2.74532e-220 3.13778e-203 4.34125e-188 1.37792e-174 1.70033e-162 1.26449e-151 8.17774e-142 6.2624e-133 7.3746e-125 1.66816e-117 8.76791e-111 1.26114e-104 5.71739e-99 9.23412e-94 5.91116e-89 1.64628e-84 2.16463e-80 1.44394e-76 5.20679e-73 1.07366e-69 1.33082e-66 1.03667e-63 5.28047e-61 1.82243e-58 4.39974e-56 7.64639e-54 9.8168e-52 9.53039e-50 7.14597e-48 4.21842e-46 1.995e-44 7.67949e-43 2.44117e-41 6.49348e-40 1.46293e-38 2.82258e-37 4.71154e-36 6.868e-35 8.81833e-34 1.00525e-32 1.02487e-31 9.40821e-31 7.82542e-30 5.93181e-29 4.11982e-28 2.63481e-27 1.55888e-26 8.56931e-26 4.39432e-25 2.10998e-24 9.51975e-24 4.04904e-23 1.62849e-22 6.21107e-22 2.25247e-21 7.7867e-21 2.57201e-20 8.13541e-20 2.46931e-19 7.20624e-19 2.02573e-18 5.49469e-18 1.44048e-17 3.65545e-17 8.99242e-17 2.14739e-16 4.98435e-16 1.12591e-15 2.47799e-15 5.31954e-15 1.11502e-14 2.28429e-14 4.57815e-14 8.98432e-14 1.72784e-13 3.25906e-13 6.03372e-13 1.09723e-12 1.96123e-12 3.44797e-12 5.9659e-12 1.01654e-11 1.7067e-11 2.82494e-11 4.61217e-11 7.43123e-11 1.18217e-10 1.85765e-10 2.88465e-10 4.42844e-10 6.72369e-10 1.01002e-09 1.50165e-09 2.21046e-09 3.22263e-09 4.6547e-09 6.66285e-09 9.45457e-09 1.33033e-08 1.85665e-08 2.57078e-08 3.53244e-08 4.81793e-08 6.52414e-08 8.77323e-08 1.17182e-07 1.55495e-07 2.05026e-07 2.68674e-07 3.49979e-07 4.53248e-07 5.83686e-07 7.47558e-07 9.52356e-07 1.20701e-06 1.52208e-06 1.91006e-06 2.38559e-06 2.96579e-06 3.67058e-06 4.52309e-06 5.54998e-06 6.78192e-06 8.25406e-06 1.00065e-05 1.20849e-05 1.45408e-05 1.74328e-05 2.08265e-05 2.47956e-05 2.94226e-05 3.47994e-05 4.10282e-05 4.82224e-05 5.65072e-05 6.60207e-05 7.69144e-05 8.93549e-05 0.000103524 0.00011962 0.00013786 0.000158477 0.000181725 0.00020788 0.000237236 0.000270113 0.000306852 0.000347819 0.000393407 0.000444032 0.000500141 0.000562206 0.00063073 0.000706245 0.000789314 0.000880531 0.000980521 0.00108994 0.00120949 0.00133989 0.00148189 0.0016363 0.00180395 0.00198569 0.00218243 0.00239511 0.00262469 0.00287218 0.00313863 0.00342512 0.00373275 0.00406268 0.0044161 0.00479421 0.00519828 0.00562958 0.00608944 0.0065792 0.00710025 0.00765399 0.00824187 0.00886536 0.00952596 0.0102252 0.0109646 0.0117458 0.0125703 0.0134397 0.0143558 0.0153202 0.0163345 0.0174004 0.0185197 0.019694 0.0209252 0.0222149 0.0235649 0.024977 0.026453 0.0279945 0.0296034 0.0312816 0.0330306 0.0348524 0.0367488 0.0387214 0.040772 0.0429025 0.0451145 0.0474098 0.0497902 0.0522573 0.0548129 0.0574586 0.0601962 0.0630271 0.0659532 0.068976 0.0720971 0.0753181 0.0786405 0.0820658 0.0855955 0.0892312 0.0929741 0.0968258 0.100788 0.104861 0.109047 0.113347 0.117762 0.122294 0.126943 0.131712 0.1366 0.141609 0.146741 0.151995 0.157374 0.162877 0.168506 0.174262 0.180145 0.186157 0.192297 0.198567 0.204968 0.211499 0.218162 0.224956 0.231884 0.238944 0.246137 0.253464 0.260926 0.268521 0.276251 0.284116 0.292116 0.300251 0.308521 0.316926 0.325466 0.334142 0.342953 0.351899 0.36098 0.370196 0.379547 0.389031 0.39865 0.408403 0.418289 0.428308 0.43846 0.448745 0.459161
0 0 0 0 0 0 0 0 0 0 0 0 0 0 0 0 0 0 0 0 0 0 0 0 0 0 0 0 0 0 0 0 0 0 0 0 0 0 0 0 0 0 0 0 0 0 1.79754e-296 1.9088e-270 1.01541e-247 9.3105e-228 3.97634e-210 1.77287e-194 1.59776e-180 5.02061e-168 8.65297e-157 1.19492e-146 1.81896e-137 3.9988e-129 1.59774e-121 1.41247e-114 3.27182e-108 2.29795e-102 5.55417e-97 5.15816e-92 2.02674e-87 3.66617e-83 3.28869e-79 1.56216e-75 4.16445e-72 6.56038e-69 6.39437e-66 4.01778e-63 1.68828e-60 4.90334e-58 1.01391e-55 1.53312e-53 1.73662e-51 1.50618e-49 1.02023e-47 5.49527e-46 2.39262e-44 8.54755e-43 2.53995e-41 6.357e-40 1.35548e-38 2.48837e-37 3.97109e-36 5.55828e-35 6.87963e-34 7.58696e-33 7.5073e-32 6.70844e-31 5.44604e-30 4.03902e-29 2.75071e-28 1.7285e-27 1.00668e-26 5.45641e-26 2.76315e-25 1.31206e-24 5.86162e-24 2.47156e-23 9.86501e-23 3.73765e-22 1.34772e-21 4.6362e-21 1.52502e-20 4.80703e-20 1.45493e-19 4.23638e-19 1.18882e-18 3.22064e-18 8.43647e-18 2.14006e-17 5.26448e-17 1.25757e-16 2.92084e-16 6.60394e-16 1.45517e-15 3.12828e-15 6.56787e-15 1.34801e-14 2.70711e-14 5.3241e-14 1.0263e-13 1.94058e-13 3.60203e-13 6.56791e-13 1.17725e-12 2.07565e-12 3.60205e-12 6.1562e-12 1.03678e-11 1.72148e-11 2.81958e-11 4.55769e-11 7.27418e-11 1.14683e-10 1.78678e-10 2.75221e-10 4.19275e-10 6.31953e-10 9.42748e-10 1.39245e-09 2.03695e-09 2.95213e-09 4.2401e-09 6.0371e-09 8.52339e-09 1.19356e-08 1.65821e-08 2.28613e-08 3.12848e-08 4.25046e-08 5.73461e-08 7.68474e-08 1.02306e-07 1.35332e-07 1.77916e-07 2.32499e-07 3.02061e-07 3.90218e-07 5.01338e-07 6.40669e-07 8.14482e-07 1.03024e-06 1.29677e-06 1.62448e-06 2.02559e-06 2.51437e-06 3.10742e-06 3.82397e-06 4.68623e-06 5.71972e-06 6.95367e-06 8.42144e-06 1.0161e-05 1.22153e-05 1.46329e-05 1.74685e-05 2.07834e-05 2.46462e-05 2.91336e-05 3.43307e-05 4.03317e-05 4.72412e-05 5.51743e-05 6.42575e-05 7.46297e-05 8.64431e-05 9.98634e-05 0.000115071 0.000132263 0.000151652 0.000173467 0.000197958 0.000225391 0.000256054 0.000290255 0.000328324 0.000370613 0.000417498 0.000469379 0.00052668 0.000589852 0.000659371 0.000735742 0.000819495 0.000911191 0.00101142 0.0011208 0.00123997 0.00136962 0.00151046 0.00166322 0.00182868 0.00200764 0.00220094 0.00240944 0.00263404 0.00287567 0.0031353 0.00341391 0.00371253 0.00403223 0.00437408 0.0047392 0.00512875 0.0055439 0.00598585 0.00645585 0.00695514 0.00748503 0.00804682 0.00864186 0.00927152 0.00993718 0.0106402 0.0113822 0.0121644 0.0129884 0.0138556 0.0147677 0.015726 0.0167322 0.0177877 0.0188943 0.0200533 0.0212665 0.0225354 0.0238617 0.0252468 0.0266925 0.0282004 0.029772 0.0314091 0.0331131 0.0348858 0.0367288 0.0386436 0.0406319 0.0426952 0.0448352 0.0470534 0.0493514 0.0517308 0.054193 0.0567397 0.0593723 0.0620923 0.0649012 0.0678005 0.0707916 0.0738759 0.0770548 0.0803297 0.083702 0.0871729 0.0907437 0.0944158 0.0981904 0.102069 0.106052 0.110141 0.114338 0.118642 0.123056 0.127581 0.132217 0.136965 0.141826 0.146802 0.151893 0.1571 0.162423 0.167864 0.173424 0.179102 0.1849 0.190818 0.196857 0.203018 0.2093 0.215705 0.222232 0.228883 0.235658 0.242557 0.24958 0.256727 0.264 0.271397 0.27892 0.286568 0.294342 0.302241 0.310266 0.318417 0.326693 0.335094 0.343621 0.352274 0.361051 0.369953 0.37898 0.388132
0 0 0 0 0 0 0 0 0 0 0 0 0 0 0 0 0 0 0 0 0 0 0 0 0 0 0 0 0 0 0 0 0 0 0 0 0 0 0 0 0 0 0 0 0 0 2.4772e-306 1.90043e-279 5.68477e-256 2.37623e-235 3.87563e-217 5.6772e-201 1.47805e-186 1.2011e-173 4.86459e-162 1.45251e-151 4.44546e-142 1.84337e-133 1.31325e-125 1.96958e-118 7.40526e-112 8.1162e-106 2.95534e-100 4.00637e-95 2.23355e-90 5.58774e-86 6.77358e-82 4.25776e-78 1.47365e-74 2.96213e-71 3.62602e-68 2.8202e-65 1.44755e-62 5.07314e-60 1.25173e-57 2.23524e-55 2.96175e-53 2.97841e-51 2.3202e-49 1.42643e-47 7.03905e-46 2.83155e-44 9.41688e-43 2.62282e-41 6.1908e-40 1.25186e-38 2.19042e-37 3.34697e-36 4.50408e-35 5.37998e-34 5.74529e-33 5.52205e-32 4.80654e-31 3.81067e-30 2.76644e-29 1.84816e-28 1.14146e-27 6.54557e-27 3.49895e-26 1.75006e-25 8.21883e-25 3.636e-24 1.51992e-23 6.02066e-23 2.26598e-22 8.12366e-22 2.78071e-21 9.10819e-21 2.8608e-20 8.63331e-20 2.50786e-19 7.02465e-19 1.90045e-18 4.9736e-18 1.26098e-17 3.10149e-17 7.41013e-17 1.72193e-16 3.89625e-16 8.5942e-16 1.84991e-15 3.8897e-15 7.99678e-15 1.60894e-14 3.17075e-14 6.12543e-14 1.16091e-13 2.1601e-13 3.94876e-13 7.09665e-13 1.25467e-12 2.18348e-12 3.74256e-12 6.32159e-12 1.05282e-11 1.72968e-11 2.80463e-11 4.49037e-11 7.10195e-11 1.11006e-10 1.71537e-10 2.62173e-10 3.96453e-10 5.93371e-10 8.79302e-10 1.29053e-09 1.87652e-09 2.70411e-09 3.86284e-09 5.47164e-09 7.68733e-09 1.07149e-08 1.48206e-08 2.03475e-08 2.77343e-08 3.75391e-08 5.04662e-08 6.73994e-08 8.94404e-08 1.17955e-07 1.54625e-07 2.01513e-07 2.6113e-07 3.3652e-07 4.31356e-07 5.50041e-07 6.97834e-07 8.80983e-07 1.10688e-06 1.38423e-06 1.72324e-06 2.13582e-06 2.63582e-06 3.23931e-06 3.96478e-06 4.83351e-06 5.86987e-06 7.10166e-06 8.5605e-06 1.02822e-05 1.23072e-05 1.46812e-05 1.74551e-05 2.06863e-05 2.44386e-05 2.8783e-05 3.37982e-05 3.95715e-05 4.61989e-05 5.37863e-05 6.24499e-05 7.23167e-05 8.35257e-05 9.62282e-05 0.000110589 0.000126786 0.000145012 0.000165477 0.000188406 0.000214039 0.000242636 0.000274476 0.000309855 0.000349092 0.000392523 0.000440509 0.00049343 0.000551691 0.000615719 0.000685966 0.000762909 0.000847047 0.000938909 0.00103905 0.00114804 0.0012665 0.00139505 0.00153436 0.00168512 0.00184805 0.00202388 0.0022134 0.0024174 0.00263673 0.00287223 0.00312479 0.00339534 0.00368481 0.00399418 0.00432444 0.00467663 0.00505179 0.005451 0.00587537 0.00632603 0.00680413 0.00731085 0.0078474 0.00841499 0.00901487 0.00964831 0.0103166 0.011021 0.011763 0.0125437 0.0133646 0.0142271 0.0151325 0.0160823 0.0170778 0.0181205 0.0192118 0.0203531 0.021546 0.0227918 0.0240921 0.0254483 0.0268619 0.0283343 0.029867 0.0314616 0.0331194 0.034842 0.0366307 0.0384872 0.0404128 0.0424089 0.0444771 0.0466187 0.0488352 0.051128 0.0534985 0.0559481 0.0584781 0.0610899 0.0637848 0.0665642 0.0694293 0.0723815 0.075422 0.078552 0.0817729 0.0850857 0.0884917 0.0919919 0.0955877 0.0992799 0.10307 0.106958 0.110947 0.115036 0.119226 0.12352 0.127917 0.132418 0.137025 0.141737 0.146557 0.151484 0.15652 0.161665 0.16692 0.172285 0.177761 0.183349 0.189049 0.194862 0.200788 0.206827 0.212981 0.219249 0.225632 0.23213 0.238744 0.245473 0.252319 0.25928 0.266358 0.273553 0.280864 0.288291 0.295836 0.303497 0.311275 0.319169 0.32718
0 0 0 0 0 0 0 0 0 0 0 0 0 0 0 0 0 0 0 0 0 0 0 0 0 0 0 0 0 0 0 0 0 0 0 0 0 0 0 0 0 0 0 0 0 0 2.37152e-316 1.35074e-288 2.33672e-264 4.56393e-243 2.90535e-224 1.42558e-207 1.09083e-192 2.32809e-179 2.24678e-167 1.46885e-156 9.14153e-147 7.22411e-138 9.26331e-130 2.37723e-122 1.46224e-115 2.51904e-109 1.3911e-103 2.76977e-98 2.20343e-93 7.66399e-89 1.26164e-84 1.05424e-80 4.75744e-77 1.22502e-73 1.89032e-70 1.82622e-67 1.14872e-64 4.87284e-62 1.43877e-59 3.0424e-57 4.72761e-55 5.52571e-53 4.96176e-51 3.48921e-49 1.95549e-47 8.87451e-46 3.30919e-44 1.02748e-42 2.68909e-41 5.99907e-40 1.15261e-38 1.9254e-37 2.82095e-36 3.65431e-35 4.21687e-34 4.3646e-33 4.07795e-32 3.45984e-31 2.68026e-30 1.90556e-29 1.24928e-28 7.58601e-28 4.28428e-27 2.25906e-26 1.11617e-25 5.18492e-25 2.27163e-24 9.41448e-24 3.70102e-23 1.3837e-22 4.93192e-22 1.67973e-21 5.47835e-21 1.71446e-20 5.15822e-20 1.4947e-19 4.17855e-19 1.12878e-18 2.951e-18 7.47692e-18 1.83848e-17 4.39272e-17 1.02112e-16 2.31197e-16 5.10421e-16 1.09993e-15 2.31586e-15 4.7685e-15 9.6107e-15 1.89757e-14 3.67331e-14 6.97697e-14 1.30118e-13 2.38437e-13 4.29595e-13 7.61493e-13 1.32879e-12 2.28389e-12 3.86868e-12 6.46167e-12 1.06472e-11 1.73159e-11 2.78079e-11 4.41159e-11 6.91683e-11 1.0722e-10 1.64388e-10 2.49373e-10 3.74423e-10 5.56619e-10 8.19551e-10 1.1955e-09 1.72827e-09 2.47675e-09 3.51951e-09 4.96052e-09 6.93625e-09 9.62459e-09 1.32557e-08 1.81251e-08 2.461e-08 3.31885e-08 4.44626e-08 5.91858e-08 7.82955e-08 1.02951e-07 1.34578e-07 1.74921e-07 2.26101e-07 2.90684e-07 3.71763e-07 4.73042e-07 5.98938e-07 7.54696e-07 9.46513e-07 1.18168e-06 1.46874e-06 1.81767e-06 2.24004e-06 2.74927e-06 3.36083e-06 4.09249e-06 4.96458e-06 6.00033e-06 7.22611e-06 8.67184e-06 1.03713e-05 1.23625e-05 1.46882e-05 1.73961e-05 2.05395e-05 2.41778e-05 2.83769e-05 3.32096e-05 3.87563e-05 4.51055e-05 5.23546e-05 6.061e-05 6.99882e-05 8.06161e-05 9.26317e-05 0.000106185 0.000121438 0.000138567 0.00015776 0.000179222 0.000203171 0.000229841 0.000259484 0.000292368 0.000328779 0.000369021 0.000413417 0.000462309 0.000516063 0.00057506 0.000639706 0.000710428 0.000787676 0.000871922 0.00096366 0.00106341 0.00117171 0.00128914 0.00141628 0.00155375 0.00170219 0.00186227 0.00203468 0.00222014 0.00241939 0.0026332 0.00286236 0.0031077 0.00337005 0.00365028 0.0039493 0.00426801 0.00460736 0.00496832 0.00535187 0.00575903 0.00619083 0.00664833 0.00713261 0.00764476 0.00818591 0.00875719 0.00935975 0.00999479 0.0106635 0.011367 0.0121067 0.0128836 0.0136992 0.0145545 0.015451 0.01639 0.0173726 0.0184002 0.0194742 0.0205958 0.0217664 0.0229873 0.0242598 0.0255854 0.0269653 0.0284009 0.0298935 0.0314445 0.0330552 0.0347269 0.0364611 0.0382589 0.0401219 0.0420511 0.0440481 0.046114 0.0482502 0.0504579 0.0527385 0.0550931 0.057523 0.0600295 0.0626138 0.065277 0.0680204 0.0708451 0.0737522 0.076743 0.0798184 0.0829796 0.0862277 0.0895638 0.0929887 0.0965036 0.100109 0.103807 0.107598 0.111482 0.115461 0.119535 0.123706 0.127974 0.132339 0.136804 0.141368 0.146032 0.150796 0.155662 0.160631 0.165701 0.170875 0.176153 0.181535 0.187022 0.192614 0.198311 0.204115 0.210025 0.216041 0.222165 0.228396 0.234734 0.241181 0.247735 0.254398 0.261169 0.268048 0.275036
0 0 0 0 0 0 0 0 0 0 0 0 0 0 0 0 0 0 0 0 0 0 0 0 0 0 0 0 0 0 0 0 0 0 0 0 0 0 0 0 0 0 0 0 0 0 0 6.8536e-298 7.05216e-273 6.59666e-251 1.67514e-231 2.80701e-214 6.42261e-199 3.65612e-185 8.52523e-173 1.23571e-161 1.58172e-151 2.40684e-142 5.60736e-134 2.48358e-126 2.51899e-119 6.87049e-113 5.79262e-107 1.70439e-101 1.94585e-96 9.45953e-92 2.12508e-87 2.37134e-83 1.40119e-79 4.64032e-76 9.05972e-73 1.09096e-69 8.437e-67 4.34517e-64 1.5397e-61 3.86588e-59 7.06291e-57 9.61802e-55 9.97765e-53 8.04303e-51 5.12974e-49 2.6315e-47 1.10222e-45 3.82179e-44 1.11089e-42 2.73843e-41 5.78599e-40 1.05816e-38 1.69018e-37 2.37762e-36 2.96838e-35 3.31249e-34 3.3259e-33 3.02301e-32 2.50157e-31 1.89459e-30 1.31973e-29 8.49384e-29 5.07254e-28 2.82213e-27 1.46816e-26 7.16682e-26 3.29341e-25 1.42907e-24 5.87214e-24 2.29104e-23 8.50862e-23 3.0151e-22 1.02171e-21 3.31774e-21 1.03445e-20 3.10263e-20 8.96746e-20 2.50176e-19 6.74744e-19 1.76193e-18 4.46072e-18 1.09638e-17 2.61938e-17 6.09025e-17 1.37962e-16 3.04814e-16 6.57506e-16 1.38604e-15 2.85794e-15 5.76921e-15 1.14109e-14 2.21313e-14 4.21214e-14 7.87255e-14 1.44591e-13 2.61134e-13 4.64031e-13 8.11803e-13 1.399e-12 2.37619e-12 3.97985e-12 6.57637e-12 1.07261e-11 1.72756e-11 2.74881e-11 4.32268e-11 6.72099e-11 1.03359e-10 1.57273e-10 2.36867e-10 3.53216e-10 5.2168e-10 7.63357e-10 1.10698e-09 1.59133e-09 2.26836e-09 3.20706e-09 4.49834e-09 6.26116e-09 8.64999e-09 1.1864e-08 1.61583e-08 2.18574e-08 2.93716e-08 3.92162e-08 5.20347e-08 6.8626e-08 8.9976e-08 1.17295e-07 1.5206e-07 1.96067e-07 2.51484e-07 3.20919e-07 4.07494e-07 5.14926e-07 6.47624e-07 8.10795e-07 1.01056e-06 1.25408e-06 1.54972e-06 1.90717e-06 2.33768e-06 2.85417e-06 3.47153e-06 4.20677e-06 5.0793e-06 6.11119e-06 7.32745e-06 8.75631e-06 1.04296e-05 1.2383e-05 1.46565e-05 1.72946e-05 2.03472e-05 2.38692e-05 2.79216e-05 3.2572e-05 3.78944e-05 4.39704e-05 5.08893e-05 5.87489e-05 6.76558e-05 7.77259e-05 8.90854e-05 0.000101871 0.00011623 0.000132322 0.000150319 0.000170405 0.000192778 0.000217652 0.000245251 0.00027582 0.000309614 0.000346909 0.000387996 0.000433182 0.000482795 0.00053718 0.0005967 0.000661739 0.000732699 0.000810005 0.000894099 0.000985448 0.00108454 0.00119188 0.00130799 0.00143344 0.00156879 0.00171464 0.00187162 0.00204036 0.00222152 0.00241581 0.00262392 0.00284658 0.00308457 0.00333864 0.00360962 0.0038983 0.00420555 0.00453223 0.00487922 0.00524743 0.00563779 0.00605124 0.00648877 0.00695134 0.00743997 0.00795569 0.00849952 0.00907253 0.00967579 0.0103104 0.0109774 0.011678 0.0124133 0.0131844 0.0139926 0.0148388 0.0157244 0.0166505 0.0176183 0.018629 0.0196838 0.0207839 0.0219306 0.023125 0.0243684 0.025662 0.027007 0.0284047 0.0298563 0.0313631 0.0329261 0.0345467 0.0362261 0.0379655 0.0397661 0.0416291 0.0435556 0.045547 0.0476043 0.0497287 0.0519213 0.0541834 0.056516 0.0589203 0.0613973 0.0639482 0.066574 0.0692759 0.0720547 0.0749116 0.0778476 0.0808637 0.0839608 0.0871399 0.0904019 0.0937478 0.0971784 0.100695 0.104297 0.107987 0.111765 0.115632 0.119589 0.123636 0.127774 0.132004 0.136327 0.140742 0.145251 0.149855 0.154554 0.159348 0.164238 0.169224 0.174308 0.179488 0.184767 0.190144 0.195619 0.201194 0.206867 0.212641 0.218514 0.224487 0.23056
0 0 0 0 0 0 0 0 0 0 0 0 0 0 0 0 0 0 0 0 0 0 0 0 0 0 0 0 0 0 0 0 0 0 0 0 0 0 0 0 0 0 0 0 0 0 0 2.48252e-307 1.56265e-281 7.17538e-259 7.42854e-239 4.33407e-221 3.01687e-205 4.65199e-191 2.65756e-178 8.64829e-167 2.30278e-156 6.81714e-147 2.9129e-138 2.24591e-130 3.78583e-123 1.64668e-116 2.13381e-110 9.33538e-105 1.53825e-99 1.0507e-94 3.23696e-90 4.84563e-86 3.76499e-82 1.60997e-78 3.99179e-75 6.01235e-72 5.73529e-69 3.5971e-66 1.53409e-63 4.5859e-61 9.87588e-59 1.57065e-56 1.8867e-54 1.74714e-52 1.27068e-50 7.38242e-49 3.47976e-47 1.34973e-45 4.36456e-44 1.19071e-42 2.77084e-41 5.55565e-40 9.68768e-39 1.48181e-37 2.00401e-36 2.41396e-35 2.60756e-34 2.54187e-33 2.2492e-32 1.81645e-31 1.34567e-30 9.18797e-30 5.80738e-29 3.41193e-28 1.87045e-27 9.60232e-27 4.63176e-26 2.10581e-25 9.05065e-25 3.68744e-24 1.42785e-23 5.26763e-23 1.85574e-22 6.25642e-22 2.02268e-21 6.28279e-21 1.8784e-20 5.41472e-20 1.50736e-19 4.05855e-19 1.05844e-18 2.67728e-18 6.57683e-18 1.57096e-17 3.65294e-17 8.27805e-17 1.8301e-16 3.95108e-16 8.33792e-16 1.72144e-15 3.48005e-15 6.89437e-15 1.33953e-14 2.55434e-14 4.78385e-14 8.80522e-14 1.59383e-13 2.8389e-13 4.97869e-13 8.60156e-13 1.46476e-12 2.45983e-12 4.07571e-12 6.66592e-12 1.07664e-11 1.71798e-11 2.70943e-11 4.22497e-11 6.5165e-11 9.94504e-11 1.50227e-10 2.24692e-10 3.32855e-10 4.88527e-10 7.10578e-10 1.02458e-09 1.46492e-09 2.0774e-09 2.92267e-09 4.0803e-09 5.65407e-09 7.77824e-09 1.06254e-08 1.4416e-08 1.94297e-08 2.60189e-08 3.46255e-08 4.57998e-08 6.02238e-08 7.87372e-08 1.02369e-07 1.32374e-07 1.70272e-07 2.17899e-07 2.77459e-07 3.51587e-07 4.43418e-07 5.56665e-07 6.9571e-07 8.65698e-07 1.07265e-06 1.32359e-06 1.62664e-06 1.99125e-06 2.42825e-06 2.95011e-06 3.5711e-06 4.30747e-06 5.1777e-06 6.20275e-06 7.40627e-06 8.8149e-06 1.04585e-05 1.23707e-05 1.45887e-05 1.71543e-05 2.01135e-05 2.35176e-05 2.74231e-05 3.18922e-05 3.69935e-05 4.2802e-05 4.93997e-05 5.68764e-05 6.53296e-05 7.48654e-05 8.55989e-05 9.76546e-05 0.000111167 0.000126281 0.000143152 0.000161949 0.00018285 0.000206047 0.000231746 0.000260166 0.000291538 0.00032611 0.000364145 0.00040592 0.00045173 0.000501883 0.000556709 0.00061655 0.00068177 0.000752747 0.000829881 0.000913589 0.00100431 0.00110249 0.00120861 0.00132317 0.00144668 0.00157967 0.00172271 0.00187636 0.00204122 0.0022179 0.00240705 0.00260932 0.00282539 0.00305595 0.00330173 0.00356346 0.00384189 0.00413781 0.00445201 0.0047853 0.00513852 0.00551252 0.00590817 0.00632636 0.00676799 0.00723397 0.00772526 0.00824279 0.00878753 0.00936048 0.00996261 0.0105949 0.0112585 0.0119543 0.0126834 0.0134468 0.0142457 0.015081 0.0159539 0.0168655 0.0178168 0.018809 0.0198431 0.0209203 0.0220417 0.0232083 0.0244214 0.0256821 0.0269914 0.0283505 0.0297605 0.0312225 0.0327377 0.0343071 0.0359319 0.0376132 0.0393521 0.0411496 0.0430069 0.044925 0.046905 0.048948 0.0510549 0.053227 0.0554651 0.0577703 0.0601437 0.0625861 0.0650986 0.0676822 0.0703377 0.0730662 0.0758686 0.0787457 0.0816985 0.0847278 0.0878344 0.0910193 0.0942831 0.0976268 0.101051 0.104557 0.108145 0.111815 0.115569 0.119407 0.123331 0.127339 0.131434 0.135615 0.139884 0.14424 0.148685 0.153219 0.157842 0.162555 0.167358 0.172252 0.177236 0.182313 0.18748 0.19274
0 0 0 0 0 0 0 0 0 0 0 0 0 0 0 0 0 0 0 0 0 0 0 0 0 0 0 0 0 0 0 0 0 0 0 0 0 0 0 0 0 0 0 0 0 0 0 6.42285e-317 2.54227e-290 5.87355e-267 2.53369e-246 5.24741e-228 1.13055e-211 4.79574e-197 6.80603e-184 5.03528e-172 2.82087e-161 1.64152e-151 1.29857e-142 1.75797e-134 4.9639e-127 3.46819e-120 6.95343e-114 4.55123e-108 1.08855e-102 1.05023e-97 4.45883e-93 8.99511e-89 9.22941e-85 5.11624e-81 1.61694e-77 3.05675e-74 3.60842e-71 2.76451e-68 1.42309e-65 5.07858e-63 1.29246e-60 2.40638e-58 3.35473e-56 3.57644e-54 2.97219e-52 1.95944e-50 1.04127e-48 4.52603e-47 1.63086e-45 4.93175e-44 1.26585e-42 2.78663e-41 5.31196e-40 8.84617e-39 1.29757e-37 1.68916e-36 1.96525e-35 2.05681e-34 1.94816e-33 1.67935e-32 1.32439e-31 9.60198e-31 6.42897e-30 3.99207e-29 2.30806e-28 1.24707e-27 6.31885e-27 3.01226e-26 1.3551e-25 5.76922e-25 2.33072e-24 8.9574e-24 3.28263e-23 1.14968e-22 3.85618e-22 1.24114e-21 3.84045e-21 1.14446e-20 3.29005e-20 9.13833e-20 2.45607e-19 6.3964e-19 1.61633e-18 3.96799e-18 9.47497e-18 2.20316e-17 4.9939e-17 1.1046e-16 2.38653e-16 5.04108e-16 1.04197e-15 2.10925e-15 4.18493e-15 8.14446e-15 1.55584e-14 2.91943e-14 5.38448e-14 9.76735e-14 1.74364e-13 3.065e-13 5.30808e-13 9.06159e-13 1.52562e-12 2.5344e-12 4.15609e-12 6.73082e-12 1.07698e-11 1.70324e-11 2.66343e-11 4.1197e-11 6.30524e-11 9.55207e-11 1.43283e-10 2.12877e-10 3.13352e-10 4.5712e-10 6.61063e-10 9.47953e-10 1.34826e-09 1.90244e-09 2.66379e-09 3.70207e-09 5.10784e-09 6.99796e-09 9.52217e-09 1.28711e-08 1.72861e-08 2.30704e-08 3.06033e-08 4.03563e-08 5.29122e-08 6.89874e-08 8.94585e-08 1.15392e-07 1.48078e-07 1.89073e-07 2.40244e-07 3.03816e-07 3.8244e-07 4.79247e-07 5.97932e-07 7.4283e-07 9.19007e-07 1.13237e-06 1.38975e-06 1.69908e-06 2.06947e-06 2.51139e-06 3.03679e-06 3.65934e-06 4.39454e-06 5.25996e-06 6.27545e-06 7.46335e-06 8.84877e-06 1.04598e-05 1.23278e-05 1.44877e-05 1.69783e-05 1.98425e-05 2.31279e-05 2.68868e-05 3.11768e-05 3.60608e-05 4.16082e-05 4.78942e-05 5.50012e-05 6.30186e-05 7.20433e-05 8.21805e-05 9.35436e-05 0.000106255 0.000120447 0.000136261 0.000153849 0.000173373 0.000195008 0.000218939 0.000245364 0.000274493 0.000306549 0.000341769 0.000380403 0.000422716 0.000468987 0.000519511 0.000574597 0.000634571 0.000699774 0.000770564 0.000847317 0.000930423 0.00102029 0.00111735 0.00122204 0.00133482 0.00145618 0.00158661 0.00172662 0.00187676 0.00203758 0.00220963 0.00239353 0.00258986 0.00279927 0.00302238 0.00325987 0.00351241 0.00378071 0.00406547 0.00436742 0.00468732 0.00502594 0.00538405 0.00576245 0.00616195 0.00658339 0.0070276 0.00749545 0.0079878 0.00850555 0.00904958 0.00962081 0.0102202 0.0108486 0.011507 0.0121963 0.0129176 0.0136717 0.0144597 0.0152826 0.0161413 0.0170369 0.0179703 0.0189426 0.0199548 0.0210079 0.0221029 0.0232408 0.0244227 0.0256497 0.0269226 0.0282426 0.0296107 0.0310279 0.0324953 0.0340137 0.0355843 0.0372081 0.038886 0.0406192 0.0424084 0.0442548 0.0461593 0.0481229 0.0501465 0.0522312 0.0543777 0.0565871 0.0588603 0.0611982 0.0636016 0.0660715 0.0686087 0.0712141 0.0738885 0.0766327 0.0794476 0.082334 0.0852925 0.0883241 0.0914294 0.0946091 0.097864 0.101195 0.104602 0.108087 0.111649 0.11529 0.11901 0.12281 0.126689 0.13065 0.134692 0.138816 0.143022 0.14731 0.151682 0.156138 0.160678
0 0 0 0 0 0 0 0 0 0 0 0 0 0 0 0 0 0 0 0 0 0 0 0 0 0 0 0 0 0 0 0 0 0 0 0 0 0 0 0 0 0 0 0 0 0 0 0 3.03671e-299 3.6182e-275 6.6466e-254 4.98187e-235 3.37997e-218 4.00564e-203 1.43198e-189 2.4389e-177 2.90753e-166 3.36034e-156 4.96802e-147 1.19108e-138 5.67823e-131 6.41898e-124 2.0045e-117 1.97497e-111 6.89564e-106 9.44683e-101 5.55426e-96 1.51692e-91 2.06409e-87 1.48919e-83 6.02136e-80 1.43369e-76 2.10122e-73 1.97244e-70 1.22908e-67 5.25051e-65 1.5831e-62 3.45896e-60 5.60913e-58 6.89906e-56 6.56472e-54 4.92045e-52 2.95331e-50 1.44103e-48 5.79559e-47 1.94574e-45 5.51687e-44 1.3353e-42 2.78637e-41 5.0586e-40 8.05775e-39 1.13495e-37 1.42383e-36 1.60164e-35 1.62555e-34 1.49718e-33 1.25813e-32 9.69452e-32 6.88193e-31 4.52032e-30 2.75849e-29 1.56991e-28 8.36225e-28 4.18283e-27 1.97094e-26 8.77425e-26 3.70064e-25 1.48252e-24 5.65512e-24 2.05871e-23 7.16801e-23 2.39188e-22 7.66392e-22 2.36223e-21 7.0161e-21 2.0113e-20 5.57353e-20 1.49515e-19 3.8881e-19 9.81415e-19 2.4075e-18 5.74626e-18 1.33596e-17 3.02864e-17 6.70166e-17 1.44881e-16 3.06288e-16 6.33739e-16 1.28443e-15 2.55192e-15 4.97401e-15 9.51778e-15 1.78916e-14 3.30619e-14 6.00953e-14 1.07508e-13 1.89399e-13 3.28762e-13 5.6257e-13 9.49461e-13 1.5812e-12 2.59959e-12 4.22102e-12 6.77179e-12 1.07383e-11 1.68376e-11 2.61154e-11 4.00808e-11 6.08898e-11 9.15932e-11 1.36466e-10 2.01448e-10 2.94712e-10 4.27416e-10 6.14664e-10 8.76735e-10 1.24065e-09 1.74215e-09 2.42813e-09 3.35974e-09 4.61613e-09 6.2991e-09 8.53869e-09 1.15e-08 1.53915e-08 2.04744e-08 2.70749e-08 3.55974e-08 4.65407e-08 6.05171e-08 7.8274e-08 1.0072e-07 1.28952e-07 1.64291e-07 2.0832e-07 2.62925e-07 3.30347e-07 4.13234e-07 5.14706e-07 6.38418e-07 7.88645e-07 9.70359e-07 1.18933e-06 1.45221e-06 1.76667e-06 2.14152e-06 2.58682e-06 3.11404e-06 3.73621e-06 4.4681e-06 5.32639e-06 6.32985e-06 7.49957e-06 8.85916e-06 1.0435e-05 1.22564e-05 1.4356e-05 1.677e-05 1.95382e-05 2.27048e-05 2.63182e-05 3.04315e-05 3.5103e-05 4.03962e-05 4.63805e-05 5.31314e-05 6.07307e-05 6.92672e-05 7.88369e-05 8.95434e-05 0.000101498 0.000114821 0.000129642 0.000146097 0.000164335 0.000184513 0.0002068 0.000231374 0.000258425 0.000288155 0.000320777 0.000356518 0.000395615 0.000438322 0.000484902 0.000535634 0.000590812 0.000650743 0.000715748 0.000786164 0.000862344 0.000944653 0.00103348 0.00112921 0.00123227 0.00134309 0.00146212 0.00158981 0.00172664 0.00187312 0.00202976 0.00219708 0.00237563 0.00256597 0.00276868 0.00298436 0.00321361 0.00345707 0.00371537 0.00398917 0.00427915 0.00458599 0.0049104 0.0052531 0.00561482 0.0059963 0.0063983 0.00682161 0.007267 0.00773527 0.00822724 0.00874372 0.00928556 0.00985358 0.0104487 0.0110716 0.0117234 0.0124048 0.0131168 0.0138603 0.014636 0.0154451 0.0162883 0.0171667 0.018081 0.0190323 0.0200215 0.0210496 0.0221174 0.0232259 0.024376 0.0255687 0.0268049 0.0280856 0.0294117 0.0307842 0.0322039 0.0336718 0.0351888 0.0367558 0.0383739 0.0400438 0.0417665 0.0435428 0.0453737 0.0472601 0.0492028 0.0512027 0.0532607 0.0553775 0.0575541 0.0597913 0.0620898 0.0644505 0.0668742 0.0693617 0.0719137 0.0745309 0.0772142 0.0799642 0.0827817 0.0856673 0.0886218 0.0916458 0.09474 0.0979049 0.101141 0.10445 0.107831 0.111285 0.114813 0.118415 0.122092 0.125844 0.129673 0.133577
0 0 0 0 0 0 0 0 0 0 0 0 0 0 0 0 0 0 0 0 0 0 0 0 0 0 0 0 0 0 0 0 0 0 0 0 0 0 0 0 0 0 0 0 0 0 0 0 2.66323e-308 1.67733e-283 1.34105e-261 3.70883e-242 8.06165e-225 2.71073e-209 2.4752e-195 9.82747e-183 2.52159e-171 5.84803e-161 1.63107e-151 6.98515e-143 5.6667e-135 1.044e-127 5.11186e-121 7.62831e-115 3.91027e-109 7.64685e-104 6.25682e-99 2.32391e-94 4.2114e-90 3.9702e-86 2.06143e-82 6.20343e-79 1.13245e-75 1.3065e-72 9.88323e-70 5.06762e-67 1.81488e-64 4.66468e-62 8.81891e-60 1.25414e-57 1.36917e-55 1.169e-53 7.93942e-52 4.35632e-50 1.95878e-48 7.31232e-47 2.29372e-45 6.11279e-44 1.39821e-42 2.77088e-41 4.79896e-40 7.32233e-39 9.91644e-38 1.20023e-36 1.30664e-35 1.28712e-34 1.15361e-33 9.45622e-33 7.12337e-32 4.95352e-31 3.19319e-30 1.91568e-29 1.0735e-28 5.63838e-28 2.78473e-27 1.29719e-26 5.7154e-26 2.38822e-25 9.48803e-25 3.59236e-24 1.29912e-23 4.49679e-23 1.49277e-22 4.76142e-22 1.46183e-21 4.32715e-21 1.2369e-20 3.41933e-20 9.15461e-20 2.3769e-19 5.99248e-19 1.46875e-18 3.50377e-18 8.14399e-18 1.8463e-17 4.08656e-17 8.83911e-17 1.86999e-16 3.87273e-16 7.85766e-16 1.56315e-15 3.05108e-15 5.84735e-15 1.10105e-14 2.0383e-14 3.71203e-14 6.65407e-14 1.17473e-13 2.04357e-13 3.50483e-13 5.92898e-13 9.89761e-13 1.63121e-12 2.65526e-12 4.2707e-12 6.78975e-12 1.06742e-11 1.65998e-11 2.5545e-11 3.89125e-11 5.86935e-11 8.76885e-11 1.298e-10 1.9042e-10 2.76931e-10 3.99363e-10 5.71227e-10 8.10592e-10 1.14143e-09 1.59532e-09 2.21356e-09 3.04982e-09 4.17331e-09 5.67278e-09 7.66131e-09 1.02821e-08 1.37152e-08 1.81863e-08 2.3976e-08 3.14316e-08 4.09809e-08 5.31478e-08 6.85706e-08 8.80239e-08 1.12443e-07 1.4295e-07 1.8089e-07 2.27863e-07 2.85768e-07 3.56846e-07 4.43737e-07 5.4953e-07 6.77835e-07 8.32848e-07 1.01943e-06 1.24321e-06 1.51063e-06 1.82912e-06 2.20715e-06 2.65437e-06 3.18176e-06 3.80175e-06 4.52837e-06 5.37742e-06 6.36665e-06 7.51592e-06 8.84742e-06 1.03859e-05 1.21587e-05 1.41965e-05 1.65327e-05 1.92045e-05 2.22527e-05 2.57222e-05 2.96621e-05 3.4126e-05 3.91725e-05 4.48654e-05 5.12738e-05 5.84728e-05 6.65436e-05 7.55739e-05 8.56583e-05 9.68984e-05 0.000109403 0.000123291 0.000138685 0.000155722 0.000174542 0.000195299 0.000218155 0.000243282 0.000270861 0.000301085 0.00033416 0.000370299 0.00040973 0.000452693 0.000499437 0.000550227 0.00060534 0.000665065 0.000729706 0.000799577 0.000875011 0.000956351 0.00104396 0.0011382 0.00123946 0.00134815 0.00146469 0.00158949 0.00172302 0.00186572 0.00201808 0.00218059 0.00235374 0.00253807 0.00273409 0.00294238 0.00316347 0.00339797 0.00364645 0.00390952 0.00418781 0.00448194 0.00479257 0.00512035 0.00546596 0.00583008 0.00621341 0.00661666 0.00704055 0.00748582 0.0079532 0.00844345 0.00895733 0.00949562 0.0100591 0.0106486 0.0112648 0.0119086 0.0125808 0.0132823 0.0140138 0.0147762 0.0155702 0.0163969 0.017257 0.0181513 0.0190808 0.0200462 0.0210484 0.0220884 0.0231669 0.0242848 0.025443 0.0266424 0.0278837 0.0291679 0.0304959 0.0318684 0.0332863 0.0347505 0.0362618 0.0378211 0.0394291 0.0410868 0.0427949 0.0445542 0.0463656 0.0482299 0.0501478 0.0521202 0.0541477 0.0562313 0.0583716 0.0605693 0.0628253 0.0651402 0.0675148 0.0699497 0.0724456 0.0750033 0.0776234 0.0803065 0.0830533 0.0858644 0.0887405 0.0916821 0.0946897 0.0977641 0.100906 0.104115 0.107393 0.110739
0 0 0 0 0 0 0 0 0 0 0 0 0 0 0 0 0 0 0 0 0 0 0 0 0 0 0 0 0 0 0 0 0 0 0 0 0 0 0 0 0 0 0 0 0 0 0 0 1.4822e-317 5.85167e-292 2.08107e-269 2.16511e-249 1.534e-231 1.48628e-215 3.51494e-201 3.29434e-188 1.84007e-176 8.65221e-166 4.59557e-156 3.54583e-147 4.93373e-139 1.49211e-131 1.15323e-124 2.62259e-118 1.98493e-112 5.57025e-107 6.37386e-102 3.23427e-97 7.83914e-93 9.69483e-89 6.48808e-85 2.47622e-81 5.64883e-78 8.03405e-75 7.39918e-72 4.56613e-69 1.94733e-66 5.9019e-64 1.30382e-61 2.1484e-59 2.69647e-57 2.62762e-55 2.02303e-53 1.25041e-51 6.2962e-50 2.61767e-48 9.09763e-47 2.67336e-45 6.71201e-44 1.45384e-42 2.74114e-41 4.53614e-40 6.63914e-39 8.6555e-38 1.01179e-36 1.06703e-35 1.02099e-34 8.91114e-34 7.12965e-33 5.25331e-32 3.58017e-31 2.26587e-30 1.33681e-29 7.37811e-29 3.82211e-28 1.86422e-27 8.58615e-27 3.74455e-26 1.55033e-25 6.10846e-25 2.2957e-24 8.24732e-24 2.838e-23 9.37232e-23 2.97583e-22 9.09998e-22 2.68442e-21 7.65077e-21 2.10978e-20 5.63698e-20 1.46116e-19 3.67905e-19 9.00878e-19 2.14772e-18 4.99033e-18 1.13126e-17 2.50433e-17 5.41895e-17 1.14713e-16 2.37761e-16 4.82886e-16 9.61727e-16 1.87964e-15 3.60752e-15 6.80361e-15 1.26165e-14 2.3018e-14 4.13401e-14 7.31288e-14 1.27481e-13 2.19109e-13 3.71486e-13 6.21566e-13 1.02681e-12 1.67544e-12 2.70136e-12 4.30546e-12 6.78578e-12 1.05798e-11 1.63233e-11 2.49302e-11 3.77026e-11 5.64779e-11 8.38249e-11 1.23304e-10 1.79807e-10 2.60003e-10 3.72904e-10 5.30603e-10 7.492e-10 1.04997e-09 1.46084e-09 2.01819e-09 2.76915e-09 3.77431e-09 5.11113e-09 6.87801e-09 9.19921e-09 1.22308e-08 1.61674e-08 2.12512e-08 2.77807e-08 3.61232e-08 4.67276e-08 6.014e-08 7.70221e-08 9.8171e-08 1.24544e-07 1.57283e-07 1.97749e-07 2.47554e-07 3.08598e-07 3.83116e-07 4.73725e-07 5.83477e-07 7.1592e-07 8.75164e-07 1.06595e-06 1.29373e-06 1.56477e-06 1.8862e-06 2.26618e-06 2.71395e-06 3.23999e-06 3.85612e-06 4.57567e-06 5.41359e-06 6.38661e-06 7.51346e-06 8.81495e-06 1.03142e-05 1.2037e-05 1.40116e-05 1.62694e-05 1.88448e-05 2.17757e-05 2.51035e-05 2.88736e-05 3.31355e-05 3.79431e-05 4.33549e-05 4.94346e-05 5.62508e-05 6.38778e-05 7.2396e-05 8.18915e-05 9.24571e-05 0.000104192 0.000117204 0.000131605 0.000147519 0.000165074 0.000184408 0.000205669 0.000229012 0.000254602 0.000282613 0.000313229 0.000346646 0.000383068 0.00042271 0.000465799 0.000512573 0.00056328 0.000618183 0.000677554 0.000741678 0.000810851 0.000885384 0.0009656 0.00105183 0.00114443 0.00124376 0.00135018 0.0014641 0.0015859 0.00171601 0.00185485 0.00200287 0.0021605 0.00232824 0.00250655 0.00269593 0.00289688 0.00310994 0.00333562 0.00357448 0.00382707 0.00409398 0.00437577 0.00467304 0.00498641 0.00531649 0.0056639 0.0060293 0.00641334 0.00681666 0.00723996 0.0076839 0.00814919 0.00863651 0.00914658 0.00968013 0.0102379 0.0108205 0.0114288 0.0120636 0.0127255 0.0134153 0.0141338 0.0148817 0.0156599 0.0164691 0.0173101 0.0181836 0.0190905 0.0200315 0.0210075 0.0220191 0.0230673 0.0241528 0.0252764 0.0264389 0.027641 0.0288836 0.0301675 0.0314934 0.0328621 0.0342743 0.035731 0.0372328 0.0387804 0.0403747 0.0420164 0.0437063 0.045445 0.0472334 0.0490721 0.0509618 0.0529034 0.0548974 0.0569445 0.0590455 0.0612011 0.0634118 0.0656784 0.0680014 0.0703816 0.0728195 0.0753157 0.0778709 0.0804857 0.0831605 0.0858961 0.0886928 0.0915514
0 0 0 0 0 0 0 0 0 0 0 0 0 0 0 0 0 0 0 0 0 0 0 0 0 0 0 0 0 0 0 0 0 0 0 0 0 0 0 0 0 0 0 0 0 0 0 0 0 1.5363e-300 2.48386e-277 9.91105e-257 2.32871e-238 6.60256e-222 4.10069e-207 9.18696e-194 1.12981e-181 1.08827e-170 1.11117e-160 1.558e-151 3.74756e-143 1.87402e-135 2.30152e-128 8.02543e-122 9.01964e-116 3.65142e-110 5.87184e-105 4.08915e-100 1.33123e-95 2.16837e-91 1.87732e-87 9.11855e-84 2.60791e-80 4.58649e-77 5.15746e-74 3.84092e-71 1.95559e-68 7.00577e-66 1.81259e-63 3.46818e-61 5.01459e-59 5.5879e-57 4.88593e-55 3.40781e-53 1.92476e-51 8.92613e-50 3.44234e-48 1.11695e-46 3.08235e-45 7.30682e-44 1.50164e-42 2.6983e-41 4.27293e-40 6.00688e-39 7.54759e-38 8.52992e-37 8.72184e-36 8.11287e-35 6.90014e-34 5.3917e-33 3.88785e-32 2.59786e-31 1.61485e-30 9.37222e-30 5.09603e-29 2.60431e-28 1.25468e-27 5.7145e-27 2.46711e-26 1.01216e-25 3.95539e-25 1.4756e-24 5.26628e-24 1.80157e-23 5.9187e-23 1.87066e-22 5.69747e-22 1.67485e-21 4.75916e-21 1.30905e-20 3.49015e-20 9.03119e-20 2.27083e-19 5.55477e-19 1.32331e-18 3.07342e-18 6.96591e-18 1.54219e-17 3.33804e-17 7.06983e-17 1.46637e-16 2.98078e-16 5.94282e-16 1.16288e-15 2.23488e-15 4.22109e-15 7.84001e-15 1.43279e-14 2.57793e-14 4.56891e-14 7.98052e-14 1.37449e-13 2.33532e-13 3.91603e-13 6.48375e-13 1.0604e-12 1.71374e-12 2.73794e-12 4.32577e-12 6.76109e-12 1.04576e-11 1.60121e-11 2.42776e-11 3.64612e-11 5.42564e-11 8.0018e-11 1.16992e-10 1.69617e-10 2.43913e-10 3.47981e-10 4.92644e-10 6.92251e-10 9.65694e-10 1.33768e-09 1.84028e-09 2.51491e-09 3.41466e-09 4.60718e-09 6.1782e-09 8.23569e-09 1.09149e-08 1.43843e-08 1.88526e-08 2.45771e-08 3.18734e-08 4.11269e-08 5.28052e-08 6.74744e-08 8.58153e-08 1.08644e-07 1.36935e-07 1.71844e-07 2.14743e-07 2.67245e-07 3.31246e-07 4.08966e-07 5.0299e-07 6.16322e-07 7.52438e-07 9.1535e-07 1.10967e-06 1.34068e-06 1.61442e-06 1.93776e-06 2.31853e-06 2.76555e-06 3.28881e-06 3.89956e-06 4.61041e-06 5.43549e-06 6.39059e-06 7.49331e-06 8.76318e-06 1.02219e-05 1.18934e-05 1.38041e-05 1.59832e-05 1.84627e-05 2.12776e-05 2.44663e-05 2.80707e-05 3.21365e-05 3.67131e-05 4.18545e-05 4.7619e-05 5.40696e-05 6.12744e-05 6.93066e-05 7.82451e-05 8.81745e-05 9.91855e-05 0.000111375 0.000124847 0.000139712 0.000156087 0.000174099 0.000193879 0.000215569 0.000239319 0.000265285 0.000293635 0.000324544 0.000358198 0.000394792 0.000434528 0.000477623 0.000524301 0.000574797 0.000629357 0.000688238 0.000751708 0.000820045 0.00089354 0.000972496 0.00105722 0.00114805 0.00124531 0.00134936 0.00146055 0.00157926 0.00170588 0.00184079 0.00198441 0.00213716 0.00229948 0.0024718 0.00265459 0.00284832 0.00305346 0.0032705 0.00349996 0.00374234 0.00399818 0.004268 0.00455236 0.00485182 0.00516694 0.00549831 0.00584651 0.00621215 0.00659582 0.00699816 0.00741977 0.00786131 0.00832341 0.00880672 0.0093119 0.00983961 0.0103905 0.0109653 0.0115647 0.0121894 0.01284 0.0135172 0.0142218 0.0149545 0.015716 0.016507 0.0173282 0.0181803 0.0190641 0.0199803 0.0209296 0.0219127 0.0229304 0.0239834 0.0250724 0.0261982 0.0273614 0.0285629 0.0298032 0.0310832 0.0324035 0.0337649 0.0351681 0.0366137 0.0381026 0.0396352 0.0412125 0.0428349 0.0445033 0.0462183 0.0479806 0.0497907 0.0516494 0.0535573 0.0555151 0.0575233 0.0595826 0.0616936 0.063857 0.0660731 0.0683428 0.0706665 0.0730448 0.0754783
0 0 0 0 0 0 0 0 0 0 0 0 0 0 0 0 0 0 0 0 0 0 0 0 0 0 0 0 0 0 0 0 0 0 0 0 0 0 0 0 0 0 0 0 0 0 0 0 0 3.03535e-309 2.28015e-285 3.5576e-264 2.82029e-245 2.37642e-228 3.93032e-213 2.13134e-199 5.83691e-187 1.16368e-175 2.30566e-165 5.92549e-156 2.48341e-147 2.06832e-139 4.0633e-132 2.18595e-125 3.66893e-119 2.154e-113 4.89178e-108 4.69667e-103 2.06245e-98 4.44211e-94 4.99382e-90 3.09773e-86 1.11435e-82 2.43078e-79 3.347e-76 3.01623e-73 1.83809e-70 7.80216e-68 2.36954e-65 5.27598e-63 8.80593e-61 1.12427e-58 1.11847e-56 8.81829e-55 5.59606e-53 2.89934e-51 1.24256e-49 4.45826e-48 1.35413e-46 3.51765e-45 7.88953e-44 1.5412e-42 2.64361e-41 4.01176e-40 5.42381e-39 6.57547e-38 7.19157e-37 7.13576e-36 6.45735e-35 5.35541e-34 4.08924e-33 2.88709e-32 1.89228e-31 1.1557e-30 6.60039e-30 3.53661e-29 1.78339e-28 8.48809e-28 3.82355e-27 1.63432e-26 6.6447e-26 2.57557e-25 9.53831e-25 3.38184e-24 1.15015e-23 3.75891e-23 1.18257e-22 3.5872e-22 1.05079e-21 2.97677e-21 8.16662e-21 2.17259e-20 5.61169e-20 1.40898e-19 3.44269e-19 8.1948e-19 1.90225e-18 4.31031e-18 9.5424e-18 2.06585e-17 4.37717e-17 9.08426e-17 1.84806e-16 3.688e-16 7.22457e-16 1.39017e-15 2.62927e-15 4.89075e-15 8.95239e-15 1.61349e-14 2.86477e-14 5.01333e-14 8.65145e-14 1.47292e-13 2.47509e-13 4.10687e-13 6.73155e-13 1.09038e-12 1.74606e-12 2.76515e-12 4.33221e-12 6.717e-12 1.03099e-11 1.56706e-11 2.35937e-11 3.51973e-11 5.20409e-11 7.62814e-11 1.10877e-10 1.59853e-10 2.28645e-10 3.24533e-10 4.57204e-10 6.39452e-10 8.88059e-10 1.22489e-09 1.67825e-09 2.28454e-09 3.09032e-09 4.15474e-09 5.55256e-09 7.37768e-09 9.74745e-09 1.28077e-08 1.67389e-08 2.17628e-08 2.81511e-08 3.62348e-08 4.64153e-08 5.91772e-08 7.51029e-08 9.48897e-08 1.19368e-07 1.49525e-07 1.86527e-07 2.31745e-07 2.86793e-07 3.53554e-07 4.34221e-07 5.31342e-07 6.47863e-07 7.87181e-07 9.53201e-07 1.15039e-06 1.38387e-06 1.65944e-06 1.98371e-06 2.36416e-06 2.80923e-06 3.3284e-06 3.93236e-06 4.63305e-06 5.4438e-06 6.37949e-06 7.45663e-06 8.69356e-06 1.01105e-05 1.17299e-05 1.35764e-05 1.5677e-05 1.80615e-05 2.07622e-05 2.38148e-05 2.72579e-05 3.11335e-05 3.54873e-05 4.03689e-05 4.58317e-05 5.19336e-05 5.87368e-05 6.63084e-05 7.47205e-05 8.40502e-05 9.43802e-05 0.000105799 0.000118401 0.000132286 0.000147563 0.000164343 0.000182749 0.000202907 0.000224953 0.000249031 0.00027529 0.00030389 0.000334998 0.00036879 0.000405451 0.000445174 0.000488163 0.000534629 0.000584794 0.000638891 0.000697159 0.000759852 0.00082723 0.000899566 0.000977143 0.00106025 0.0011492 0.00124429 0.00134587 0.00145425 0.0015698 0.00169286 0.0018238 0.00196302 0.00211088 0.0022678 0.0024342 0.00261048 0.00279708 0.00299446 0.00320306 0.00342334 0.0036558 0.00390089 0.00415914 0.00443103 0.00471708 0.00501782 0.00533378 0.0056655 0.00601354 0.00637844 0.00676079 0.00716115 0.00758011 0.00801825 0.00847618 0.0089545 0.00945383 0.00997477 0.0105179 0.011084 0.0116736 0.0122872 0.0129257 0.0135896 0.0142796 0.0149964 0.0157405 0.0165127 0.0173136 0.0181438 0.0190042 0.0198952 0.0208176 0.0217721 0.0227593 0.0237799 0.0248346 0.0259239 0.0270487 0.0282095 0.0294071 0.030642 0.0319149 0.0332266 0.0345775 0.0359685 0.0374 0.0388729 0.0403876 0.0419449 0.0435452 0.0451894 0.0468779 0.0486114 0.0503905 0.0522157 0.0540877 0.056007 0.0579741 0.0599898 0.0620544
0 0 0 0 0 0 0 0 0 0 0 0 0 0 0 0 0 0 0 0 0 0 0 0 0 0 0 0 0 0 0 0 0 0 0 0 0 0 0 0 0 0 0 0 0 0 0 0 0 4.94066e-318 1.6099e-293 1.00137e-271 2.72497e-252 6.93e-235 3.09479e-219 4.11351e-205 2.5373e-192 1.05785e-180 4.10567e-170 1.95069e-160 1.43574e-151 2.00601e-143 6.34611e-136 5.29966e-129 1.33596e-122 1.14347e-116 3.68537e-111 4.90057e-106 2.91511e-101 8.3351e-97 1.22124e-92 9.70825e-89 4.40697e-85 1.196e-81 2.02229e-78 2.21124e-75 1.61698e-72 8.15208e-70 2.91279e-67 7.56346e-65 1.46021e-62 2.1401e-60 2.42682e-58 2.16662e-56 1.54736e-54 8.97067e-53 4.27879e-51 1.70003e-49 5.69099e-48 1.62214e-46 3.97546e-45 8.45264e-44 1.57227e-42 2.5784e-41 3.75475e-40 4.88789e-39 5.72357e-38 6.06361e-37 5.8433e-36 5.14795e-35 4.16583e-34 3.11008e-33 2.15096e-32 1.38343e-31 8.30455e-31 4.66857e-30 2.46572e-29 1.22714e-28 5.77112e-28 2.57153e-27 1.08836e-26 4.38556e-26 1.68622e-25 6.19938e-25 2.18367e-24 7.3832e-24 2.40042e-23 7.51697e-23 2.27091e-22 6.62842e-22 1.87194e-21 5.12193e-21 1.35954e-20 3.50503e-20 8.78699e-20 2.14443e-19 5.09992e-19 1.18311e-18 2.67985e-18 5.93211e-18 1.28439e-17 2.72225e-17 5.65256e-17 1.15072e-16 2.29833e-16 4.50682e-16 8.6821e-16 1.64417e-15 3.06261e-15 5.61448e-15 1.01353e-14 1.8026e-14 3.1602e-14 5.46373e-14 9.32018e-14 1.56931e-13 2.60933e-13 4.28606e-13 6.9577e-13 1.11664e-12 1.77239e-12 2.78324e-12 4.32545e-12 6.65488e-12 1.01394e-11 1.53028e-11 2.28846e-11 3.39192e-11 4.98418e-11 7.26267e-11 1.04969e-10 1.50517e-10 2.14178e-10 3.02495e-10 4.24141e-10 5.90526e-10 8.1656e-10 1.12161e-09 1.53066e-09 2.07574e-09 2.79771e-09 3.74834e-09 4.99285e-09 6.61302e-09 8.71079e-09 1.14126e-08 1.48744e-08 1.92879e-08 2.4887e-08 3.19566e-08 4.08414e-08 5.19571e-08 6.58026e-08 8.29742e-08 1.04182e-07 1.30267e-07 1.62225e-07 2.01224e-07 2.48636e-07 3.06063e-07 3.75369e-07 4.58717e-07 5.58607e-07 6.77922e-07 8.1997e-07 9.88542e-07 1.18797e-06 1.42317e-06 1.69974e-06 2.02401e-06 2.40312e-06 2.8451e-06 3.359e-06 3.95491e-06 4.64413e-06 5.43924e-06 6.35423e-06 7.40461e-06 8.60754e-06 9.98197e-06 1.15488e-05 1.33309e-05 1.53535e-05 1.76441e-05 2.02329e-05 2.31526e-05 2.6439e-05 3.01307e-05 3.427e-05 3.89023e-05 4.40767e-05 4.98462e-05 5.6268e-05 6.34034e-05 7.13181e-05 8.00828e-05 8.97728e-05 0.000100469 0.000112256 0.000125227 0.000139479 0.000155115 0.000172243 0.000190982 0.000211452 0.000233783 0.000258113 0.000284585 0.00031335 0.000344567 0.000378404 0.000415036 0.000454645 0.000497423 0.000543571 0.000593298 0.000646821 0.000704368 0.000766175 0.000832486 0.000903557 0.000979652 0.00106105 0.00114802 0.00124087 0.00133989 0.00144541 0.00155774 0.00167721 0.00180417 0.00193897 0.00208197 0.00223354 0.00239407 0.00256394 0.00274357 0.00293334 0.0031337 0.00334506 0.00356787 0.00380257 0.00404962 0.00430948 0.00458263 0.00486955 0.00517073 0.00548668 0.00581789 0.00616488 0.00652818 0.00690831 0.00730581 0.00772122 0.00815509 0.00860798 0.00908045 0.00957306 0.0100864 0.010621 0.0111775 0.0117565 0.0123585 0.0129842 0.0136341 0.0143089 0.0150091 0.0157354 0.0164883 0.0172685 0.0180767 0.0189133 0.019779 0.0206745 0.0216004 0.0225572 0.0235456 0.0245662 0.0256196 0.0267064 0.0278273 0.0289828 0.0301735 0.0314001 0.0326632 0.0339633 0.035301 0.036677 0.0380918 0.039546 0.0410402 0.042575 0.0441508 0.0457683 0.0474281 0.0491306 0.0508765
0 0 0 0 0 0 0 0 0 0 0 0 0 0 0 0 0 0 0 0 0 0 0 0 0 0 0 0 0 0 0 0 0 0 0 0 0 0 0 0 0 0 0 0 0 0 0 0 0 0 8.74245e-302 2.21017e-279 2.10048e-259 1.63735e-241 2.00201e-225 6.60464e-211 9.28049e-198 8.17531e-186 6.27405e-175 5.55852e-165 7.24157e-156 1.70968e-147 8.76798e-140 1.14364e-132 4.35467e-126 5.46258e-120 2.51084e-114 4.6452e-109 3.759e-104 1.43251e-99 2.74564e-95 2.80685e-91 1.61307e-87 5.46309e-84 1.13762e-80 1.51338e-77 1.33135e-74 7.99128e-72 3.36696e-69 1.02177e-66 2.28641e-64 3.85419e-62 4.99094e-60 5.05438e-58 4.0692e-56 2.64386e-54 1.4056e-52 6.19306e-51 2.28804e-49 7.16537e-48 1.92121e-46 4.45135e-45 8.98904e-44 1.59475e-42 2.50402e-41 3.50371e-40 4.3968e-39 4.97792e-38 5.11292e-37 4.78905e-36 4.11043e-35 3.2475e-34 2.37176e-33 1.60758e-32 1.01501e-31 5.99074e-31 3.31605e-30 1.72676e-29 8.48335e-29 3.94287e-28 1.73812e-27 7.28489e-27 2.90958e-26 1.10978e-25 4.0507e-25 1.41756e-24 4.76498e-24 1.54112e-23 4.80371e-23 1.44528e-22 4.20335e-22 1.18335e-21 3.22906e-21 8.55125e-21 2.20033e-20 5.50736e-20 1.34234e-19 3.18926e-19 7.39346e-19 1.67394e-18 3.70469e-18 8.02136e-18 1.7005e-17 3.53244e-17 7.19545e-17 1.43824e-16 2.82282e-16 5.4437e-16 1.03212e-15 1.92504e-15 3.53405e-15 6.38939e-15 1.13821e-14 1.99883e-14 3.46198e-14 5.9165e-14 9.98127e-14 1.6629e-13 2.73706e-13 4.45247e-13 7.1611e-13 1.13913e-12 1.79279e-12 2.79249e-12 4.30622e-12 6.57617e-12 9.94834e-12 1.49125e-11 2.21558e-11 3.26346e-11 4.76683e-11 6.90634e-11 9.92734e-11 1.41606e-10 2.00489e-10 2.81806e-10 3.93319e-10 5.45209e-10 7.50731e-10 1.02704e-09 1.39621e-09 1.88645e-09 2.53362e-09 3.38308e-09 4.4918e-09 5.93106e-09 7.78949e-09 1.01768e-08 1.32281e-08 1.71089e-08 2.20213e-08 2.82106e-08 3.59732e-08 4.56662e-08 5.77174e-08 7.26376e-08 9.10343e-08 1.13627e-07 1.41264e-07 1.74943e-07 2.15833e-07 2.65298e-07 3.24925e-07 3.96552e-07 4.82306e-07 5.84632e-07 7.06342e-07 8.50653e-07 1.02124e-06 1.22227e-06 1.45849e-06 1.73527e-06 2.05866e-06 2.43547e-06 2.87336e-06 3.38089e-06 3.96762e-06 4.64423e-06 5.42257e-06 6.31578e-06 7.33842e-06 8.50655e-06 9.83787e-06 1.13519e-05 1.30698e-05 1.50152e-05 1.72136e-05 1.96927e-05 2.24831e-05 2.56175e-05 2.91318e-05 3.30648e-05 3.74582e-05 4.23572e-05 4.78104e-05 5.38701e-05 6.05925e-05 6.80378e-05 7.62703e-05 8.5359e-05 9.53772e-05 0.000106403 0.00011852 0.000131817 0.000146387 0.000162331 0.000179752 0.000198763 0.000219481 0.000242029 0.000266539 0.000293147 0.000321997 0.00035324 0.000387034 0.000423546 0.000462948 0.000505421 0.000551155 0.000600345 0.000653198 0.000709925 0.000770749 0.000835899 0.000905614 0.000980142 0.00105974 0.00114466 0.0012352 0.00133162 0.00143422 0.0015433 0.00165916 0.00178214 0.00191254 0.00205072 0.002197 0.00235175 0.00251534 0.00268812 0.00287048 0.0030628 0.0032655 0.00347895 0.00370359 0.00393984 0.00418811 0.00444886 0.00472252 0.00500954 0.00531039 0.00562553 0.00595544 0.00630059 0.00666148 0.00703859 0.00743243 0.0078435 0.00827232 0.00871939 0.00918524 0.00967039 0.0101754 0.0107008 0.011247 0.0118148 0.0124045 0.0130168 0.0136522 0.0143112 0.0149945 0.0157026 0.016436 0.0171953 0.0179811 0.0187939 0.0196343 0.0205029 0.0214002 0.0223269 0.0232834 0.0242703 0.0252883 0.0263378 0.0274195 0.0285338 0.0296814 0.0308628 0.0320785 0.0333292 0.0346153 0.0359373 0.037296 0.0386916 0.0401249 0.0415963
0 0 0 0 0 0 0 0 0 0 0 0 0 0 0 0 0 0 0 0 0 0 0 0 0 0 0 0 0 0 0 0 0 0 0 0 0 0 0 0 0 0 0 0 0 0 0 0 0 0 3.65144e-310 3.82522e-287 1.29171e-266 3.13436e-248 1.06398e-231 8.82194e-217 2.85614e-203 5.37125e-191 8.22786e-180 1.371e-169 3.18652e-160 1.28047e-151 1.07166e-143 2.19669e-136 1.27064e-129 2.34837e-123 1.54695e-117 4.00001e-112 4.42214e-107 2.25501e-102 5.67493e-98 7.48648e-94 5.46464e-90 2.31667e-86 5.9583e-83 9.66951e-80 1.02596e-76 7.34951e-74 3.65972e-71 1.30077e-68 3.38059e-66 6.56706e-64 9.72882e-62 1.11955e-59 1.01773e-57 7.42233e-56 4.40495e-54 2.15532e-52 8.80011e-51 3.0318e-49 8.90457e-48 2.2509e-46 4.94035e-45 9.49217e-44 1.6087e-42 2.42185e-41 3.26012e-40 3.94811e-39 4.326e-38 4.3116e-37 3.92826e-36 3.28694e-35 2.53689e-34 1.81341e-33 1.20514e-32 7.47271e-32 4.33792e-31 2.36495e-30 1.21448e-29 5.89115e-29 2.70645e-28 1.1805e-27 4.90029e-27 1.9401e-26 7.34144e-26 2.66043e-25 9.25015e-25 3.09128e-24 9.946e-24 3.0858e-23 9.24593e-23 2.67926e-22 7.51885e-22 2.04605e-21 5.40557e-21 1.38813e-20 3.46869e-20 8.44308e-20 2.00388e-19 4.64188e-19 1.05041e-18 2.32406e-18 5.0317e-18 1.06686e-17 2.2169e-17 4.51802e-17 9.03674e-17 1.77509e-16 3.42649e-16 6.50367e-16 1.2145e-15 2.23258e-15 4.04216e-15 7.21171e-15 1.26851e-14 2.20078e-14 3.76779e-14 6.36803e-14 1.06295e-13 1.75299e-13 2.8574e-13 4.60517e-13 7.34097e-13 1.15782e-12 1.80739e-12 2.79329e-12 4.27532e-12 6.48233e-12 9.73926e-12 1.45034e-11 2.14127e-11 3.13503e-11 4.55287e-11 6.55994e-11 9.37957e-11 1.33116e-10 1.87554e-10 2.624e-10 3.64605e-10 5.03254e-10 6.90133e-10 9.40453e-10 1.27372e-09 1.71478e-09 2.29518e-09 3.05464e-09 4.043e-09 5.32242e-09 6.97006e-09 9.08121e-09 1.1773e-08 1.51887e-08 1.95028e-08 2.49269e-08 3.17163e-08 4.0178e-08 5.06794e-08 6.36587e-08 7.96362e-08 9.92275e-08 1.23158e-07 1.5228e-07 1.87592e-07 2.30255e-07 2.81623e-07 3.4326e-07 4.16977e-07 5.04854e-07 6.09282e-07 7.32994e-07 8.79109e-07 1.05118e-06 1.25322e-06 1.48979e-06 1.76604e-06 2.08773e-06 2.46137e-06 2.89422e-06 3.3944e-06 3.97096e-06 4.63397e-06 5.39456e-06 6.26511e-06 7.25924e-06 8.39199e-06 9.67989e-06 1.11411e-05 1.27954e-05 1.46646e-05 1.67724e-05 1.91446e-05 2.18092e-05 2.47967e-05 2.81401e-05 3.18749e-05 3.60398e-05 4.06761e-05 4.58284e-05 5.15448e-05 5.78766e-05 6.48789e-05 7.26105e-05 8.11342e-05 9.05172e-05 0.000100831 0.000112151 0.000124557 0.000138137 0.000152979 0.000169179 0.000186838 0.000206064 0.000226968 0.000249668 0.000274289 0.00030096 0.000329819 0.00036101 0.000394681 0.00043099 0.0004701 0.000512181 0.000557413 0.00060598 0.000658074 0.000713896 0.000773653 0.000837561 0.000905843 0.00097873 0.00105646 0.00113928 0.00122745 0.00132122 0.00142088 0.00152669 0.00163895 0.00175795 0.001884 0.0020174 0.00215847 0.00230755 0.00246497 0.00263107 0.0028062 0.00299072 0.003185 0.00338941 0.00360434 0.00383017 0.00406729 0.00431612 0.00457706 0.00485052 0.00513694 0.00543674 0.00575036 0.00607824 0.00642083 0.00677858 0.00715196 0.00754142 0.00794744 0.0083705 0.00881107 0.00926964 0.0097467 0.0102427 0.0107582 0.0112937 0.0118497 0.0124267 0.0130251 0.0136456 0.0142885 0.0149545 0.0156441 0.0163578 0.017096 0.0178594 0.0186484 0.0194635 0.0203054 0.0211744 0.0220712 0.0229962 0.0239501 0.0249332 0.0259461 0.0269893 0.0280634 0.0291689 0.0303063 0.031476 0.0326786 0.0339146
0 0 0 0 0 0 0 0 0 0 0 0 0 0 0 0 0 0 0 0 0 0 0 0 0 0 0 0 0 0 0 0 0 0 0 0 0 0 0 0 0 0 0 0 0 0 0 0 0 0 0 5.19141e-295 6.33725e-274 4.86133e-255 4.64553e-238 9.80295e-223 7.396e-209 3.00011e-196 9.25978e-185 2.927e-174 1.22328e-164 8.4274e-156 1.15871e-147 3.75561e-140 3.3189e-133 9.08515e-127 8.61901e-121 3.12909e-115 4.74609e-110 3.25135e-105 1.07833e-100 1.84211e-96 1.71341e-92 9.12032e-89 2.90545e-85 5.7677e-82 7.39976e-79 6.34155e-76 3.74059e-73 1.56051e-70 4.71989e-68 1.05864e-65 1.79751e-63 2.35453e-61 2.4208e-59 1.98486e-57 1.31692e-55 7.166e-54 3.23788e-52 1.22878e-50 3.95824e-49 1.09292e-47 2.61012e-46 5.4371e-45 9.95615e-44 1.61428e-42 2.33323e-41 3.02521e-40 3.53925e-39 3.75665e-38 3.63613e-37 3.22479e-36 2.63223e-35 1.98575e-34 1.38999e-33 9.061e-33 5.51981e-32 3.15257e-31 1.69327e-30 8.57739e-30 4.10894e-29 1.8662e-28 8.05542e-28 3.31211e-27 1.29999e-26 4.88066e-26 1.75611e-25 6.06663e-25 2.01565e-24 6.45151e-24 1.99232e-23 5.94485e-23 1.71638e-22 4.80123e-22 1.30287e-21 3.43381e-21 8.7998e-21 2.19512e-20 5.33559e-20 1.26493e-19 2.92766e-19 6.62106e-19 1.46439e-18 3.17002e-18 6.72167e-18 1.39709e-17 2.84846e-17 5.70069e-17 1.12061e-16 2.16504e-16 4.1135e-16 7.69024e-16 1.41543e-15 2.56612e-15 4.58488e-15 8.07692e-15 1.40356e-14 2.40697e-14 4.07524e-14 6.81477e-14 1.12599e-13 1.83893e-13 2.96962e-13 4.7434e-13 7.49681e-13 1.17274e-12 1.81633e-12 2.78606e-12 4.23357e-12 6.37481e-12 9.51447e-12 1.40789e-11 2.066e-11 3.00725e-11 4.34297e-11 6.2241e-11 8.85384e-11 1.25038e-10 1.75345e-10 2.44214e-10 3.37872e-10 4.64426e-10 6.34365e-10 8.61175e-10 1.1621e-09 1.55907e-09 2.07981e-09 2.75916e-09 3.64074e-09 4.77883e-09 6.24066e-09 8.10908e-09 1.04857e-08 1.34948e-08 1.72871e-08 2.20453e-08 2.79897e-08 3.53844e-08 4.45455e-08 5.58492e-08 6.97418e-08 8.67509e-08 1.07498e-07 1.32711e-07 1.63243e-07 2.00087e-07 2.44396e-07 2.97507e-07 3.6096e-07 4.36529e-07 5.26247e-07 6.32443e-07 7.57768e-07 9.05241e-07 1.07828e-06 1.28077e-06 1.51706e-06 1.79207e-06 2.11132e-06 2.48098e-06 2.90795e-06 3.39992e-06 3.96543e-06 4.61396e-06 5.35602e-06 6.20318e-06 7.16824e-06 8.26524e-06 9.50961e-06 1.09182e-05 1.25096e-05 1.4304e-05 1.63232e-05 1.85912e-05 2.1134e-05 2.39795e-05 2.71584e-05 3.07033e-05 3.46497e-05 3.90356e-05 4.39021e-05 4.9293e-05 5.52556e-05 6.184e-05 6.91002e-05 7.70936e-05 8.58813e-05 9.55283e-05 0.000106104 0.000117681 0.000130338 0.000144157 0.000159225 0.000175633 0.000193478 0.000212862 0.000233893 0.000256682 0.000281349 0.000308017 0.000336815 0.00036788 0.000401353 0.000437383 0.000476123 0.000517736 0.000562387 0.000610252 0.000661511 0.000716352 0.00077497 0.000837567 0.000904351 0.000975538 0.00105135 0.00113202 0.00121779 0.00130889 0.00140558 0.00150813 0.0016168 0.00173185 0.00185359 0.00198228 0.00211823 0.00226175 0.00241314 0.00257272 0.00274082 0.00291777 0.0031039 0.00329957 0.00350512 0.00372092 0.00394732 0.00418471 0.00443346 0.00469396 0.00496659 0.00525175 0.00554985 0.00586129 0.00618648 0.00652585 0.00687982 0.00724882 0.00763327 0.00803362 0.00845032 0.00888379 0.0093345 0.00980291 0.0102895 0.0107946 0.0113188 0.0118626 0.0124264 0.0130106 0.0136158 0.0142425 0.014891 0.0155619 0.0162557 0.0169728 0.0177138 0.018479 0.0192691 0.0200844 0.0209255 0.0217928 0.0226869 0.0236081 0.0245571 0.0255342 0.0265399 0.0275747
0 0 0 0 0 0 0 0 0 0 0 0 0 0 0 0 0 0 0 0 0 0 0 0 0 0 0 0 0 0 0 0 0 0 0 0 0 0 0 0 0 0 0 0 0 0 0 0 0 0 0 5.52474e-303 2.48042e-281 6.10885e-262 1.66635e-244 9.06206e-229 1.61148e-214 1.42459e-201 8.94312e-190 5.40898e-179 4.097e-169 4.87402e-160 1.10831e-151 5.71516e-144 7.76019e-137 3.16295e-130 4.3427e-124 2.2237e-118 4.64711e-113 4.29382e-108 1.88371e-103 4.18154e-99 4.97228e-95 3.33332e-91 1.31908e-87 3.21176e-84 4.99521e-81 5.13365e-78 3.59512e-75 1.76419e-72 6.22258e-70 1.61458e-67 3.14785e-65 4.70169e-63 5.47636e-61 5.05603e-59 3.75591e-57 2.27614e-55 1.13968e-53 4.77046e-52 1.68749e-50 5.09546e-49 1.32563e-47 2.99707e-46 5.93592e-45 1.03759e-43 1.6118e-42 2.23948e-41 2.79991e-40 3.16766e-39 3.25991e-38 3.06673e-37 2.64935e-36 2.11087e-35 1.55737e-34 1.06801e-33 6.832e-33 4.09035e-32 2.2992e-31 1.21696e-30 6.08236e-30 2.87804e-29 1.29249e-28 5.52179e-28 2.2491e-27 8.75222e-27 3.26037e-26 1.16483e-25 3.99831e-25 1.32078e-24 4.2055e-24 1.29268e-23 3.8412e-23 1.10494e-22 3.08081e-22 8.33639e-22 2.19171e-21 5.60486e-21 1.39566e-20 3.38737e-20 8.02109e-20 1.85476e-19 4.19183e-19 9.2671e-19 2.00564e-18 4.25264e-18 8.84052e-18 1.80307e-17 3.61033e-17 7.10166e-17 1.37314e-16 2.61133e-16 4.88701e-16 9.00519e-16 1.63467e-15 2.92463e-15 5.15962e-15 8.97979e-15 1.54243e-14 2.61586e-14 4.38197e-14 7.25329e-14 1.18679e-13 1.92015e-13 3.07307e-13 4.8666e-13 7.62839e-13 1.18393e-12 1.81983e-12 2.77124e-12 4.18185e-12 6.25506e-12 9.27622e-12 1.36425e-11 1.99022e-11 2.88066e-11 4.13772e-11 5.8993e-11 8.35023e-11 1.17365e-10 1.63836e-10 2.27187e-10 3.12998e-10 4.28508e-10 5.8305e-10 7.88593e-10 1.06039e-09 1.4178e-09 1.8852e-09 2.4932e-09 3.28e-09 4.29303e-09 5.59092e-09 7.24578e-09 9.34593e-09 1.1999e-08 1.53357e-08 1.95138e-08 2.47235e-08 3.11926e-08 3.9193e-08 4.90482e-08 6.11417e-08 7.59261e-08 9.39337e-08 1.15789e-07 1.42221e-07 1.74078e-07 2.12348e-07 2.58169e-07 3.12857e-07 3.77925e-07 4.55107e-07 5.46385e-07 6.54019e-07 7.8058e-07 9.2898e-07 1.10251e-06 1.3049e-06 1.54031e-06 1.81344e-06 2.12955e-06 2.49451e-06 2.91484e-06 3.39782e-06 3.95153e-06 4.58487e-06 5.30773e-06 6.13096e-06 7.06654e-06 8.1276e-06 9.32854e-06 1.06851e-05 1.22144e-05 1.39353e-05 1.58681e-05 1.80349e-05 2.04597e-05 2.31685e-05 2.61892e-05 2.95522e-05 3.329e-05 3.74376e-05 4.20327e-05 4.71154e-05 5.2729e-05 5.89196e-05 6.57364e-05 7.32318e-05 8.14617e-05 9.04855e-05 0.000100366 0.000111171 0.00012297 0.000135838 0.000149854 0.000165103 0.000181671 0.000199651 0.000219141 0.000240242 0.000263063 0.000287714 0.000314315 0.000342987 0.000373859 0.000407066 0.000442748 0.000481049 0.000522121 0.000566123 0.000613217 0.000663574 0.00071737 0.000774787 0.000836014 0.000901247 0.000970687 0.00104454 0.00112303 0.00120637 0.00129479 0.00138852 0.00148781 0.00159291 0.00170406 0.00182154 0.00194561 0.00207654 0.00221462 0.00236013 0.00251337 0.00267463 0.00284424 0.00302249 0.00320972 0.00340624 0.00361238 0.00382849 0.00405491 0.00429199 0.00454008 0.00479955 0.00507075 0.00535406 0.00564986 0.00595853 0.00628045 0.00661602 0.00696563 0.00732967 0.00770856 0.00810269 0.00851249 0.00893836 0.00938073 0.00984001 0.0103166 0.010811 0.0113236 0.0118548 0.0124051 0.0129749 0.0135646 0.0141747 0.0148056 0.0154578 0.0161317 0.0168278 0.0175464 0.0182881 0.0190533 0.0198424 0.0206559 0.0214943 0.0223579
0 0 0 0 0 0 0 0 0 0 0 0 0 0 0 0 0 0 0 0 0 0 0 0 0 0 0 0 0 0 0 0 0 0 0 0 0 0 0 0 0 0 0 0 0 0 0 0 0 0 0 4.61037e-311 7.7453e-289 6.21961e-269 4.91057e-251 6.96907e-235 2.95435e-220 5.75087e-207 7.41228e-195 8.65198e-184 1.19711e-173 2.47715e-164 9.37796e-156 7.74125e-148 1.62426e-140 9.90943e-134 1.97872e-127 1.4356e-121 4.15121e-116 5.19384e-111 3.02518e-106 8.75661e-102 1.3355e-97 1.131e-93 5.57567e-90 1.66965e-86 3.15602e-83 3.89899e-80 3.24914e-77 1.8795e-74 7.74657e-72 2.32976e-69 5.22506e-67 8.91439e-65 1.17823e-62 1.22681e-60 1.02191e-58 6.90685e-57 3.83754e-55 1.77402e-53 6.89974e-52 2.2811e-50 6.472e-49 1.58985e-47 3.4093e-46 6.43103e-45 1.0747e-43 1.60163e-42 2.14182e-41 2.58493e-40 2.83073e-39 2.82694e-38 2.5867e-37 2.17823e-36 1.69506e-35 1.2237e-34 8.22533e-34 5.16547e-33 3.04048e-32 1.68255e-31 8.77859e-31 4.32995e-30 2.02416e-29 8.98981e-29 3.80175e-28 1.53417e-27 5.91967e-27 2.18821e-26 7.76306e-26 2.64776e-25 8.69622e-25 2.75462e-24 8.42767e-24 2.49387e-23 7.14718e-23 1.98626e-22 5.35919e-22 1.40546e-21 3.58642e-21 8.91413e-21 2.16022e-20 5.10891e-20 1.1802e-19 2.66533e-19 5.88939e-19 1.27424e-18 2.70157e-18 5.61661e-18 1.14584e-17 2.29532e-17 4.51757e-17 8.74116e-17 1.66373e-16 3.11663e-16 5.74913e-16 1.04485e-15 1.87175e-15 3.30666e-15 5.76326e-15 9.9145e-15 1.68413e-14 2.82587e-14 4.68563e-14 7.68031e-14 1.24491e-13 1.99614e-13 3.16723e-13 4.97438e-13 7.7357e-13 1.19148e-12 1.81813e-12 2.74932e-12 4.12102e-12 6.1245e-12 9.02667e-12 1.3197e-11 1.91432e-11 2.75574e-11 3.93763e-11 5.58592e-11 7.86867e-11 1.10087e-10 1.52997e-10 2.11257e-10 2.89867e-10 3.95292e-10 5.35842e-10 7.22141e-10 9.67696e-10 1.28959e-09 1.7093e-09 2.25371e-09 2.95631e-09 3.85858e-09 5.01171e-09 6.47851e-09 8.33579e-09 1.0677e-08 1.36154e-08 1.72876e-08 2.18579e-08 2.75228e-08 3.45168e-08 4.31185e-08 5.36574e-08 6.65225e-08 8.21706e-08 1.01137e-07 1.24046e-07 1.51626e-07 1.84718e-07 2.24299e-07 2.71492e-07 3.27588e-07 3.94069e-07 4.72624e-07 5.65183e-07 6.73936e-07 8.01365e-07 9.50279e-07 1.12384e-06 1.32562e-06 1.5596e-06 1.83026e-06 2.14261e-06 2.50219e-06 2.91522e-06 3.38855e-06 3.9298e-06 4.54735e-06 5.25049e-06 6.04939e-06 6.95526e-06 7.98037e-06 9.13813e-06 1.04432e-05 1.19116e-05 1.35606e-05 1.54092e-05 1.74779e-05 1.97888e-05 2.23658e-05 2.52349e-05 2.84239e-05 3.19627e-05 3.58836e-05 4.02211e-05 4.50121e-05 5.02962e-05 5.61156e-05 6.25154e-05 6.95435e-05 7.72509e-05 8.56918e-05 9.49238e-05 0.000105008 0.000116008 0.000127993 0.000141034 0.000155208 0.000170594 0.000187277 0.000205344 0.000224888 0.000246008 0.000268804 0.000293384 0.000319858 0.000348344 0.000378963 0.000411841 0.000447111 0.00048491 0.000525381 0.000568671 0.000614935 0.000664332 0.000717027 0.000773192 0.000833002 0.000896641 0.000964298 0.00103617 0.00111245 0.00119335 0.00127908 0.00136986 0.00146592 0.00156748 0.00167479 0.00178808 0.00190761 0.00203362 0.00216639 0.00230618 0.00245325 0.0026079 0.0027704 0.00294104 0.00312012 0.00330794 0.00350481 0.00371104 0.00392695 0.00415286 0.0043891 0.004636 0.00489389 0.00516313 0.00544406 0.00573703 0.00604239 0.00636051 0.00669175 0.00703648 0.00739508 0.00776791 0.00815535 0.0085578 0.00897563 0.00940924 0.00985901 0.0103253 0.0108086 0.0113093 0.0118277 0.0123642 0.0129193 0.0134934 0.0140869 0.0147002 0.0153336 0.0159877 0.0166628 0.0173593 0.0180777
0 0 0 0 0 0 0 0 0 0 0 0 0 0 0 0 0 0 0 0 0 0 0 0 0 0 0 0 0 0 0 0 0 0 0 0 0 0 0 0 0 0 0 0 0 0 0 0 0 0 0 0 1.92948e-296 5.13057e-276 1.18885e-257 4.45862e-241 4.5573e-226 1.97364e-212 5.27217e-200 1.1979e-188 3.05159e-178 1.10633e-168 7.01974e-160 9.33317e-152 3.04331e-144 2.79383e-137 8.15323e-131 8.41959e-125 3.38306e-119 5.75437e-114 4.46645e-109 1.69167e-104 3.31988e-100 3.56262e-96 2.19427e-92 8.10307e-89 1.86627e-85 2.77826e-82 2.76125e-79 1.88692e-76 9.10642e-74 3.18054e-71 8.22056e-69 1.60479e-66 2.41088e-64 2.83552e-62 2.65243e-60 2.00225e-58 1.23615e-56 6.31932e-55 2.70567e-53 9.80555e-52 3.03749e-50 8.11604e-49 1.88635e-47 3.84371e-46 6.91663e-45 1.10663e-43 1.58427e-42 2.04143e-41 2.38078e-40 2.52594e-39 2.44989e-38 2.18199e-37 1.7922e-36 1.36293e-35 9.63254e-35 6.3491e-34 3.91582e-33 2.26686e-32 1.23535e-31 6.35499e-31 3.0941e-30 1.42928e-29 6.27866e-29 2.62871e-28 1.05109e-27 4.02179e-27 1.47531e-26 5.19758e-26 1.76155e-25 5.7525e-25 1.81275e-24 5.52025e-24 1.62671e-23 4.64465e-23 1.28653e-22 3.46112e-22 9.05377e-22 2.30524e-21 5.71896e-21 1.38372e-20 3.26822e-20 7.54196e-20 1.70189e-19 3.75838e-19 8.12874e-19 1.72312e-18 3.58247e-18 7.30993e-18 1.46482e-17 2.88446e-17 5.58477e-17 1.06378e-16 1.99453e-16 3.68292e-16 6.70075e-16 1.20182e-15 2.1259e-15 3.71038e-15 6.39223e-15 1.08747e-14 1.82763e-14 3.03543e-14 4.98395e-14 8.09278e-14 1.29998e-13 2.06647e-13 3.25171e-13 5.06652e-13 7.81899e-13 1.19551e-12 1.81148e-12 2.72083e-12 4.05196e-12 5.98452e-12 8.76786e-12 1.27454e-11 1.83867e-11 2.6329e-11 3.74309e-11 5.28419e-11 7.40897e-11 1.03193e-10 1.42799e-10 1.96364e-10 2.68368e-10 3.64586e-10 4.92419e-10 6.61303e-10 8.83202e-10 1.1732e-09 1.55024e-09 2.03795e-09 2.6657e-09 3.46981e-09 4.49501e-09 5.79606e-09 7.43984e-09 9.50753e-09 1.20974e-08 1.53279e-08 1.9341e-08 2.43066e-08 3.0427e-08 3.79423e-08 4.71363e-08 5.83434e-08 7.19563e-08 8.84344e-08 1.08314e-07 1.32217e-07 1.60867e-07 1.95099e-07 2.35872e-07 2.84293e-07 3.41626e-07 4.09316e-07 4.89009e-07 5.82576e-07 6.92135e-07 8.20081e-07 9.69116e-07 1.14228e-06 1.34297e-06 1.57501e-06 1.84266e-06 2.15066e-06 2.5043e-06 2.90943e-06 3.37253e-06 3.90078e-06 4.50206e-06 5.18509e-06 5.95939e-06 6.83546e-06 7.82473e-06 8.93974e-06 1.01941e-05 1.16027e-05 1.31817e-05 1.49485e-05 1.69222e-05 1.91231e-05 2.15736e-05 2.42973e-05 2.732e-05 3.06692e-05 3.43746e-05 3.84678e-05 4.29828e-05 4.79559e-05 5.34257e-05 5.94334e-05 6.6023e-05 7.3241e-05 8.11369e-05 8.97632e-05 9.91756e-05 0.000109433 0.000120597 0.000132733 0.000145911 0.000160202 0.000175685 0.000192438 0.000210546 0.000230098 0.000251186 0.000273907 0.000298362 0.000324656 0.000352901 0.00038321 0.000415704 0.000450507 0.000487748 0.000527561 0.000570087 0.000615468 0.000663856 0.000715404 0.000770274 0.00082863 0.000890643 0.00095649 0.00102635 0.00110042 0.00117888 0.00126193 0.00134978 0.00144263 0.00154071 0.00164423 0.00175341 0.00186849 0.00198971 0.0021173 0.00225152 0.00239262 0.00254085 0.00269648 0.00285978 0.00303101 0.00321047 0.00339844 0.00359519 0.00380103 0.00401626 0.00424117 0.00447608 0.0047213 0.00497714 0.00524393 0.00552198 0.00581164 0.00611322 0.00642707 0.00675353 0.00709294 0.00744565 0.007812 0.00819235 0.00858706 0.00899649 0.00942099 0.00986094 0.0103167 0.0107886 0.0112771 0.0117825 0.0123052 0.0128455 0.0134039 0.0139807 0.0145763
0 0 0 0 0 0 0 0 0 0 0 0 0 0 0 0 0 0 0 0 0 0 0 0 0 0 0 0 0 0 0 0 0 0 0 0 0 0 0 0 0 0 0 0 0 0 0 0 0 0 0 0 3.83471e-304 3.42899e-283 2.3646e-264 2.37303e-247 5.91513e-232 5.75828e-218 3.21812e-205 1.43561e-193 6.78654e-183 4.342e-173 4.64833e-164 1.00157e-155 5.10435e-148 7.08839e-141 3.03807e-134 4.48589e-128 2.51529e-122 5.83945e-117 6.06243e-112 3.01493e-107 7.63829e-103 1.04183e-98 8.03993e-95 3.67127e-91 1.0329e-87 1.85732e-84 2.2066e-81 1.78517e-78 1.01085e-75 4.10797e-73 1.22587e-70 2.74304e-68 4.69166e-66 6.24277e-64 6.56775e-62 5.54517e-60 3.80925e-58 2.15622e-56 1.01758e-54 4.04729e-53 1.3704e-51 3.98714e-50 1.00545e-48 2.2153e-47 4.29663e-46 7.38704e-45 1.13314e-43 1.56025e-42 1.93939e-41 2.18774e-40 2.25081e-39 2.12182e-38 1.84075e-37 1.47562e-36 1.09726e-35 7.59568e-35 4.91154e-34 2.97611e-33 1.69498e-32 9.099e-32 4.61636e-31 2.2191e-30 1.01312e-29 4.40276e-29 1.82516e-28 7.23201e-28 2.74429e-27 9.9908e-27 3.49553e-26 1.17727e-25 3.82257e-25 1.19838e-24 3.63238e-24 1.06592e-23 3.0321e-23 8.37074e-23 2.24535e-22 5.85835e-22 1.48829e-21 3.6851e-21 8.90167e-21 2.09963e-20 4.8399e-20 1.09121e-19 2.40825e-19 5.20639e-19 1.10339e-18 2.29388e-18 4.68116e-18 9.3831e-18 1.84846e-17 3.58094e-17 6.82568e-17 1.28082e-16 2.36724e-16 4.31143e-16 7.74156e-16 1.37107e-15 2.39608e-15 4.13365e-15 7.04258e-15 1.18539e-14 1.97188e-14 3.24298e-14 5.27476e-14 8.48785e-14 1.35166e-13 2.13079e-13 3.32621e-13 5.14297e-13 7.8787e-13 1.19615e-12 1.80017e-12 2.68628e-12 3.97554e-12 5.83645e-12 8.50169e-12 1.22902e-11 1.76358e-11 2.5125e-11 3.55443e-11 4.99425e-11 6.97083e-11 9.66689e-11 1.33214e-10 1.82452e-10 2.48396e-10 3.36208e-10 4.52484e-10 6.05606e-10 8.06176e-10 1.06753e-09 1.40637e-09 1.84348e-09 2.40465e-09 3.12172e-09 4.03376e-09 5.1886e-09 6.6445e-09 8.47209e-09 1.07567e-08 1.3601e-08 1.71281e-08 2.14849e-08 2.68461e-08 3.34188e-08 4.14478e-08 5.1221e-08 6.30762e-08 7.74082e-08 9.46774e-08 1.15419e-07 1.40251e-07 1.6989e-07 2.0516e-07 2.47004e-07 2.96507e-07 3.54905e-07 4.23603e-07 5.04201e-07 5.9851e-07 7.08576e-07 8.36703e-07 9.85487e-07 1.15784e-06 1.35701e-06 1.58664e-06 1.85078e-06 2.15393e-06 2.5011e-06 2.89783e-06 3.35021e-06 3.86502e-06 4.44965e-06 5.11229e-06 5.86185e-06 6.70815e-06 7.66186e-06 8.73465e-06 9.93923e-06 1.12894e-05 1.28001e-05 1.44876e-05 1.63695e-05 1.84646e-05 2.07934e-05 2.3378e-05 2.62419e-05 2.94106e-05 3.29113e-05 3.67731e-05 4.10272e-05 4.57068e-05 5.08473e-05 5.64866e-05 6.26647e-05 6.94243e-05 7.68106e-05 8.48716e-05 9.36579e-05 0.000103223 0.000113624 0.00012492 0.000137174 0.000150453 0.000164825 0.000180364 0.000197147 0.000215253 0.000234768 0.000255778 0.000278376 0.000302657 0.000328723 0.000356676 0.000386625 0.000418684 0.00045297 0.000489603 0.000528712 0.000570426 0.000614881 0.000662218 0.000712582 0.000766123 0.000822995 0.000883359 0.000947378 0.00101522 0.00108707 0.0011631 0.00124349 0.00132843 0.00141813 0.00151277 0.00161257 0.00171773 0.00182847 0.00194501 0.00206757 0.00219638 0.00233168 0.00247371 0.0026227 0.00277892 0.00294261 0.00311403 0.00329344 0.00348112 0.00367733 0.00388234 0.00409645 0.00431993 0.00455307 0.00479616 0.00504951 0.0053134 0.00558815 0.00587406 0.00617145 0.00648062 0.00680189 0.00713559 0.00748203 0.00784155 0.00821447 0.00860112 0.00900184 0.00941697 0.00984684 0.0102918 0.0107522 0.0112283 0.0117206
0 0 0 0 0 0 0 0 0 0 0 0 0 0 0 0 0 0 0 0 0 0 0 0 0 0 0 0 0 0 0 0 0 0 0 0 0 0 0 0 0 0 0 0 0 0 0 0 0 0 0 0 6.08013e-312 1.8568e-290 3.86383e-271 1.05072e-253 6.45997e-238 1.42826e-223 1.68573e-210 1.48922e-198 1.31673e-187 1.49749e-177 2.72294e-168 9.56688e-160 7.66375e-152 1.61842e-144 1.02374e-137 2.17123e-131 1.70612e-125 5.42763e-120 7.56493e-115 4.95699e-110 1.62653e-105 2.82841e-101 2.74272e-97 1.55284e-93 5.3505e-90 1.16492e-86 1.65815e-83 1.59155e-80 1.05956e-77 5.01987e-75 1.73269e-72 4.45179e-70 8.68326e-68 1.30921e-65 1.55141e-63 1.46713e-61 1.12294e-59 7.04742e-58 3.67037e-56 1.60407e-54 5.94346e-53 1.88498e-51 5.1627e-50 1.23119e-48 2.57625e-47 4.76389e-46 7.83685e-45 1.15405e-43 1.53016e-42 1.83668e-41 2.00596e-40 2.00295e-39 1.8366e-38 1.55302e-37 1.2158e-36 8.84453e-36 5.99967e-35 3.8075e-34 2.26751e-33 1.27092e-32 6.72263e-32 3.36459e-31 1.5972e-30 7.20814e-30 3.09937e-29 1.27235e-28 4.99657e-28 1.88051e-27 6.7949e-27 2.36111e-26 7.90247e-26 2.55139e-25 7.95752e-25 2.4008e-24 7.01569e-24 1.98819e-23 5.47046e-23 1.46303e-22 3.80724e-22 9.65008e-22 2.38471e-21 5.75078e-21 1.35452e-20 3.11871e-20 7.02502e-20 1.5493e-19 3.34778e-19 7.09281e-19 1.47439e-18 3.00895e-18 6.03252e-18 1.18883e-17 2.3042e-17 4.3948e-17 8.25284e-17 1.52661e-16 2.78308e-16 5.00255e-16 8.86995e-16 1.55202e-15 2.68102e-15 4.57402e-15 7.71003e-15 1.28449e-14 2.11582e-14 3.44701e-14 5.55602e-14 8.86297e-14 1.39965e-13 2.18881e-13 3.39055e-13 5.20381e-13 7.91544e-13 1.19355e-12 1.78452e-12 2.6462e-12 3.8926e-12 5.68156e-12 8.22997e-12 1.18337e-11 1.68935e-11 2.39485e-11 3.37191e-11 4.71618e-11 6.55384e-11 9.05035e-11 1.24214e-10 1.69463e-10 2.29851e-10 3.09991e-10 4.15761e-10 5.54615e-10 7.3595e-10 9.71564e-10 1.27619e-09 1.66813e-09 2.17005e-09 2.80985e-09 3.62174e-09 4.6475e-09 5.93793e-09 7.55455e-09 9.57153e-09 1.2078e-08 1.51807e-08 1.90068e-08 2.37074e-08 2.94614e-08 3.64801e-08 4.50115e-08 5.53467e-08 6.78256e-08 8.28437e-08 1.00861e-07 1.22408e-07 1.481e-07 1.78643e-07 2.14847e-07 2.57639e-07 3.08078e-07 3.67368e-07 4.36877e-07 5.18155e-07 6.1295e-07 7.23235e-07 8.51226e-07 9.99411e-07 1.17057e-06 1.36782e-06 1.59461e-06 1.85479e-06 2.15265e-06 2.4929e-06 2.88078e-06 3.32205e-06 3.82305e-06 4.39077e-06 5.03283e-06 5.75763e-06 6.5743e-06 7.49283e-06 8.52407e-06 9.67986e-06 1.0973e-05 1.24174e-05 1.40281e-05 1.58214e-05 1.78147e-05 2.00269e-05 2.24784e-05 2.51909e-05 2.81879e-05 3.14942e-05 3.51369e-05 3.91443e-05 4.35471e-05 4.83777e-05 5.36707e-05 5.94629e-05 6.57932e-05 7.2703e-05 8.02362e-05 8.84389e-05 9.73601e-05 0.000107051 0.000117567 0.000128965 0.000141305 0.00015465 0.000169067 0.000184626 0.000201399 0.000219464 0.000238899 0.000259789 0.00028222 0.000306284 0.000332075 0.000359692 0.000389236 0.000420815 0.000454539 0.000490523 0.000528884 0.000569748 0.00061324 0.000659492 0.000708641 0.000760827 0.000816195 0.000874894 0.000937078 0.00100291 0.00107254 0.00114615 0.0012239 0.00130598 0.00139256 0.00148383 0.00157999 0.00168121 0.00178772 0.0018997 0.00201737 0.00214095 0.00227064 0.00240667 0.00254927 0.00269866 0.00285509 0.0030188 0.00319001 0.00336899 0.00355598 0.00375125 0.00395504 0.00416762 0.00438926 0.00462023 0.0048608 0.00511125 0.00537187 0.00564292 0.00592472 0.00621753 0.00652166 0.0068374 0.00716505 0.00750491 0.00785729 0.0082225 0.00860083 0.00899261 0.00939814
